; generated by PrusaSlicer 2.9.2 on 2025-04-16 at 13:01:39 UTC


;
;
; 

; external perimeters extrusion width = 0.45mm
; perimeters extrusion width = 0.45mm
; infill extrusion width = 0.45mm
; solid infill extrusion width = 0.45mm
; top infill extrusion width = 0.40mm
; support material extrusion width = 0.35mm
; first layer extrusion width = 0.42mm

M73 P0 R161
M73 Q0 S164
M201 X1000 Y1000 Z200 E5000 ; sets maximum accelerations, mm/sec^2
M203 X200 Y200 Z12 E120 ; sets maximum feedrates, mm / sec
M204 S1250 T1250 ; sets acceleration (S) and retract acceleration (R), mm/sec^2
M205 X8.00 Y8.00 Z0.40 E4.50 ; sets the jerk limits, mm/sec
M205 S0 T0 ; sets the minimum extruding and travel feed rate, mm/sec

; printing object L Calf.STL id:0 copy 0
; stop printing object L Calf.STL id:0 copy 0

;TYPE:Custom
M862.3 P "MK3S" ; printer model check
M862.1 P0.4 ; nozzle diameter check
M115 U3.14.1 ; tell printer latest fw version
G90 ; use absolute coordinates
M83 ; extruder relative mode
M104 S215 ; set extruder temp
M140 S60 ; set bed temp
M190 S60 ; wait for bed temp
M109 S215 ; wait for extruder temp
G28 W ; home all without mesh bed level
G80 X96.6087 Y28.9249 W56.7826 H152.915 ; mesh bed levelling

G1 Z0.2 F720
G1 Y-3 F1000 ; go outside print area
G92 E0
G1 X60 E9 F1000 ; intro line
G1 X100 E12.5 F1000 ; intro line

G92 E0
M221 S95

; Don't change E values below. Excessive value can damage the printer.

G21 ; set units to millimeters
G90 ; use absolute coordinates
M83 ; use relative distances for extrusion

M900 K0.05 ; Filament gcode LA 1.5
M900 K30 ; Filament gcode LA 1.0




M107
;LAYER_CHANGE
;Z:0.2
;HEIGHT:0.2
G1 E-.8 F2100
G1 Z.6 F720
G1 X97.188 Y31.596 F10800
G1 Z.2 F720
G1 E.8 F2100
M204 S800
;TYPE:Skirt/Brim
;WIDTH:0.42
G1 F1200
G1 X98.836 Y30.661 E.05941
G1 X121.35 Y29.119 E.70756
G1 X128.687 Y29.121 E.23005
G1 X146.187 Y30.621 E.55071
G1 X146.929 Y30.82 E.02409
G1 X151.943 Y33.169 E.17361
G1 X152.907 Y34.053 E.04101
G1 X153.203 Y35.151 E.03566
G1 X153.193 Y55.09 E.62517
G1 X141.657 Y175.058 E3.77886
G1 X141.026 Y176.396 E.04638
G1 X138.719 Y178.703 E.1023
G1 X138.151 Y179.113 E.02196
G1 X133.536 Y181.42 E.16177
G1 X132.558 Y181.651 E.03151
G1 X117.442 Y181.651 E.47395
G1 X116.464 Y181.42 E.03151
G1 X111.85 Y179.113 E.16174
G1 X111.281 Y178.703 E.02199
G1 X108.974 Y176.396 E.1023
G1 X108.343 Y175.067 E.04613
G1 X96.808 Y59.713 E3.63488
G1 X96.797 Y32.844 E.84246
M73 Q0 S163
G1 X97.17 Y31.653 E.03913
M204 S1000
;WIPE_START
G1 F8640
G1 X97.188 Y31.596 E-.0138
G1 X98.836 Y30.661 E-.43751
G1 X100.343 Y30.558 E-.34869
;WIPE_END
G1 Z.6 F720
; printing object L Calf.STL id:0 copy 0
G1 X129.564 Y164.226 F10800
G1 Z.2 F720
G1 E.8 F2100
M204 S800
;TYPE:Support material interface
;WIDTH:0.35
G1 F1200
G1 X129.564 Y169.598 E.13717
G1 X129.057 Y169.598 E.01295
G1 X129.057 Y164.226 E.13717
G1 X128.55 Y164.226 E.01295
G1 X128.55 Y169.598 E.13717
G1 X128.042 Y169.598 E.01297
G1 X128.042 Y164.992 E.11761
M204 S1000
G1 X127.763 Y164.729 F10800
M204 S800
;TYPE:Support material
;WIDTH:0.42
G1 F1200
G1 X127.495 Y165.307 E.01998
G1 X126.978 Y165.924 E.02524
G1 X126.978 Y164.282 E.05148
G1 X127.861 Y164.282 E.02769
G1 X127.775 Y164.674 E.01258
M204 S1000
G1 X127.797 Y165.512 F10800
M204 S800
;TYPE:Support material interface
;WIDTH:0.35
G1 F1200
G1 X127.535 Y165.855 E.01102
G1 X127.535 Y169.598 E.09557
G1 X127.028 Y169.598 E.01295
G1 X127.028 Y166.358 E.08273
G1 X126.521 Y166.687 E.01543
G1 X126.521 Y169.598 E.07433
G1 X126.014 Y169.598 E.01295
G1 X126.014 Y166.905 E.06876
G1 X125.507 Y167.04 E.0134
G1 X125.507 Y169.598 E.06532
G1 X125 Y169.598 E.01295
G1 X125 Y167.068 E.0646
G1 X124.493 Y167.024 E.01299
G1 X124.493 Y169.598 E.06572
G1 X123.986 Y169.598 E.01295
G1 X123.986 Y166.908 E.06869
G1 X123.479 Y166.706 E.01394
G1 X123.479 Y169.598 E.07384
G1 X122.972 Y169.598 E.01295
G1 X122.972 Y166.367 E.0825
G1 X122.465 Y165.867 E.01818
G1 X122.465 Y169.598 E.09527
G1 X121.958 Y169.598 E.01295
G1 X121.958 Y164.985 E.11779
G1 X121.766 Y164.226 E.01999
M73 P0 R160
G1 X121.45 Y164.226 E.00807
G1 X121.45 Y169.598 E.13717
G1 X120.943 Y169.598 E.01295
G1 X120.943 Y164.226 E.13717
G1 X120.436 Y164.226 E.01295
G1 X120.436 Y169.598 E.13717
M204 S1000
;WIPE_START
G1 F8640
G1 X120.436 Y166.133 E-.8
;WIPE_END
G1 Z.6 F720
G1 X123.022 Y165.927 F10800
G1 Z.2 F720
G1 E.8 F2100
M204 S800
;TYPE:Support material
;WIDTH:0.42
G1 F1200
G1 X122.678 Y165.563 E.0157
G1 X122.357 Y165.029 E.01954
G1 X122.138 Y164.282 E.02441
G1 X123.022 Y164.282 E.02772
G1 X123.022 Y165.871 E.04982
M204 S1000
;WIPE_START
G1 F8640
G1 X123.022 Y164.282 E-.3669
G1 X122.138 Y164.282 E-.20412
G1 X122.357 Y165.029 E-.17974
G1 X122.467 Y165.212 E-.04924
;WIPE_END
G1 Z.6 F720
G1 X117.02 Y164.001 F10800
G1 Z.2 F720
G1 E.8 F2100
M204 S800
G1 F1200
G1 X117.301 Y164.282 E.01246
G1 X120.022 Y164.282 E.08532
G1 X120.022 Y169.962 E.17809
G1 X129.978 Y169.962 E.31216
G1 X129.978 Y164.282 E.17809
G1 X132.699 Y164.282 E.08532
G1 X132.98 Y164.001 E.01246
G1 X132.98 Y150.505 E.42316
G1 X137.172 Y150.505 E.13144
G1 X137.172 Y152.812 E.07233
G1 X139.479 Y152.812 E.07233
G1 X139.479 Y174.849 E.69095
G1 X137.172 Y174.849 E.07233
G1 X137.172 Y177.156 E.07233
G1 X132.558 Y177.156 E.14467
G1 X132.558 Y179.463 E.07233
G1 X117.442 Y179.463 E.47395
G1 X117.442 Y177.156 E.07233
G1 X112.828 Y177.156 E.14467
G1 X112.828 Y174.849 E.07233
G1 X110.521 Y174.849 E.07233
G1 X110.521 Y152.812 E.69095
G1 X112.828 Y152.812 E.07233
G1 X112.828 Y150.505 E.07233
G1 X117.02 Y150.505 E.13144
G1 X117.02 Y163.944 E.42137
M204 S1000
;WIPE_START
G1 F8640
G1 X117.02 Y160.479 E-.8
;WIPE_END
G1 Z.6 F720
G1 X138.826 Y174.679 F10800
G1 Z.2 F720
G1 E.8 F2100
M204 S800
G1 F1200
G1 X138.826 Y153.152 E.67496
G1 X138.407 Y153.152 E.01314
G1 X138.407 Y174.509 E.66963
G1 X137.988 Y174.509 E.01314
G1 X137.988 Y153.152 E.66963
G1 X137.569 Y153.152 E.01314
G1 X137.569 Y174.509 E.66963
G1 X137.15 Y174.509 E.01314
G1 X137.15 Y153.152 E.66963
G1 X136.832 Y153.152 E.00997
G1 X136.832 Y150.845 E.07233
G1 X136.731 Y150.845 E.00317
G1 X136.731 Y176.816 E.8143
G1 X136.312 Y176.816 E.01314
G1 X136.312 Y150.845 E.8143
G1 X135.893 Y150.845 E.01314
G1 X135.893 Y176.816 E.8143
G1 X135.474 Y176.816 E.01314
G1 X135.474 Y150.845 E.8143
G1 X135.055 Y150.845 E.01314
G1 X135.055 Y176.816 E.8143
G1 X134.636 Y176.816 E.01314
G1 X134.636 Y150.845 E.8143
G1 X134.217 Y150.845 E.01314
G1 X134.217 Y176.816 E.8143
G1 X133.799 Y176.816 E.01311
G1 X133.799 Y150.845 E.8143
G1 X133.38 Y150.845 E.01314
G1 X133.38 Y176.816 E.8143
G1 X132.961 Y176.816 E.01314
G1 X132.961 Y164.5 E.38616
G1 X132.839 Y164.621 E.00539
G1 X132.542 Y164.621 E.00931
G1 X132.542 Y176.816 E.38237
G1 X132.218 Y176.816 E.01016
G1 X132.218 Y179.124 E.07237
G1 X132.123 Y179.124 E.00298
G1 X132.123 Y164.621 E.45473
G1 X131.704 Y164.621 E.01314
G1 X131.704 Y179.124 E.45473
G1 X131.285 Y179.124 E.01314
G1 X131.285 Y164.621 E.45473
G1 X130.866 Y164.621 E.01314
G1 X130.866 Y179.124 E.45473
G1 X130.447 Y179.124 E.01314
G1 X130.447 Y164.621 E.45473
G1 X130.317 Y164.621 E.00408
G1 X130.317 Y170.301 E.17809
G1 X130.028 Y170.301 E.00906
G1 X130.028 Y179.124 E.27664
G1 X129.609 Y179.124 E.01314
G1 X129.609 Y170.301 E.27664
G1 X129.19 Y170.301 E.01314
G1 X129.19 Y179.124 E.27664
G1 X128.771 Y179.124 E.01314
G1 X128.771 Y170.301 E.27664
G1 X128.352 Y170.301 E.01314
G1 X128.352 Y179.124 E.27664
G1 X127.933 Y179.124 E.01314
G1 X127.933 Y170.301 E.27664
G1 X127.514 Y170.301 E.01314
G1 X127.514 Y179.124 E.27664
G1 X127.095 Y179.124 E.01314
G1 X127.095 Y170.301 E.27664
G1 X126.676 Y170.301 E.01314
G1 X126.676 Y179.124 E.27664
G1 X126.257 Y179.124 E.01314
G1 X126.257 Y170.301 E.27664
G1 X125.838 Y170.301 E.01314
G1 X125.838 Y179.124 E.27664
G1 X125.419 Y179.124 E.01314
G1 X125.419 Y170.301 E.27664
G1 X125 Y170.301 E.01314
G1 X125 Y179.124 E.27664
G1 X124.581 Y179.124 E.01314
G1 X124.581 Y170.301 E.27664
G1 X124.162 Y170.301 E.01314
G1 X124.162 Y179.124 E.27664
G1 X123.743 Y179.124 E.01314
G1 X123.743 Y170.301 E.27664
G1 X123.324 Y170.301 E.01314
G1 X123.324 Y179.124 E.27664
G1 X122.905 Y179.124 E.01314
G1 X122.905 Y170.301 E.27664
G1 X122.486 Y170.301 E.01314
G1 X122.486 Y179.124 E.27664
G1 X122.067 Y179.124 E.01314
G1 X122.067 Y170.301 E.27664
G1 X121.648 Y170.301 E.01314
G1 X121.648 Y179.124 E.27664
G1 X121.229 Y179.124 E.01314
G1 X121.229 Y170.301 E.27664
G1 X120.81 Y170.301 E.01314
G1 X120.81 Y179.124 E.27664
G1 X120.391 Y179.124 E.01314
G1 X120.391 Y170.301 E.27664
G1 X119.972 Y170.301 E.01314
G1 X119.972 Y179.124 E.27664
G1 X119.553 Y179.124 E.01314
G1 X119.553 Y164.621 E.45473
G1 X119.134 Y164.621 E.01314
G1 X119.134 Y179.124 E.45473
G1 X118.715 Y179.124 E.01314
G1 X118.715 Y164.621 E.45473
G1 X118.296 Y164.621 E.01314
G1 X118.296 Y179.124 E.45473
G1 X117.877 Y179.124 E.01314
G1 X117.877 Y164.621 E.45473
G1 X117.458 Y164.621 E.01314
G1 X117.458 Y176.816 E.38237
G1 X117.039 Y176.816 E.01314
G1 X117.039 Y164.5 E.38616
G1 X116.681 Y164.141 E.0159
M73 Q0 S162
G1 X116.681 Y150.845 E.41689
G1 X116.62 Y150.845 E.00191
G1 X116.62 Y176.816 E.8143
G1 X116.201 Y176.816 E.01314
G1 X116.201 Y150.845 E.8143
G1 X115.783 Y150.845 E.01311
G1 X115.783 Y176.816 E.8143
G1 X115.364 Y176.816 E.01314
G1 X115.364 Y150.845 E.8143
G1 X114.945 Y150.845 E.01314
G1 X114.945 Y176.816 E.8143
G1 X114.526 Y176.816 E.01314
G1 X114.526 Y150.845 E.8143
G1 X114.107 Y150.845 E.01314
G1 X114.107 Y176.816 E.8143
G1 X113.688 Y176.816 E.01314
M73 P0 R159
G1 X113.688 Y150.845 E.8143
G1 X113.269 Y150.845 E.01314
G1 X113.269 Y176.816 E.8143
G1 X113.168 Y176.816 E.00317
G1 X113.168 Y174.509 E.07233
G1 X112.85 Y174.509 E.00997
G1 X112.85 Y153.152 E.66963
G1 X112.431 Y153.152 E.01314
G1 X112.431 Y174.509 E.66963
G1 X112.012 Y174.509 E.01314
M73 P1 R159
G1 X112.012 Y153.152 E.66963
G1 X111.593 Y153.152 E.01314
M73 Q1 S162
G1 X111.593 Y174.509 E.66963
G1 X111.174 Y174.509 E.01314
G1 X111.174 Y152.982 E.67496
M204 S1000
;WIPE_START
G1 F8640
G1 X111.174 Y156.447 E-.8
;WIPE_END
G1 Z.6 F720
G1 X103.52 Y59.495 F10800
G1 Z.2 F720
G1 E.8 F2100
M204 S800
G1 F1200
G1 X98.986 Y59.495 E.14216
G1 X98.986 Y32.844 E.83562
G1 X103.52 Y32.844 E.14216
G1 X103.52 Y59.438 E.83384
M204 S1000
G1 X102.794 Y59.325 F10800
M204 S800
G1 F1200
G1 X102.794 Y33.184 E.81963
G1 X102.375 Y33.184 E.01314
G1 X102.375 Y59.155 E.8143
G1 X101.956 Y59.155 E.01314
G1 X101.956 Y33.184 E.8143
G1 X101.537 Y33.184 E.01314
G1 X101.537 Y59.155 E.8143
G1 X101.118 Y59.155 E.01314
G1 X101.118 Y33.184 E.8143
G1 X100.699 Y33.184 E.01314
G1 X100.699 Y59.155 E.8143
G1 X100.28 Y59.155 E.01314
G1 X100.28 Y33.184 E.8143
G1 X99.861 Y33.184 E.01314
G1 X99.861 Y59.155 E.8143
G1 X99.442 Y59.155 E.01314
G1 X99.442 Y33.014 E.81963
M204 S1000
;WIPE_START
G1 F8640
G1 X99.442 Y36.479 E-.8
;WIPE_END
G1 Z.6 F720
G1 X151.014 Y54.881 F10800
G1 Z.2 F720
G1 E.8 F2100
M204 S800
G1 F1200
G1 X146.48 Y54.881 E.14216
G1 X146.48 Y35.151 E.61862
G1 X151.014 Y35.151 E.14216
G1 X151.014 Y54.824 E.61683
M204 S1000
G1 X150.558 Y54.711 F10800
M204 S800
G1 F1200
G1 X150.558 Y35.491 E.60263
G1 X150.139 Y35.491 E.01314
G1 X150.139 Y54.541 E.5973
G1 X149.72 Y54.541 E.01314
G1 X149.72 Y35.491 E.5973
G1 X149.301 Y35.491 E.01314
G1 X149.301 Y54.541 E.5973
G1 X148.882 Y54.541 E.01314
G1 X148.882 Y35.491 E.5973
G1 X148.463 Y35.491 E.01314
G1 X148.463 Y54.541 E.5973
G1 X148.044 Y54.541 E.01314
G1 X148.044 Y35.491 E.5973
G1 X147.625 Y35.491 E.01314
G1 X147.625 Y54.541 E.5973
G1 X147.206 Y54.541 E.01314
G1 X147.206 Y35.321 E.60263
M204 S1000
;WIPE_START
G1 F8640
G1 X147.206 Y38.786 E-.8
;WIPE_END
G1 Z.6 F720
G1 X118.109 Y83.189 F10800
G1 Z.2 F720
G1 E.8 F2100
M204 S800
;TYPE:Perimeter
;WIDTH:0.419999
G1 F1200
G1 X117.998 Y83.087 E.00473
G1 X117.721 Y83.015 E.00897
G1 X104.787 Y83.015 E.40554
G1 X104.786 Y73.541 E.29705
G1 X104.694 Y73.27 E.00897
G1 X104.467 Y73.071 E.00947
G1 X104.221 Y73.015 E.00791
G1 X103.287 Y73.015 E.02928
G1 X103.287 Y67.589 E.17013
G1 X104.221 Y67.589 E.02928
G1 X104.467 Y67.533 E.00791
G1 X104.591 Y67.451 E.00466
G1 X104.725 Y67.281 E.00679
G1 X104.787 Y67.023 E.00832
G1 X104.787 Y33.589 E1.0483
G1 X121.79 Y33.585 E.53312
G1 X122.057 Y33.479 E.00901
G1 X122.231 Y33.269 E.00855
G1 X122.287 Y33.023 E.00791
G1 X122.287 Y32.089 E.02928
G1 X127.713 Y32.089 E.17013
G1 X127.713 Y33.023 E.02928
G1 X127.769 Y33.269 E.00791
G1 X127.851 Y33.393 E.00466
G1 X128.009 Y33.521 E.00638
G1 X128.279 Y33.589 E.00873
G1 X145.213 Y33.589 E.53095
G1 X145.215 Y67.075 E1.04993
G1 X145.306 Y67.334 E.00861
G1 X145.533 Y67.533 E.00947
G1 X145.779 Y67.589 E.00791
G1 X146.713 Y67.589 E.02928
G1 X146.713 Y68.523 E.02928
G1 X146.713 Y73.015 E.14084
G1 X145.779 Y73.015 E.02928
G1 X145.533 Y73.071 E.00791
G1 X145.409 Y73.153 E.00466
G1 X145.275 Y73.323 E.00679
G1 X145.213 Y73.581 E.00832
G1 X145.213 Y83.015 E.2958
G1 X132.235 Y83.017 E.40692
G1 X131.973 Y83.104 E.00866
G1 X131.784 Y83.305 E.00865
G1 X131.713 Y83.581 E.00894
G1 X131.713 Y163.015 E2.49059
G1 X125.628 Y163.026 E.19079
M73 Q1 S161
G1 X125.355 Y163.167 E.00963
G1 X125.18 Y163.517 E.01227
G1 X125.109 Y163.905 E.01237
G1 X124.992 Y163.951 E.00394
G1 X124.881 Y163.893 E.00393
G1 X124.81 Y163.519 E.01194
G1 X124.634 Y163.167 E.01234
G1 X124.498 Y163.073 E.00518
G1 X124.247 Y163.015 E.00808
G1 X118.287 Y163.015 E.18687
G1 X118.284 Y83.518 E2.49257
G1 X118.192 Y83.266 E.00841
G1 X118.153 Y83.23 E.00166
M204 S1000
G1 X117.823 Y83.438 F10800
M204 S800
;TYPE:External perimeter
G1 F1200
G1 X117.721 Y83.392 E.00351
G1 X104.41 Y83.392 E.41736
G1 X104.41 Y73.581 E.30762
G1 X104.371 Y73.466 E.00381
G1 X104.221 Y73.392 E.00524
G1 X102.91 Y73.392 E.04111
G1 X102.91 Y67.212 E.19377
G1 X104.221 Y67.212 E.04111
G1 X104.345 Y67.166 E.00415
G1 X104.41 Y67.023 E.00493
G1 X104.41 Y33.212 E1.06012
G1 X121.721 Y33.212 E.54277
G1 X121.833 Y33.175 E.0037
M73 P1 R158
G1 X121.91 Y33.023 E.00534
G1 X121.91 Y31.712 E.04111
G1 X128.09 Y31.712 E.19377
G1 X128.09 Y33.023 E.04111
G1 X128.136 Y33.147 E.00415
G1 X128.279 Y33.212 E.00493
G1 X145.59 Y33.212 E.54277
G1 X145.59 Y67.023 E1.06012
G1 X145.629 Y67.138 E.00381
G1 X145.779 Y67.212 E.00524
G1 X147.09 Y67.212 E.04111
G1 X147.09 Y68.523 E.04111
G1 X147.09 Y73.392 E.15266
G1 X145.779 Y73.392 E.04111
G1 X145.655 Y73.438 E.00415
G1 X145.59 Y73.581 E.00493
G1 X145.59 Y83.392 E.30762
G1 X132.279 Y83.392 E.41736
G1 X132.159 Y83.434 E.00399
G1 X132.09 Y83.581 E.00509
G1 X132.09 Y163.392 E2.50241
G1 X125.742 Y163.392 E.19904
G1 X125.658 Y163.411 E.0027
G1 X125.554 Y163.559 E.00567
G1 X125.508 Y163.973 E.01306
G1 X125.389 Y164.17 E.00722
G1 X125.198 Y164.3 E.00724
G1 X124.971 Y164.337 E.00721
G1 X124.749 Y164.275 E.00723
G1 X124.574 Y164.126 E.00721
G1 X124.509 Y163.987 E.00481
G1 X124.435 Y163.56 E.01359
G1 X124.376 Y163.443 E.00411
G1 X124.247 Y163.392 E.00435
G1 X117.91 Y163.392 E.19869
G1 X117.91 Y83.581 E2.50241
G1 X117.868 Y83.471 E.00369
M204 S1000
;WIPE_START
G1 F8640
G1 X117.823 Y83.438 E-.01289
G1 X117.721 Y83.392 E-.02584
G1 X114.424 Y83.392 E-.76127
;WIPE_END
G1 Z.6 F720
G1 X126.779 Y32.259 F10800
G1 Z.2 F720
G1 E.8 F2100
M204 S800
;TYPE:Solid infill
;WIDTH:0.420079
G1 F1200
G1 X127.544 Y33.023 E.03391
M204 S1000
;WIPE_START
G1 F8640
G1 X126.779 Y32.259 E-.24964
;WIPE_END
G1 E-.55036 F2100
G1 Z.6 F720
G1 X144.281 Y33.759 F10800
G1 Z.2 F720
G1 E.8 F2100
M204 S800
G1 F1200
G1 X144.874 Y34.352 E.0263
G1 X144.874 Y34.885 E.01672
G1 X143.917 Y33.928 E.04244
G1 X143.383 Y33.928 E.01675
G1 X144.874 Y35.418 E.06611
G1 X144.874 Y35.952 E.01675
G1 X142.85 Y33.928 E.08977
G1 X142.317 Y33.928 E.01672
G1 X144.874 Y36.485 E.11341
G1 X144.874 Y37.018 E.01672
G1 X141.783 Y33.928 E.13707
G1 X141.25 Y33.928 E.01672
G1 X144.874 Y37.552 E.16073
G1 X144.874 Y38.085 E.01672
G1 X140.716 Y33.928 E.18439
G1 X140.183 Y33.928 E.01672
G1 X144.874 Y38.619 E.20805
G1 X144.874 Y39.152 E.01672
G1 X139.649 Y33.928 E.23171
G1 X139.116 Y33.928 E.01672
G1 X144.874 Y39.685 E.25535
G1 X144.874 Y40.219 E.01675
G1 X138.582 Y33.927 E.27906
G1 X138.049 Y33.927 E.01672
G1 X144.874 Y40.752 E.3027
G1 X144.874 Y41.286 E.01675
G1 X137.515 Y33.927 E.32638
G1 X136.982 Y33.927 E.01672
G1 X144.874 Y41.819 E.35002
