; generated by PrusaSlicer 2.9.2 on 2025-04-16 at 13:01:04 UTC


;
;
; 

; external perimeters extrusion width = 0.45mm
; perimeters extrusion width = 0.45mm
; infill extrusion width = 0.45mm
; solid infill extrusion width = 0.45mm
; top infill extrusion width = 0.40mm
; support material extrusion width = 0.35mm
; first layer extrusion width = 0.42mm

M73 P0 R128
M73 Q0 S130
M201 X1000 Y1000 Z200 E5000 ; sets maximum accelerations, mm/sec^2
M203 X200 Y200 Z12 E120 ; sets maximum feedrates, mm / sec
M204 S1250 T1250 ; sets acceleration (S) and retract acceleration (R), mm/sec^2
M205 X8.00 Y8.00 Z0.40 E4.50 ; sets the jerk limits, mm/sec
M205 S0 T0 ; sets the minimum extruding and travel feed rate, mm/sec

; printing object L Shoulder.STL id:0 copy 0
; stop printing object L Shoulder.STL id:0 copy 0

;TYPE:Custom
M862.3 P "MK3S" ; printer model check
M862.1 P0.4 ; nozzle diameter check
M115 U3.14.1 ; tell printer latest fw version
G90 ; use absolute coordinates
M83 ; extruder relative mode
M104 S215 ; set extruder temp
M140 S60 ; set bed temp
M190 S60 ; wait for bed temp
M109 S215 ; wait for extruder temp
G28 W ; home all without mesh bed level
G80 X96.6087 Y71.3729 W56.7826 H67.2542 ; mesh bed levelling

G1 Z0.2 F720
G1 Y-3 F1000 ; go outside print area
G92 E0
G1 X60 E9 F1000 ; intro line
G1 X100 E12.5 F1000 ; intro line

G92 E0
M221 S95

; Don't change E values below. Excessive value can damage the printer.

G21 ; set units to millimeters
G90 ; use absolute coordinates
M83 ; use relative distances for extrusion

M900 K0.05 ; Filament gcode LA 1.5
M900 K30 ; Filament gcode LA 1.0




M107
;LAYER_CHANGE
;Z:0.2
;HEIGHT:0.2
G1 E-.8 F2100
G1 Z.6 F720
G1 X97.188 Y75.43 F10800
G1 Z.2 F720
G1 E.8 F2100
M204 S800
;TYPE:Skirt/Brim
;WIDTH:0.42
G1 F1200
G1 X98.386 Y74.574 E.04617
G1 X103.813 Y73.069 E.17658
G1 X121.313 Y71.569 E.55071
G1 X128.687 Y71.569 E.23121
G1 X146.6 Y73.145 E.56382
G1 X151.614 Y74.574 E.16347
G1 X152.707 Y75.292 E.041
G1 X153.203 Y76.679 E.04619
G1 X153.161 Y101.449 E.77665
G1 X148.147 Y126.677 E.80648
G1 X147.594 Y127.75 E.03785
G1 X138.765 Y137.128 E.40385
G1 X137.467 Y137.797 E.04579
G1 X132.6 Y138.439 E.15392
G1 X117.4 Y138.439 E.47659
G1 X112.533 Y137.797 E.15392
G1 X111.235 Y137.128 E.04579
G1 X102.406 Y127.75 E.40385
G1 X101.847 Y126.642 E.03891
G1 X96.833 Y99.107 E.87754
G1 X96.797 Y76.679 E.70322
G1 X97.17 Y75.488 E.03913
M204 S1000
;WIPE_START
G1 F8640
G1 X97.188 Y75.43 E-.01402
G1 X98.386 Y74.574 E-.33998
G1 X100.247 Y74.058 E-.446
;WIPE_END
G1 Z.6 F720
; printing object L Shoulder.STL id:0 copy 0
G1 X129.62 Y135.628 F10800
G1 Z.2 F720
G1 E.8 F2100
M204 S800
;TYPE:Support material
G1 F1200
G1 X126.671 Y135.628 E.09246
G1 X126.671 Y126.73 E.27899
G1 X129.62 Y126.73 E.09246
G1 X129.62 Y135.572 E.27723
M204 S1000
G1 X129.19 Y135.459 F10800
M204 S800
G1 F1200
G1 X129.19 Y127.069 E.26306
G1 X128.771 Y127.069 E.01314
G1 X128.771 Y135.289 E.25773
G1 X128.352 Y135.289 E.01314
G1 X128.352 Y127.069 E.25773
G1 X127.933 Y127.069 E.01314
G1 X127.933 Y135.289 E.25773
G1 X127.514 Y135.289 E.01314
G1 X127.514 Y127.069 E.25773
G1 X127.095 Y127.069 E.01314
G1 X127.095 Y135.459 E.26306
M204 S1000
;WIPE_START
G1 F8640
G1 X127.095 Y131.994 E-.8
;WIPE_END
G1 Z.6 F720
G1 X123.329 Y135.628 F10800
G1 Z.2 F720
G1 E.8 F2100
M204 S800
G1 F1200
G1 X120.38 Y135.628 E.09246
G1 X120.38 Y126.73 E.27899
G1 X123.329 Y126.73 E.09246
G1 X123.329 Y135.572 E.27723
M73 Q0 S129
M204 S1000
G1 X122.905 Y135.459 F10800
M204 S800
G1 F1200
G1 X122.905 Y127.069 E.26306
G1 X122.486 Y127.069 E.01314
G1 X122.486 Y135.289 E.25773
G1 X122.067 Y135.289 E.01314
G1 X122.067 Y127.069 E.25773
G1 X121.648 Y127.069 E.01314
G1 X121.648 Y135.289 E.25773
G1 X121.229 Y135.289 E.01314
G1 X121.229 Y127.069 E.25773
G1 X120.81 Y127.069 E.01314
G1 X120.81 Y135.459 E.26306
M204 S1000
;WIPE_START
G1 F8640
G1 X120.81 Y131.994 E-.8
;WIPE_END
G1 Z.6 F720
G1 X116.92 Y135.628 F10800
G1 Z.2 F720
G1 E.8 F2100
M204 S800
G1 F1200
G1 X112.828 Y135.628 E.1283
G1 X112.828 Y126.73 E.27899
G1 X116.92 Y126.73 E.1283
G1 X116.92 Y135.572 E.27723
M204 S1000
G1 X116.201 Y135.459 F10800
M204 S800
G1 F1200
G1 X116.201 Y127.069 E.26306
G1 X115.783 Y127.069 E.01311
G1 X115.783 Y135.289 E.25773
G1 X115.364 Y135.289 E.01314
G1 X115.364 Y127.069 E.25773
G1 X114.945 Y127.069 E.01314
G1 X114.945 Y135.289 E.25773
G1 X114.526 Y135.289 E.01314
G1 X114.526 Y127.069 E.25773
G1 X114.107 Y127.069 E.01314
G1 X114.107 Y135.289 E.25773
G1 X113.688 Y135.289 E.01314
G1 X113.688 Y127.069 E.25773
G1 X113.269 Y127.069 E.01314
G1 X113.269 Y135.459 E.26306
M204 S1000
;WIPE_START
G1 F8640
G1 X113.269 Y131.994 E-.8
;WIPE_END
G1 Z.6 F720
G1 X137.172 Y135.628 F10800
G1 Z.2 F720
G1 E.8 F2100
M204 S800
G1 F1200
G1 X133.08 Y135.628 E.1283
G1 X133.08 Y126.73 E.27899
G1 X137.172 Y126.73 E.1283
G1 X137.172 Y135.572 E.27723
M204 S1000
G1 X136.731 Y135.459 F10800
M204 S800
G1 F1200
G1 X136.731 Y127.069 E.26306
G1 X136.312 Y127.069 E.01314
G1 X136.312 Y135.289 E.25773
G1 X135.893 Y135.289 E.01314
G1 X135.893 Y127.069 E.25773
G1 X135.474 Y127.069 E.01314
G1 X135.474 Y135.289 E.25773
G1 X135.055 Y135.289 E.01314
G1 X135.055 Y127.069 E.25773
G1 X134.636 Y127.069 E.01314
G1 X134.636 Y135.289 E.25773
G1 X134.217 Y135.289 E.01314
G1 X134.217 Y127.069 E.25773
G1 X133.799 Y127.069 E.01311
G1 X133.799 Y135.459 E.26306
M204 S1000
;WIPE_START
G1 F8640
G1 X133.799 Y131.994 E-.8
;WIPE_END
G1 Z.6 F720
G1 X151.014 Y101.022 F10800
G1 Z.2 F720
G1 E.8 F2100
M204 S800
G1 F1200
G1 X146.48 Y101.022 E.14216
G1 X146.48 Y76.679 E.76326
G1 X151.014 Y76.679 E.14216
G1 X151.014 Y100.966 E.7615
M204 S1000
G1 X150.558 Y100.853 F10800
M204 S800
G1 F1200
G1 X150.558 Y77.018 E.74733
G1 X150.139 Y77.018 E.01314
G1 X150.139 Y100.683 E.742
G1 X149.72 Y100.683 E.01314
G1 X149.72 Y77.018 E.742
G1 X149.301 Y77.018 E.01314
G1 X149.301 Y100.683 E.742
G1 X148.882 Y100.683 E.01314
G1 X148.882 Y77.018 E.742
G1 X148.463 Y77.018 E.01314
G1 X148.463 Y100.683 E.742
G1 X148.044 Y100.683 E.01314
G1 X148.044 Y77.018 E.742
G1 X147.625 Y77.018 E.01314
G1 X147.625 Y100.683 E.742
G1 X147.206 Y100.683 E.01314
M73 P0 R127
G1 X147.206 Y76.848 E.74733
M204 S1000
;WIPE_START
G1 F8640
G1 X147.206 Y80.313 E-.8
;WIPE_END
G1 Z.6 F720
G1 X103.52 Y98.715 F10800
G1 Z.2 F720
G1 E.8 F2100
M204 S800
G1 F1200
G1 X98.986 Y98.715 E.14216
G1 X98.986 Y76.679 E.69092
G1 X103.52 Y76.679 E.14216
G1 X103.52 Y98.659 E.68917
M204 S1000
G1 X102.794 Y98.545 F10800
M204 S800
G1 F1200
G1 X102.794 Y77.018 E.67496
G1 X102.375 Y77.018 E.01314
G1 X102.375 Y98.376 E.66967
G1 X101.956 Y98.376 E.01314
G1 X101.956 Y77.018 E.66967
G1 X101.537 Y77.018 E.01314
G1 X101.537 Y98.376 E.66967
G1 X101.118 Y98.376 E.01314
G1 X101.118 Y77.018 E.66967
G1 X100.699 Y77.018 E.01314
G1 X100.699 Y98.376 E.66967
G1 X100.28 Y98.376 E.01314
G1 X100.28 Y77.018 E.66967
G1 X99.861 Y77.018 E.01314
G1 X99.861 Y98.376 E.66967
G1 X99.442 Y98.376 E.01314
G1 X99.442 Y76.848 E.675
M204 S1000
;WIPE_START
G1 F8640
G1 X99.442 Y80.313 E-.8
;WIPE_END
G1 Z.6 F720
G1 X119.296 Y125.632 F10800
G1 Z.2 F720
G1 E.8 F2100
M204 S800
;TYPE:Perimeter
;WIDTH:0.419999
G1 F1200
G1 X119.234 Y125.679 E.00244
G1 X119.113 Y126.029 E.01161
G1 X119.113 Y135.463 E.2958
G1 X118.187 Y135.463 E.02903
G1 X118.187 Y126.029 E.2958
G1 X118.066 Y125.679 E.01161
G1 X117.843 Y125.508 E.00881
G1 X117.621 Y125.463 E.0071
G1 X104.787 Y125.463 E.4024
G1 X104.786 Y115.989 E.29705
G1 X104.694 Y115.718 E.00897
G1 X104.467 Y115.519 E.00947
G1 X104.221 Y115.463 E.00791
G1 X103.287 Y115.463 E.02928
G1 X103.287 Y110.037 E.17013
G1 X104.221 Y110.037 E.02928
G1 X104.467 Y109.981 E.00791
G1 X104.591 Y109.899 E.00466
G1 X104.725 Y109.729 E.00679
G1 X104.787 Y109.471 E.00832
G1 X104.787 Y76.037 E1.0483
G1 X121.79 Y76.033 E.53312
G1 X122.057 Y75.927 E.00901
G1 X122.231 Y75.717 E.00855
G1 X122.287 Y75.471 E.00791
G1 X122.287 Y74.537 E.02928
G1 X127.713 Y74.537 E.17013
G1 X127.713 Y75.471 E.02928
G1 X127.769 Y75.717 E.00791
G1 X127.851 Y75.841 E.00466
G1 X128.009 Y75.969 E.00638
G1 X128.279 Y76.037 E.00873
G1 X145.213 Y76.037 E.53095
G1 X145.214 Y109.51 E1.04952
G1 X145.306 Y109.782 E.009
G1 X145.533 Y109.981 E.00947
G1 X145.779 Y110.037 E.00791
G1 X146.713 Y110.037 E.02928
G1 X146.713 Y110.971 E.02928
G1 X146.713 Y115.463 E.14084
G1 X145.779 Y115.463 E.02928
G1 X145.533 Y115.519 E.00791
G1 X145.409 Y115.601 E.00466
G1 X145.275 Y115.771 E.00679
G1 X145.213 Y116.029 E.00832
G1 X145.213 Y125.463 E.2958
G1 X132.379 Y125.463 E.4024
G1 X132.157 Y125.508 E.0071
G1 X131.934 Y125.679 E.00881
G1 X131.813 Y126.029 E.01161
G1 X131.813 Y135.463 E.2958
G1 X130.887 Y135.463 E.02903
G1 X130.887 Y126.029 E.2958
G1 X130.766 Y125.679 E.01161
M73 P1 R127
M73 Q1 S129
G1 X130.543 Y125.508 E.00881
G1 X130.321 Y125.463 E.0071
G1 X119.679 Y125.463 E.33367
G1 X119.457 Y125.508 E.0071
G1 X119.344 Y125.595 E.00447
M204 S1000
G1 X119.547 Y125.925 F10800
M204 S800
;TYPE:External perimeter
G1 F1200
G1 X119.49 Y126.029 E.00372
G1 X119.49 Y135.84 E.30762
G1 X117.81 Y135.84 E.05268
G1 X117.81 Y126.029 E.30762
G1 X117.77 Y125.912 E.00388
G1 X117.621 Y125.84 E.00519
G1 X104.41 Y125.84 E.41422
G1 X104.41 Y116.029 E.30762
G1 X104.371 Y115.914 E.00381
G1 X104.221 Y115.84 E.00524
G1 X102.91 Y115.84 E.04111
G1 X102.91 Y109.66 E.19377
G1 X104.221 Y109.66 E.04111
G1 X104.345 Y109.614 E.00415
G1 X104.41 Y109.471 E.00493
G1 X104.41 Y75.66 E1.06012
G1 X121.721 Y75.66 E.54277
G1 X121.833 Y75.623 E.0037
G1 X121.91 Y75.471 E.00534
G1 X121.91 Y74.16 E.04111
G1 X128.09 Y74.16 E.19377
M73 Q1 S128
G1 X128.09 Y75.471 E.04111
G1 X128.136 Y75.595 E.00415
G1 X128.279 Y75.66 E.00493
G1 X145.59 Y75.66 E.54277
G1 X145.59 Y109.471 E1.06012
G1 X145.629 Y109.586 E.00381
G1 X145.779 Y109.66 E.00524
G1 X147.09 Y109.66 E.04111
G1 X147.09 Y110.971 E.04111
G1 X147.09 Y115.84 E.15266
G1 X145.779 Y115.84 E.04111
G1 X145.655 Y115.886 E.00415
G1 X145.59 Y116.029 E.00493
G1 X145.59 Y125.84 E.30762
G1 X132.379 Y125.84 E.41422
G1 X132.277 Y125.87 E.00333
G1 X132.19 Y126.029 E.00568
G1 X132.19 Y135.84 E.30762
G1 X130.51 Y135.84 E.05268
G1 X130.51 Y126.029 E.30762
G1 X130.47 Y125.912 E.00388
G1 X130.321 Y125.84 E.00519
G1 X119.679 Y125.84 E.33367
G1 X119.577 Y125.87 E.00333
G1 X119.576 Y125.873 E.0001
M204 S1000
;WIPE_START
G1 F8640
G1 X119.547 Y125.925 E-.01375
G1 X119.49 Y126.029 E-.02738
G1 X119.49 Y129.316 E-.75887
;WIPE_END
G1 Z.6 F720
G1 X145.043 Y76.971 F10800
G1 Z.2 F720
G1 E.8 F2100
M204 S800
;TYPE:Solid infill
;WIDTH:0.420812
G1 F1200
G1 X144.449 Y76.376 E.02642
G1 X143.914 Y76.376 E.01681
G1 X144.874 Y77.336 E.04266
G1 X144.874 Y77.87 E.01678
G1 X143.38 Y76.376 E.06639
G1 X142.845 Y76.376 E.01681
G1 X144.874 Y78.404 E.09014
G1 X144.874 Y78.939 E.01681
G1 X142.311 Y76.376 E.11389
G1 X141.776 Y76.376 E.01681
G1 X144.874 Y79.473 E.13764
G1 X144.874 Y80.008 E.01681
G1 X141.242 Y76.376 E.1614
G1 X140.707 Y76.376 E.01681
G1 X144.874 Y80.542 E.18515
G1 X144.874 Y81.077 E.01681
G1 X140.173 Y76.376 E.2089
G1 X139.638 Y76.376 E.01681
G1 X144.874 Y81.611 E.23265
G1 X144.874 Y82.146 E.01681
G1 X139.104 Y76.376 E.2564
G1 X138.569 Y76.375 E.01681
G1 X144.874 Y82.68 E.28018
G1 X144.874 Y83.214 E.01678
G1 X138.035 Y76.375 E.30391
G1 X137.5 Y76.375 E.01681
G1 X144.874 Y83.749 E.32768
G1 X144.874 Y84.283 E.01678
G1 X136.966 Y76.375 E.35141
G1 X136.431 Y76.375 E.01681
G1 X144.874 Y84.818 E.37518
G1 X144.874 Y85.352 E.01678
G1 X135.897 Y76.375 E.39891
G1 X135.362 Y76.375 E.01681
G1 X144.874 Y85.887 E.42269
G1 X144.874 Y86.421 E.01678
G1 X134.828 Y76.375 E.44642
G1 X134.293 Y76.375 E.01681
G1 X144.874 Y86.956 E.47019
G1 X144.874 Y87.49 E.01678
G1 X133.759 Y76.375 E.49392
G1 X133.224 Y76.375 E.01681
G1 X144.874 Y88.025 E.51769
G1 X144.874 Y88.559 E.01678
G1 X132.69 Y76.375 E.54142
G1 X132.155 Y76.374 E.01681
G1 X144.874 Y89.093 E.5652
G1 X144.874 Y89.628 E.01681
G1 X131.621 Y76.374 E.58895
G1 X131.086 Y76.374 E.01681
G1 X144.874 Y90.162 E.6127
G1 X144.874 Y90.697 E.01681
G1 X130.552 Y76.374 E.63645
G1 X130.017 Y76.374 E.01681
G1 X144.874 Y91.231 E.6602
G1 X144.874 Y91.766 E.01681
G1 X129.483 Y76.374 E.68396
G1 X128.948 Y76.374 E.01681
G1 X144.874 Y92.3 E.70771
G1 X144.874 Y92.835 E.01681
G1 X128.414 Y76.374 E.73146
G1 X128.199 Y76.374 E.00676
G1 X127.952 Y76.317 E.00797
G1 X127.742 Y76.201 E.00754
G1 X127.592 Y76.063 E.0064
G1 X127.458 Y75.859 E.00767
G1 X127.374 Y75.488 E.01195
G1 X127.374 Y75.334 E.00484
G1 X126.916 Y74.876 E.02035
G1 X126.382 Y74.876 E.01678
M73 P1 R126
G1 X144.874 Y93.369 E.82175
G1 X144.874 Y93.903 E.01678
G1 X125.847 Y74.876 E.84551
G1 X125.313 Y74.876 E.01678
G1 X144.875 Y94.438 E.86928
G1 X144.875 Y94.972 E.01678
G1 X124.779 Y74.876 E.89301
G1 X124.244 Y74.876 E.01681
G1 X144.875 Y95.507 E.91678
G1 X144.875 Y96.041 E.01678
G1 X123.71 Y74.876 E.94051
G1 X123.175 Y74.876 E.01681
G1 X144.875 Y96.576 E.96429
G1 X144.875 Y97.11 E.01678
G1 X122.626 Y74.876 E.98835
G1 X122.626 Y75.396 E.01634
G1 X144.875 Y97.645 E.98868
G1 X144.875 Y98.179 E.01678
G1 X122.544 Y75.848 E.99233
G1 X122.408 Y76.063 E.00799
G1 X122.312 Y76.151 E.00409
G1 X144.875 Y98.714 E1.00264
G1 X144.875 Y99.248 E.01678
G1 X121.963 Y76.336 E1.01815
G1 X121.801 Y76.374 E.00523
G1 X121.466 Y76.374 E.01053
G1 X144.875 Y99.782 E1.04021
G1 X144.875 Y100.317 E.01681
G1 X120.932 Y76.374 E1.06396
G1 X120.398 Y76.374 E.01678
G1 X144.875 Y100.851 E1.08769
G1 X144.875 Y101.386 E.01681
G1 X119.863 Y76.374 E1.11146
G1 X119.329 Y76.374 E.01678
G1 X144.875 Y101.92 E1.13519
G1 X144.875 Y102.455 E.01681
G1 X118.795 Y76.374 E1.15894
G1 X118.26 Y76.374 E.01681
G1 X144.875 Y102.989 E1.1827
G1 X144.875 Y103.524 E.01681
G1 X117.726 Y76.374 E1.20645
G1 X117.192 Y76.375 E.01678
M73 Q1 S127
G1 X144.875 Y104.058 E1.23016
G1 X144.875 Y104.592 E.01678
G1 X116.657 Y76.375 E1.25391
G1 X116.123 Y76.375 E.01678
G1 X144.875 Y105.127 E1.27766
G1 X144.875 Y105.661 E.01678
G1 X115.589 Y76.375 E1.30139
G1 X115.054 Y76.375 E.01681
G1 X144.875 Y106.196 E1.32516
G1 X144.875 Y106.73 E.01678
G1 X114.52 Y76.375 E1.34889
G1 X113.986 Y76.375 E.01678
M73 P2 R126
M73 Q2 S127
G1 X144.875 Y107.265 E1.37264
G1 X144.875 Y107.799 E.01678
G1 X113.451 Y76.375 E1.39639
G1 X112.917 Y76.375 E.01678
G1 X144.875 Y108.334 E1.42015
G1 X144.875 Y108.868 E.01678
G1 X112.383 Y76.375 E1.44388
G1 X111.848 Y76.375 E.01681
G1 X144.875 Y109.402 E1.46763
G1 X144.875 Y109.538 E.00427
G1 X144.918 Y109.754 E.00692
G1 X145.022 Y109.97 E.00753
G1 X145.186 Y110.157 E.00782
G1 X145.391 Y110.292 E.00771
G1 X145.762 Y110.376 E.01195
G1 X145.849 Y110.376 E.00273
G1 X146.374 Y110.901 E.02333
G1 X146.374 Y111.435 E.01678
G1 X111.314 Y76.375 E1.55797
G1 X110.78 Y76.376 E.01678
G1 X146.374 Y111.97 E1.5817
G1 X146.374 Y112.504 E.01678
M73 P2 R125
G1 X110.245 Y76.376 E1.60545
G1 X109.711 Y76.376 E.01678
G1 X146.374 Y113.038 E1.62918
G1 X146.374 Y113.573 E.01681
G1 X109.177 Y76.376 E1.65293
G1 X108.642 Y76.376 E.01681
G1 X146.374 Y114.107 E1.67668
G1 X146.374 Y114.642 E.01681
G1 X108.108 Y76.376 E1.70043
G1 X107.574 Y76.376 E.01678
G1 X146.321 Y115.124 E1.72183
G1 X145.787 Y115.124 E.01678
G1 X107.039 Y76.376 E1.72185
G1 X106.505 Y76.376 E.01678
G1 X145.358 Y115.23 E1.72654
G1 X145.188 Y115.342 E.0064
G1 X145.065 Y115.471 E.0056
G1 X105.971 Y76.376 E1.73725
G1 X105.436 Y76.376 E.01681
G1 X144.899 Y115.839 E1.75363
G1 X144.88 Y115.908 E.00225
G1 X144.88 Y116.355 E.01405
G1 X105.126 Y76.601 E1.76656
G1 X105.126 Y77.135 E.01678
G1 X144.88 Y116.889 E1.76656
G1 X144.879 Y117.423 E.01678
M73 Q2 S126
G1 X105.126 Y77.67 E1.76651
G1 X105.126 Y78.204 E.01678
G1 X144.879 Y117.957 E1.76651
G1 X144.878 Y118.491 E.01678
G1 X105.126 Y78.739 E1.76647
G1 X105.126 Y79.273 E.01678
G1 X144.878 Y119.025 E1.76647
G1 X144.878 Y119.559 E.01678
G1 X105.126 Y79.807 E1.76647
G1 X105.126 Y80.342 E.01681
G1 X144.877 Y120.093 E1.76642
G1 X144.877 Y120.627 E.01678
G1 X105.126 Y80.876 E1.76642
G1 X105.126 Y81.411 E.01681
G1 X144.877 Y121.161 E1.7664
G1 X144.876 Y121.695 E.01678
G1 X105.126 Y81.945 E1.76638
G1 X105.126 Y82.479 E.01678
M73 P2 R124
G1 X144.876 Y122.229 E1.76638
G1 X144.875 Y122.763 E.01678
M73 P3 R124
M73 Q3 S126
G1 X105.126 Y83.014 E1.76633
G1 X105.126 Y83.548 E.01678
