; generated by PrusaSlicer 2.9.2 on 2025-04-17 at 10:27:47 UTC


;
;
; 

; external perimeters extrusion width = 0.45mm
; perimeters extrusion width = 0.45mm
; infill extrusion width = 0.45mm
; solid infill extrusion width = 0.45mm
; top infill extrusion width = 0.40mm
; support material extrusion width = 0.35mm
; first layer extrusion width = 0.42mm

M73 P0 R214
M73 Q0 S217
M201 X1000 Y1000 Z200 E5000 ; sets maximum accelerations, mm/sec^2
M203 X200 Y200 Z12 E120 ; sets maximum feedrates, mm / sec
M204 S1250 T1250 ; sets acceleration (S) and retract acceleration (R), mm/sec^2
M205 X8.00 Y8.00 Z0.40 E4.50 ; sets the jerk limits, mm/sec
M205 S0 T0 ; sets the minimum extruding and travel feed rate, mm/sec

; printing object L Thigh.STL id:0 copy 0
; stop printing object L Thigh.STL id:0 copy 0

;TYPE:Custom
M862.3 P "MK3S" ; printer model check
M862.1 P0.4 ; nozzle diameter check
M115 U3.14.1 ; tell printer latest fw version
G90 ; use absolute coordinates
M83 ; extruder relative mode
M104 S215 ; set extruder temp
M140 S60 ; set bed temp
M190 S60 ; wait for bed temp
M109 S215 ; wait for extruder temp
G28 W ; home all without mesh bed level
G80 X91.9945 Y38.9493 W66.011 H133.662 ; mesh bed levelling

G1 Z0.2 F720
G1 Y-3 F1000 ; go outside print area
G92 E0
G1 X60 E9 F1000 ; intro line
G1 X100 E12.5 F1000 ; intro line

G92 E0
M221 S95

; Don't change E values below. Excessive value can damage the printer.

G21 ; set units to millimeters
G90 ; use absolute coordinates
M83 ; use relative distances for extrusion

M900 K0.05 ; Filament gcode LA 1.5
M900 K30 ; Filament gcode LA 1.0




M107
;LAYER_CHANGE
;Z:0.2
;HEIGHT:0.2
G1 E-.8 F2100
G1 Z.6 F720
G1 X95.221 Y45.055 F10800
G1 Z.2 F720
G1 E.8 F2100
M204 S800
;TYPE:Skirt/Brim
;WIDTH:0.42
G1 F1200
G1 X99.542 Y41.194 E.18169
G1 X100.813 Y40.646 E.0434
G1 X118.313 Y39.146 E.55071
G1 X125.687 Y39.146 E.23121
G1 X143.187 Y40.646 E.55071
M73 P0 R213
G1 X143.909 Y40.836 E.02341
G1 X147.309 Y42.389 E.1172
G1 X148.282 Y43.263 E.04101
G1 X148.58 Y44.181 E.03026
G1 X157.808 Y145.693 E3.19596
G1 X157.817 Y170.235 E.7695
G1 X157.426 Y171.483 E.04101
G1 X156.393 Y172.285 E.041
G1 X155.628 Y172.423 E.02437
G1 X142.82 Y172.423 E.40159
G1 X141.443 Y171.936 E.0458
G1 X92.995 Y132.715 E1.95443
G1 X92.183 Y131.014 E.0591
G1 X92.185 Y106.587 E.76589
G1 X94.492 Y46.603 E1.88215
G1 X95.195 Y45.109 E.05177
M73 Q0 S216
M204 S1000
;WIPE_START
G1 F8640
G1 X95.221 Y45.055 E-.01384
G1 X97.76 Y42.787 E-.78616
;WIPE_END
G1 Z.6 F720
; printing object L Thigh.STL id:0 copy 0
G1 X152.536 Y160.37 F10800
G1 Z.2 F720
G1 E.8 F2100
M204 S800
;TYPE:Support material interface
;WIDTH:0.35
G1 F1200
G1 X152.685 Y160.37 E.0038
G1 X152.685 Y155.756 E.11781
G1 X152.382 Y155.756 E.00774
G1 X152.382 Y160.37 E.11781
G1 X151.875 Y160.37 E.01295
G1 X151.875 Y155.756 E.11781
G1 X151.424 Y155.756 E.01152
G1 X151.368 Y156.144 E.01001
G1 X151.368 Y160.37 E.10791
G1 X150.861 Y160.37 E.01295
G1 X150.861 Y156.336 E.103
G1 X150.354 Y156.336 E.01295
G1 X150.354 Y160.37 E.103
G1 X149.847 Y160.37 E.01295
G1 X149.847 Y156.336 E.103
G1 X149.34 Y156.336 E.01295
G1 X149.34 Y160.37 E.103
G1 X148.833 Y160.37 E.01295
G1 X148.833 Y156.336 E.103
G1 X148.326 Y156.336 E.01295
G1 X148.326 Y160.37 E.103
G1 X147.819 Y160.37 E.01295
G1 X147.819 Y156.336 E.103
G1 X147.311 Y156.336 E.01297
G1 X147.311 Y160.37 E.103
G1 X146.804 Y160.37 E.01295
G1 X146.804 Y156.336 E.103
G1 X146.297 Y156.336 E.01295
G1 X146.297 Y160.37 E.103
G1 X145.79 Y160.37 E.01295
G1 X145.79 Y156.302 E.10387
M204 S1000
;WIPE_START
G1 F8640
G1 X145.79 Y159.767 E-.8
;WIPE_END
G1 Z.6 F720
G1 X145.52 Y154.721 F10800
G1 Z.2 F720
G1 E.8 F2100
M204 S800
;TYPE:Support material
;WIDTH:0.42
G1 F1200
G1 X145.801 Y155.002 E.01246
G1 X151.199 Y155.002 E.16925
G1 X151.48 Y154.721 E.01246
G1 X151.48 Y145.891 E.27686
G1 X155.628 Y145.891 E.13006
G1 X155.628 Y170.235 E.76329
G1 X142.82 Y170.235 E.40159
G1 X142.82 Y157.734 E.39196
G1 X145.4 Y157.734 E.08089
G1 X145.4 Y160.734 E.09406
G1 X153.049 Y160.734 E.23983
G1 X153.049 Y158.216 E.07895
G1 X153.049 Y155.392 E.08854
G1 X151.06 Y155.392 E.06236
G1 X151.025 Y155.973 E.01825
G1 X145.975 Y155.973 E.15834
G1 X145.94 Y155.392 E.01825
G1 X145.4 Y155.392 E.01693
G1 X145.4 Y156.392 E.03135
G1 X142.82 Y156.392 E.08089
G1 X142.82 Y145.891 E.32925
G1 X145.52 Y145.891 E.08466
G1 X145.52 Y154.664 E.27507
M204 S1000
;WIPE_START
G1 F8640
G1 X145.52 Y151.199 E-.8
;WIPE_END
G1 Z.6 F720
G1 X155.166 Y170.065 F10800
G1 Z.2 F720
G1 E.8 F2100
M204 S800
G1 F1200
G1 X155.166 Y146.23 E.74733
G1 X154.747 Y146.23 E.01314
G1 X154.747 Y169.895 E.742
G1 X154.328 Y169.895 E.01314
G1 X154.328 Y146.23 E.742
G1 X153.909 Y146.23 E.01314
G1 X153.909 Y169.895 E.742
G1 X153.49 Y169.895 E.01314
G1 X153.49 Y146.23 E.742
G1 X153.071 Y146.23 E.01314
G1 X153.071 Y155.053 E.27664
G1 X152.652 Y155.053 E.01314
G1 X152.652 Y146.23 E.27664
G1 X152.234 Y146.23 E.01311
G1 X152.234 Y155.053 E.27664
G1 X151.815 Y155.053 E.01314
G1 X151.815 Y146.061 E.28194
M204 S1000
;WIPE_START
G1 F8640
G1 X151.815 Y149.526 E-.8
;WIPE_END
G1 Z.6 F720
G1 X153.071 Y170.065 F10800
G1 Z.2 F720
G1 E.8 F2100
M204 S800
G1 F1200
G1 X153.071 Y161.073 E.28194
G1 X152.652 Y161.073 E.01314
G1 X152.652 Y169.895 E.27661
G1 X152.233 Y169.895 E.01314
G1 X152.234 Y161.073 E.27661
G1 X151.815 Y161.073 E.01314
G1 X151.815 Y169.895 E.27661
G1 X151.396 Y169.895 E.01314
G1 X151.396 Y161.073 E.27661
G1 X150.977 Y161.073 E.01314
G1 X150.977 Y169.895 E.27661
G1 X150.558 Y169.895 E.01314
G1 X150.558 Y161.073 E.27661
G1 X150.139 Y161.073 E.01314
G1 X150.139 Y169.895 E.27661
G1 X149.72 Y169.895 E.01314
G1 X149.72 Y161.073 E.27661
G1 X149.301 Y161.073 E.01314
G1 X149.301 Y169.895 E.27661
G1 X148.882 Y169.895 E.01314
G1 X148.882 Y161.073 E.27661
G1 X148.463 Y161.073 E.01314
G1 X148.463 Y169.895 E.27661
G1 X148.044 Y169.895 E.01314
G1 X148.044 Y161.073 E.27661
G1 X147.625 Y161.073 E.01314
G1 X147.625 Y169.895 E.27661
G1 X147.206 Y169.895 E.01314
G1 X147.206 Y161.073 E.27661
G1 X146.787 Y161.073 E.01314
G1 X146.787 Y169.895 E.27661
G1 X146.368 Y169.895 E.01314
G1 X146.368 Y161.073 E.27661
G1 X145.949 Y161.073 E.01314
G1 X145.949 Y169.895 E.27661
G1 X145.53 Y169.895 E.01314
G1 X145.53 Y161.073 E.27661
G1 X145.111 Y161.073 E.01314
G1 X145.111 Y169.895 E.27661
G1 X144.692 Y169.895 E.01314
G1 X144.692 Y158.073 E.37067
G1 X144.273 Y158.073 E.01314
G1 X144.273 Y169.895 E.37067
G1 X143.854 Y169.895 E.01314
G1 X143.854 Y158.073 E.37067
G1 X143.435 Y158.073 E.01314
G1 X143.435 Y170.065 E.376
M204 S1000
;WIPE_START
G1 F8640
G1 X143.435 Y166.6 E-.8
;WIPE_END
G1 Z.6 F720
G1 X150.558 Y155.803 F10800
G1 Z.2 F720
G1 E.8 F2100
M204 S800
G1 F1200
G1 X150.558 Y155.341 E.01449
G1 X150.139 Y155.341 E.01314
G1 X150.139 Y155.633 E.00916
G1 X149.72 Y155.633 E.01314
G1 X149.72 Y155.341 E.00916
G1 X149.301 Y155.341 E.01314
G1 X149.301 Y155.633 E.00916
G1 X148.882 Y155.633 E.01314
G1 X148.882 Y155.341 E.00916
G1 X148.463 Y155.341 E.01314
G1 X148.463 Y155.633 E.00916
G1 X148.044 Y155.633 E.01314
G1 X148.044 Y155.341 E.00916
G1 X147.625 Y155.341 E.01314
G1 X147.625 Y155.633 E.00916
G1 X147.206 Y155.633 E.01314
G1 X147.206 Y155.341 E.00916
G1 X146.787 Y155.341 E.01314
G1 X146.787 Y155.633 E.00916
G1 X146.368 Y155.633 E.01314
G1 X146.368 Y155.172 E.01445
M204 S1000
;WIPE_START
G1 F8640
G1 X146.368 Y155.633 E-.10645
G1 X146.787 Y155.633 E-.09675
G1 X146.787 Y155.341 E-.06742
G1 X147.206 Y155.341 E-.09675
G1 X147.206 Y155.633 E-.06742
G1 X147.625 Y155.633 E-.09675
G1 X147.625 Y155.341 E-.06742
G1 X148.044 Y155.341 E-.09675
G1 X148.044 Y155.633 E-.06742
G1 X148.204 Y155.633 E-.03687
;WIPE_END
G1 Z.6 F720
G1 X145.111 Y156.222 F10800
G1 Z.2 F720
G1 E.8 F2100
M204 S800
G1 F1200
G1 X145.111 Y146.23 E.31329
G1 X144.692 Y146.23 E.01314
G1 X144.692 Y156.053 E.30799
G1 X144.273 Y156.053 E.01314
G1 X144.273 Y146.23 E.30799
G1 X143.854 Y146.23 E.01314
G1 X143.854 Y156.053 E.30799
G1 X143.435 Y156.053 E.01314
G1 X143.435 Y146.061 E.31329
M204 S1000
;WIPE_START
G1 F8640
G1 X143.435 Y149.526 E-.8
;WIPE_END
G1 Z.6 F720
G1 X141.786 Y123.346 F10800
G1 Z.2 F720
G1 E.8 F2100
M204 S800
G1 F1200
G1 X138.48 Y123.346 E.10366
G1 X138.48 Y94.306 E.91053
G1 X141.786 Y94.306 E.10366
G1 X141.786 Y123.29 E.90877
M204 S1000
G1 X141.34 Y123.177 F10800
M204 S800
G1 F1200
G1 X141.34 Y94.646 E.89457
G1 X140.921 Y94.646 E.01314
G1 X140.921 Y123.007 E.88924
G1 X140.502 Y123.007 E.01314
M73 P0 R212
G1 X140.502 Y94.646 E.88924
G1 X140.083 Y94.646 E.01314
G1 X140.083 Y123.007 E.88924
G1 X139.664 Y123.007 E.01314
G1 X139.664 Y94.646 E.88924
G1 X139.245 Y94.646 E.01314
G1 X139.245 Y123.007 E.88924
G1 X138.826 Y123.007 E.01314
G1 X138.826 Y94.476 E.89457
M204 S1000
;WIPE_START
G1 F8640
G1 X138.826 Y97.941 E-.8
;WIPE_END
G1 Z.6 F720
G1 X146.4 Y68.723 F10800
G1 Z.2 F720
G1 E.8 F2100
M204 S800
G1 F1200
G1 X143.48 Y68.723 E.09155
G1 X143.48 Y44.38 E.76326
G1 X146.4 Y44.38 E.09155
G1 X146.4 Y68.667 E.7615
M204 S1000
G1 X145.949 Y68.553 F10800
M204 S800
G1 F1200
G1 X145.949 Y44.719 E.7473
G1 X145.53 Y44.719 E.01314
G1 X145.53 Y68.384 E.742
G1 X145.111 Y68.384 E.01314
M73 Q0 S215
G1 X145.111 Y44.719 E.742
G1 X144.692 Y44.719 E.01314
G1 X144.692 Y68.384 E.742
G1 X144.273 Y68.384 E.01314
G1 X144.273 Y44.719 E.742
G1 X143.854 Y44.719 E.01314
G1 X143.854 Y68.553 E.7473
M204 S1000
;WIPE_START
G1 F8640
G1 X143.854 Y65.088 E-.8
;WIPE_END
G1 Z.6 F720
G1 X100.52 Y66.416 F10800
G1 Z.2 F720
G1 E.8 F2100
M204 S800
G1 F1200
G1 X96.679 Y66.416 E.12043
G1 X96.679 Y46.687 E.61859
G1 X100.52 Y46.687 E.12043
G1 X100.52 Y66.359 E.6168
M204 S1000
G1 X99.861 Y66.246 F10800
M204 S800
G1 F1200
G1 X99.861 Y47.026 E.60263
G1 X99.442 Y47.026 E.01314
G1 X99.442 Y66.077 E.59733
G1 X99.023 Y66.077 E.01314
G1 X99.023 Y47.026 E.59733
G1 X98.604 Y47.026 E.01314
G1 X98.604 Y66.077 E.59733
G1 X98.185 Y66.077 E.01314
G1 X98.185 Y47.026 E.59733
G1 X97.767 Y47.026 E.01311
G1 X97.766 Y66.077 E.59733
G1 X97.348 Y66.077 E.01311
G1 X97.348 Y46.856 E.60266
M204 S1000
;WIPE_START
G1 F8640
G1 X97.348 Y50.321 E-.8
;WIPE_END
G1 Z.6 F720
G1 X105.52 Y108.346 F10800
G1 Z.2 F720
G1 E.8 F2100
M204 S800
G1 F1200
G1 X98.801 Y108.346 E.21067
G1 X98.52 Y108.628 E.01248
G1 X98.52 Y114.025 E.16922
G1 X98.801 Y114.306 E.01246
G1 X105.52 Y114.306 E.21067
G1 X105.52 Y123.346 E.28344
G1 X98.801 Y123.346 E.21067
G1 X98.52 Y123.628 E.01248
G1 X98.52 Y129.025 E.16922
G1 X98.801 Y129.306 E.01246
G1 X101.983 Y129.306 E.09977
G1 X103.691 Y131.014 E.07574
G1 X94.372 Y131.014 E.29219
G1 X94.372 Y120.513 E.32925
G1 X101.293 Y120.513 E.217
G1 X101.293 Y117.172 E.10475
G1 X94.372 Y117.172 E.217
G1 X94.372 Y106.671 E.32925
G1 X101.293 Y106.671 E.217
G1 X101.293 Y94.306 E.3877
G1 X105.52 Y94.306 E.13253
G1 X105.52 Y108.29 E.43846
M204 S1000
;WIPE_START
G1 F8640
G1 X105.52 Y104.825 E-.8
;WIPE_END
G1 Z.6 F720
G1 X104.889 Y123.177 F10800
G1 Z.2 F720
G1 E.8 F2100
M204 S800
G1 F1200
G1 X104.889 Y114.646 E.26748
G1 X104.47 Y114.646 E.01314
G1 X104.47 Y123.007 E.26215
G1 X104.051 Y123.007 E.01314
G1 X104.051 Y114.646 E.26215
G1 X103.632 Y114.646 E.01314
G1 X103.632 Y123.007 E.26215
G1 X103.213 Y123.007 E.01314
G1 X103.213 Y114.646 E.26215
G1 X102.794 Y114.646 E.01314
G1 X102.794 Y123.007 E.26215
G1 X102.375 Y123.007 E.01314
G1 X102.375 Y114.646 E.26215
G1 X101.956 Y114.646 E.01314
G1 X101.956 Y123.007 E.26215
G1 X101.537 Y123.007 E.01314
G1 X101.537 Y114.646 E.26215
G1 X101.118 Y114.646 E.01314
G1 X101.118 Y116.832 E.06854
G1 X100.699 Y116.832 E.01314
G1 X100.699 Y114.646 E.06854
G1 X100.28 Y114.646 E.01314
G1 X100.28 Y116.832 E.06854
G1 X99.861 Y116.832 E.01314
G1 X99.861 Y114.646 E.06854
G1 X99.442 Y114.646 E.01314
G1 X99.442 Y116.832 E.06854
G1 X99.023 Y116.832 E.01314
G1 X99.023 Y114.646 E.06854
G1 X98.604 Y114.59 E.01325
G1 X98.604 Y116.832 E.0703
G1 X98.185 Y116.832 E.01314
G1 X98.185 Y107.01 E.30796
G1 X98.604 Y107.01 E.01314
G1 X98.604 Y108.063 E.03302
G1 X99.023 Y108.007 E.01325
G1 X99.023 Y107.01 E.03126
G1 X99.442 Y107.01 E.01314
G1 X99.442 Y108.007 E.03126
G1 X99.861 Y108.007 E.01314
G1 X99.861 Y107.01 E.03126
G1 X100.28 Y107.01 E.01314
G1 X100.28 Y108.007 E.03126
G1 X100.699 Y108.007 E.01314
G1 X100.699 Y107.01 E.03126
G1 X101.118 Y107.01 E.01314
G1 X101.118 Y108.007 E.03126
G1 X101.537 Y108.007 E.01314
G1 X101.537 Y107.01 E.03126
G1 X101.632 Y107.01 E.00298
G1 X101.632 Y94.646 E.38766
G1 X101.956 Y94.646 E.01016
G1 X101.956 Y108.007 E.41892
G1 X102.375 Y108.007 E.01314
G1 X102.375 Y94.646 E.41892
G1 X102.794 Y94.646 E.01314
G1 X102.794 Y108.007 E.41892
G1 X103.213 Y108.007 E.01314
G1 X103.213 Y94.646 E.41892
G1 X103.632 Y94.646 E.01314
G1 X103.632 Y108.007 E.41892
G1 X104.051 Y108.007 E.01314
G1 X104.051 Y94.646 E.41892
G1 X104.47 Y94.646 E.01314
G1 X104.47 Y108.007 E.41892
G1 X104.889 Y108.007 E.01314
G1 X104.889 Y94.476 E.42426
M204 S1000
;WIPE_START
G1 F8640
G1 X104.889 Y97.941 E-.8
;WIPE_END
G1 Z.6 F720
G1 X102.794 Y130.845 F10800
G1 Z.2 F720
G1 E.8 F2100
M204 S800
G1 F1200
G1 X102.794 Y130.597 E.00778
G1 X102.375 Y130.178 E.01858
G1 X102.375 Y130.675 E.01558
G1 X101.956 Y130.675 E.01314
G1 X101.956 Y129.759 E.02872
G1 X101.842 Y129.646 E.00503
G1 X101.537 Y129.646 E.00956
G1 X101.537 Y130.675 E.03226
G1 X101.118 Y130.675 E.01314
G1 X101.118 Y129.646 E.03226
G1 X100.699 Y129.646 E.01314
G1 X100.699 Y130.675 E.03226
G1 X100.28 Y130.675 E.01314
G1 X100.28 Y129.646 E.03226
G1 X99.861 Y129.646 E.01314
G1 X99.861 Y130.675 E.03226
G1 X99.442 Y130.675 E.01314
G1 X99.442 Y129.646 E.03226
G1 X99.023 Y129.646 E.01314
G1 X99.023 Y130.675 E.03226
G1 X98.604 Y130.675 E.01314
G1 X98.604 Y129.35 E.04154
M204 S1000
;WIPE_START
G1 F8640
G1 X98.604 Y130.675 E-.30595
G1 X99.023 Y130.675 E-.09675
G1 X99.023 Y129.646 E-.2376
G1 X99.442 Y129.646 E-.09675
G1 X99.442 Y129.919 E-.06295
;WIPE_END
G1 Z.6 F720
G1 X101.118 Y123.177 F10800
G1 Z.2 F720
G1 E.8 F2100
M204 S800
G1 F1200
G1 X101.118 Y120.853 E.07287
G1 X100.699 Y120.853 E.01314
G1 X100.699 Y123.007 E.06754
G1 X100.28 Y123.007 E.01314
G1 X100.28 Y120.853 E.06754
G1 X99.861 Y120.853 E.01314
G1 X99.861 Y123.007 E.06754
G1 X99.442 Y123.007 E.01314
G1 X99.442 Y120.853 E.06754
G1 X99.023 Y120.853 E.01314
G1 X99.023 Y123.007 E.06754
G1 X98.604 Y123.063 E.01325
G1 X98.604 Y120.853 E.06929
G1 X98.185 Y120.853 E.01314
G1 X98.185 Y130.675 E.30796
G1 X97.766 Y130.675 E.01314
G1 X97.766 Y120.853 E.30796
G1 X97.348 Y120.853 E.01311
G1 X97.348 Y130.675 E.30796
G1 X96.929 Y130.675 E.01314
G1 X96.929 Y120.853 E.30796
G1 X96.51 Y120.853 E.01314
G1 X96.51 Y130.675 E.30796
G1 X96.091 Y130.675 E.01314
G1 X96.091 Y120.853 E.30796
G1 X95.672 Y120.853 E.01314
G1 X95.672 Y130.675 E.30796
G1 X95.253 Y130.675 E.01314
G1 X95.253 Y120.853 E.30796
G1 X94.834 Y120.853 E.01314
G1 X94.834 Y130.845 E.31329
M204 S1000
;WIPE_START
G1 F8640
G1 X94.834 Y127.38 E-.8
;WIPE_END
G1 Z.6 F720
G1 X97.766 Y117.002 F10800
G1 Z.2 F720
G1 E.8 F2100
M204 S800
G1 F1200
G1 X97.766 Y107.01 E.31329
G1 X97.348 Y107.01 E.01311
G1 X97.348 Y116.832 E.30796
G1 X96.929 Y116.832 E.01314
G1 X96.929 Y107.01 E.30796
G1 X96.51 Y107.01 E.01314
G1 X96.51 Y116.832 E.30796
G1 X96.091 Y116.832 E.01314
G1 X96.091 Y107.01 E.30796
G1 X95.672 Y107.01 E.01314
M73 P0 R211
G1 X95.672 Y116.832 E.30796
G1 X95.253 Y116.832 E.01314
M73 P1 R211
G1 X95.253 Y107.01 E.30796
G1 X94.834 Y107.01 E.01314
M73 Q1 S215
G1 X94.834 Y117.002 E.31329
M204 S1000
;WIPE_START
G1 F8640
G1 X94.834 Y113.537 E-.8
;WIPE_END
G1 Z.6 F720
G1 X114.101 Y123.346 F10800
G1 Z.2 F720
G1 E.8 F2100
M204 S800
G1 F1200
G1 X111.48 Y123.346 E.08218
G1 X111.48 Y94.306 E.91053
G1 X114.101 Y94.306 E.08218
G1 X114.101 Y123.29 E.90877
M204 S1000
G1 X113.688 Y123.177 F10800
M204 S800
G1 F1200
G1 X113.688 Y94.646 E.89457
G1 X113.269 Y94.646 E.01314
G1 X113.269 Y123.007 E.88924
G1 X112.85 Y123.007 E.01314
G1 X112.85 Y94.646 E.88924
G1 X112.431 Y94.646 E.01314
G1 X112.431 Y123.007 E.88924
G1 X112.012 Y123.007 E.01314
G1 X112.012 Y94.476 E.89457
M204 S1000
;WIPE_START
G1 F8640
M73 Q1 S214
G1 X112.012 Y97.941 E-.8
;WIPE_END
G1 Z.6 F720
G1 X132.52 Y123.346 F10800
G1 Z.2 F720
G1 E.8 F2100
M204 S800
G1 F1200
G1 X128.978 Y123.346 E.11106
G1 X128.978 Y94.306 E.91053
