; generated by PrusaSlicer 2.9.2 on 2025-04-15 at 23:12:12 UTC


;
;
; 

; external perimeters extrusion width = 0.45mm
; perimeters extrusion width = 0.45mm
; infill extrusion width = 0.45mm
; solid infill extrusion width = 0.45mm
; top infill extrusion width = 0.40mm
; support material extrusion width = 0.35mm
; first layer extrusion width = 0.42mm

M73 P0 R161
M73 Q0 S164
M201 X1000 Y1000 Z200 E5000 ; sets maximum accelerations, mm/sec^2
M203 X200 Y200 Z12 E120 ; sets maximum feedrates, mm / sec
M204 S1250 T1250 ; sets acceleration (S) and retract acceleration (R), mm/sec^2
M205 X8.00 Y8.00 Z0.40 E4.50 ; sets the jerk limits, mm/sec
M205 S0 T0 ; sets the minimum extruding and travel feed rate, mm/sec

; printing object R Calf.STL id:0 copy 0
; stop printing object R Calf.STL id:0 copy 0

;TYPE:Custom
M862.3 P "MK3S" ; printer model check
M862.1 P0.4 ; nozzle diameter check
M115 U3.14.1 ; tell printer latest fw version
G90 ; use absolute coordinates
M83 ; extruder relative mode
M104 S215 ; set extruder temp
M140 S60 ; set bed temp
M190 S60 ; wait for bed temp
M109 S215 ; wait for extruder temp
G28 W ; home all without mesh bed level
G80 X96.6087 Y28.16 W56.7826 H152.915 ; mesh bed levelling

G1 Z0.2 F720
G1 Y-3 F1000 ; go outside print area
G92 E0
G1 X60 E9 F1000 ; intro line
G1 X100 E12.5 F1000 ; intro line

G92 E0
M221 S95

; Don't change E values below. Excessive value can damage the printer.

G21 ; set units to millimeters
G90 ; use absolute coordinates
M83 ; use relative distances for extrusion

M900 K0.05 ; Filament gcode LA 1.5
M900 K30 ; Filament gcode LA 1.0




M107
;LAYER_CHANGE
;Z:0.2
;HEIGHT:0.2
G1 E-.8 F2100
G1 Z.6 F720
G1 X108.343 Y34.934 F10800
G1 Z.2 F720
G1 E.8 F2100
M204 S800
;TYPE:Skirt/Brim
;WIDTH:0.42
G1 F1200
G1 X108.974 Y33.604 E.04616
G1 X111.281 Y31.297 E.1023
G1 X111.85 Y30.887 E.02199
G1 X116.464 Y28.58 E.16174
G1 X117.442 Y28.349 E.03151
G1 X132.558 Y28.349 E.47395
G1 X133.536 Y28.58 E.03151
G1 X138.151 Y30.887 E.16177
G1 X138.719 Y31.297 E.02196
G1 X141.026 Y33.604 E.1023
G1 X141.657 Y34.942 E.04638
G1 X153.193 Y154.91 E3.77886
G1 X153.203 Y174.849 E.62517
G1 X152.812 Y176.097 E.04101
G1 X151.943 Y176.831 E.03567
G1 X146.928 Y179.18 E.17364
G1 X146.187 Y179.379 E.02406
G1 X128.687 Y180.879 E.55071
G1 X121.35 Y180.881 E.23005
G1 X98.836 Y179.339 E.70756
G1 X97.618 Y178.864 E.04099
G1 X96.797 Y177.156 E.05942
G1 X96.808 Y150.287 E.84246
G1 X108.338 Y34.993 E3.63299
M204 S1000
;WIPE_START
G1 F8640
G1 X108.343 Y34.934 E-.01367
G1 X108.974 Y33.604 E-.33991
G1 X110.341 Y32.237 E-.44642
;WIPE_END
G1 Z.6 F720
; printing object R Calf.STL id:0 copy 0
G1 X122.201 Y44.524 F10800
G1 Z.2 F720
G1 E.8 F2100
M204 S800
;TYPE:Support material interface
;WIDTH:0.35
G1 F1200
G1 X122.465 Y44.133 E.01205
G1 X122.465 Y40.402 E.09527
G1 X122.972 Y40.402 E.01295
G1 X122.972 Y43.633 E.0825
G1 X123.479 Y43.294 E.01557
G1 X123.479 Y40.402 E.07384
G1 X123.986 Y40.402 E.01295
G1 X123.986 Y43.092 E.06869
G1 X124.493 Y42.976 E.01328
G1 X124.493 Y40.402 E.06572
G1 X125 Y40.402 E.01295
G1 X125 Y42.932 E.0646
G1 X125.507 Y42.96 E.01297
G1 X125.507 Y40.402 E.06532
G1 X126.014 Y40.402 E.01295
G1 X126.014 Y43.095 E.06876
G1 X126.521 Y43.313 E.01409
G1 X126.521 Y40.402 E.07433
G1 X127.028 Y40.402 E.01295
G1 X127.028 Y43.642 E.08273
G1 X127.535 Y44.145 E.01824
M73 P0 R160
G1 X127.535 Y40.402 E.09557
G1 X128.042 Y40.402 E.01295
G1 X128.042 Y45.008 E.11761
G1 X128.246 Y45.774 E.02024
G1 X128.55 Y45.774 E.00776
G1 X128.55 Y40.402 E.13717
G1 X129.057 Y40.402 E.01295
M73 Q0 S163
G1 X129.057 Y45.774 E.13717
G1 X129.564 Y45.774 E.01295
G1 X129.564 Y40.402 E.13717
M204 S1000
;WIPE_START
G1 F8640
G1 X129.564 Y43.867 E-.8
;WIPE_END
G1 Z.6 F720
G1 X127.113 Y44.192 F10800
G1 Z.2 F720
G1 E.8 F2100
M204 S800
;TYPE:Support material
;WIDTH:0.42
G1 F1200
G1 X127.499 Y44.698 E.01995
G1 X127.761 Y45.264 E.01956
G1 X127.861 Y45.718 E.01458
G1 X126.978 Y45.718 E.02769
G1 X126.978 Y44.076 E.05148
G1 X127.07 Y44.155 E.0038
M204 S1000
;WIPE_START
G1 F8640
G1 X126.978 Y44.076 E-.028
G1 X126.978 Y45.718 E-.37914
G1 X127.861 Y45.718 E-.20389
G1 X127.761 Y45.264 E-.10734
G1 X127.612 Y44.943 E-.08163
;WIPE_END
G1 Z.6 F720
G1 X123.022 Y45.718 F10800
G1 Z.2 F720
G1 E.8 F2100
M204 S800
G1 F1200
G1 X122.138 Y45.718 E.02772
G1 X122.357 Y44.971 E.02441
G1 X122.678 Y44.437 E.01954
G1 X123.022 Y44.073 E.0157
G1 X123.022 Y45.661 E.04979
M204 S1000
;WIPE_START
G1 F8640
G1 X123.022 Y44.073 E-.36667
G1 X122.678 Y44.437 E-.11564
G1 X122.357 Y44.971 E-.14387
G1 X122.145 Y45.693 E-.17382
;WIPE_END
G1 Z.6 F720
G1 X122.311 Y40.402 F10800
G1 Z.2 F720
G1 E.8 F2100
M204 S800
;TYPE:Support material interface
;WIDTH:0.35
G1 F1200
G1 X121.958 Y40.402 E.00901
G1 X121.958 Y45.014 E.11776
G1 X121.766 Y45.774 E.02002
G1 X121.45 Y45.774 E.00807
G1 X121.45 Y40.402 E.13717
G1 X120.943 Y40.402 E.01295
G1 X120.943 Y45.774 E.13717
G1 X120.436 Y45.774 E.01295
G1 X120.436 Y40.402 E.13717
M204 S1000
;WIPE_START
G1 F8640
G1 X120.436 Y43.867 E-.8
;WIPE_END
G1 Z.6 F720
G1 X132.558 Y32.844 F10800
G1 Z.2 F720
G1 E.8 F2100
M204 S800
;TYPE:Support material
;WIDTH:0.42
G1 F1200
G1 X137.172 Y32.844 E.14467
G1 X137.172 Y35.151 E.07233
G1 X139.479 Y35.151 E.07233
G1 X139.479 Y57.188 E.69095
G1 X137.172 Y57.188 E.07233
G1 X137.172 Y59.495 E.07233
G1 X132.98 Y59.495 E.13144
G1 X132.98 Y45.999 E.42316
G1 X132.699 Y45.718 E.01246
G1 X129.978 Y45.718 E.08532
G1 X129.978 Y40.038 E.17809
G1 X120.022 Y40.038 E.31216
G1 X120.022 Y45.718 E.17809
G1 X117.301 Y45.718 E.08532
G1 X117.02 Y45.999 E.01246
G1 X117.02 Y59.495 E.42316
G1 X112.828 Y59.495 E.13144
G1 X112.828 Y57.188 E.07233
G1 X110.521 Y57.188 E.07233
G1 X110.521 Y35.151 E.69095
G1 X112.828 Y35.151 E.07233
G1 X112.828 Y32.844 E.07233
G1 X117.442 Y32.844 E.14467
G1 X117.442 Y30.537 E.07233
G1 X132.558 Y30.537 E.47395
G1 X132.558 Y32.788 E.07058
M204 S1000
G1 X138.826 Y57.018 F10800
M204 S800
G1 F1200
G1 X138.826 Y35.491 E.67496
G1 X138.407 Y35.491 E.01314
G1 X138.407 Y56.848 E.66963
G1 X137.988 Y56.848 E.01314
G1 X137.988 Y35.491 E.66963
G1 X137.569 Y35.491 E.01314
G1 X137.569 Y56.848 E.66963
G1 X137.15 Y56.848 E.01314
G1 X137.15 Y35.491 E.66963
G1 X136.832 Y35.491 E.00997
G1 X136.832 Y33.184 E.07233
G1 X136.731 Y33.184 E.00317
G1 X136.731 Y59.155 E.8143
G1 X136.312 Y59.155 E.01314
G1 X136.312 Y33.184 E.8143
G1 X135.893 Y33.184 E.01314
G1 X135.893 Y59.155 E.8143
G1 X135.474 Y59.155 E.01314
G1 X135.474 Y33.184 E.8143
G1 X135.055 Y33.184 E.01314
G1 X135.055 Y59.155 E.8143
G1 X134.636 Y59.155 E.01314
G1 X134.636 Y33.184 E.8143
G1 X134.218 Y33.184 E.01311
G1 X134.217 Y59.155 E.8143
G1 X133.799 Y59.155 E.01311
G1 X133.799 Y33.184 E.8143
G1 X133.38 Y33.184 E.01314
G1 X133.38 Y59.155 E.8143
G1 X133.319 Y59.155 E.00191
G1 X133.319 Y45.859 E.41689
G1 X132.961 Y45.5 E.0159
G1 X132.961 Y33.184 E.38616
G1 X132.542 Y33.184 E.01314
G1 X132.542 Y45.379 E.38237
G1 X132.123 Y45.379 E.01314
G1 X132.123 Y30.876 E.45473
G1 X131.704 Y30.876 E.01314
G1 X131.704 Y45.379 E.45473
G1 X131.285 Y45.379 E.01314
G1 X131.285 Y30.876 E.45473
G1 X130.866 Y30.876 E.01314
G1 X130.866 Y45.379 E.45473
G1 X130.447 Y45.379 E.01314
G1 X130.447 Y30.876 E.45473
G1 X130.028 Y30.876 E.01314
G1 X130.028 Y39.699 E.27664
G1 X129.609 Y39.699 E.01314
G1 X129.609 Y30.876 E.27664
G1 X129.19 Y30.876 E.01314
G1 X129.19 Y39.699 E.27664
G1 X128.771 Y39.699 E.01314
G1 X128.771 Y30.876 E.27664
G1 X128.352 Y30.876 E.01314
G1 X128.352 Y39.699 E.27664
G1 X127.933 Y39.699 E.01314
G1 X127.933 Y30.876 E.27664
G1 X127.514 Y30.876 E.01314
G1 X127.514 Y39.699 E.27664
G1 X127.095 Y39.699 E.01314
G1 X127.095 Y30.876 E.27664
G1 X126.676 Y30.876 E.01314
G1 X126.676 Y39.699 E.27664
G1 X126.257 Y39.699 E.01314
G1 X126.257 Y30.876 E.27664
G1 X125.838 Y30.876 E.01314
G1 X125.838 Y39.699 E.27664
G1 X125.419 Y39.699 E.01314
G1 X125.419 Y30.876 E.27664
G1 X125 Y30.876 E.01314
G1 X125 Y39.699 E.27664
G1 X124.581 Y39.699 E.01314
G1 X124.581 Y30.876 E.27664
G1 X124.162 Y30.876 E.01314
G1 X124.162 Y39.699 E.27664
G1 X123.743 Y39.699 E.01314
G1 X123.743 Y30.876 E.27664
G1 X123.324 Y30.876 E.01314
G1 X123.324 Y39.699 E.27664
G1 X122.905 Y39.699 E.01314
G1 X122.905 Y30.876 E.27664
G1 X122.486 Y30.876 E.01314
G1 X122.486 Y39.699 E.27664
G1 X122.067 Y39.699 E.01314
G1 X122.067 Y30.876 E.27664
G1 X121.648 Y30.876 E.01314
G1 X121.648 Y39.699 E.27664
G1 X121.229 Y39.699 E.01314
G1 X121.229 Y30.876 E.27664
G1 X120.81 Y30.876 E.01314
G1 X120.81 Y39.699 E.27664
G1 X120.391 Y39.699 E.01314
G1 X120.391 Y30.876 E.27664
G1 X119.972 Y30.876 E.01314
G1 X119.972 Y39.699 E.27664
G1 X119.683 Y39.699 E.00906
G1 X119.683 Y45.379 E.17809
G1 X119.553 Y45.379 E.00408
G1 X119.553 Y30.876 E.45473
G1 X119.134 Y30.876 E.01314
G1 X119.134 Y45.379 E.45473
G1 X118.715 Y45.379 E.01314
G1 X118.715 Y30.876 E.45473
G1 X118.296 Y30.876 E.01314
G1 X118.296 Y45.379 E.45473
G1 X117.877 Y45.379 E.01314
G1 X117.877 Y30.876 E.45473
G1 X117.782 Y30.876 E.00298
G1 X117.782 Y33.184 E.07237
G1 X117.458 Y33.184 E.01016
G1 X117.458 Y45.379 E.38237
G1 X117.161 Y45.379 E.00931
G1 X117.039 Y45.5 E.00539
G1 X117.039 Y33.184 E.38616
G1 X116.62 Y33.184 E.01314
G1 X116.62 Y59.155 E.8143
G1 X116.201 Y59.155 E.01314
G1 X116.201 Y33.184 E.8143
G1 X115.783 Y33.184 E.01311
G1 X115.783 Y59.155 E.8143
G1 X115.364 Y59.155 E.01314
G1 X115.364 Y33.184 E.8143
G1 X114.945 Y33.184 E.01314
G1 X114.945 Y59.155 E.8143
G1 X114.526 Y59.155 E.01314
M73 P0 R159
M73 Q0 S162
G1 X114.526 Y33.184 E.8143
G1 X114.107 Y33.184 E.01314
G1 X114.107 Y59.155 E.8143
G1 X113.688 Y59.155 E.01314
G1 X113.688 Y33.184 E.8143
G1 X113.269 Y33.184 E.01314
G1 X113.269 Y59.155 E.8143
G1 X113.168 Y59.155 E.00317
G1 X113.168 Y56.848 E.07233
G1 X112.85 Y56.848 E.00997
G1 X112.85 Y35.491 E.66963
G1 X112.431 Y35.491 E.01314
G1 X112.431 Y56.848 E.66963
G1 X112.012 Y56.848 E.01314
M73 P1 R159
G1 X112.012 Y35.491 E.66963
G1 X111.593 Y35.491 E.01314
G1 X111.593 Y56.848 E.66963
G1 X111.174 Y56.848 E.01314
M73 Q1 S162
G1 X111.174 Y35.321 E.67496
M204 S1000
;WIPE_START
G1 F8640
G1 X111.174 Y38.786 E-.8
;WIPE_END
G1 Z.6 F720
G1 X103.52 Y177.156 F10800
G1 Z.2 F720
G1 E.8 F2100
M204 S800
G1 F1200
G1 X98.986 Y177.156 E.14216
G1 X98.986 Y150.505 E.83562
G1 X103.52 Y150.505 E.14216
G1 X103.52 Y177.099 E.83384
M204 S1000
G1 X102.794 Y176.986 F10800
M204 S800
G1 F1200
G1 X102.794 Y150.845 E.81963
G1 X102.375 Y150.845 E.01314
G1 X102.375 Y176.816 E.8143
G1 X101.956 Y176.816 E.01314
G1 X101.956 Y150.845 E.8143
G1 X101.537 Y150.845 E.01314
G1 X101.537 Y176.816 E.8143
G1 X101.118 Y176.816 E.01314
G1 X101.118 Y150.845 E.8143
G1 X100.699 Y150.845 E.01314
G1 X100.699 Y176.816 E.8143
G1 X100.28 Y176.816 E.01314
G1 X100.28 Y150.845 E.8143
G1 X99.861 Y150.845 E.01314
G1 X99.861 Y176.816 E.8143
G1 X99.442 Y176.816 E.01314
G1 X99.442 Y150.675 E.81963
M204 S1000
;WIPE_START
G1 F8640
G1 X99.442 Y154.14 E-.8
;WIPE_END
G1 Z.6 F720
G1 X151.014 Y174.849 F10800
G1 Z.2 F720
G1 E.8 F2100
M204 S800
G1 F1200
G1 X146.48 Y174.849 E.14216
G1 X146.48 Y155.119 E.61862
G1 X151.014 Y155.119 E.14216
G1 X151.014 Y174.792 E.61683
M204 S1000
G1 X150.558 Y174.679 F10800
M204 S800
G1 F1200
G1 X150.558 Y155.459 E.60263
G1 X150.139 Y155.459 E.01314
G1 X150.139 Y174.509 E.5973
G1 X149.72 Y174.509 E.01314
G1 X149.72 Y155.459 E.5973
G1 X149.301 Y155.459 E.01314
G1 X149.301 Y174.509 E.5973
G1 X148.882 Y174.509 E.01314
G1 X148.882 Y155.459 E.5973
G1 X148.463 Y155.459 E.01314
G1 X148.463 Y174.509 E.5973
G1 X148.044 Y174.509 E.01314
G1 X148.044 Y155.459 E.5973
G1 X147.625 Y155.459 E.01314
G1 X147.625 Y174.509 E.5973
G1 X147.206 Y174.509 E.01314
G1 X147.206 Y155.289 E.60263
M204 S1000
;WIPE_START
G1 F8640
G1 X147.206 Y158.754 E-.8
;WIPE_END
G1 Z.6 F720
G1 X127.884 Y176.592 F10800
G1 Z.2 F720
G1 E.8 F2100
M204 S800
;TYPE:Perimeter
;WIDTH:0.419999
G1 F1200
G1 X127.769 Y176.731 E.00566
G1 X127.713 Y176.977 E.00791
G1 X127.713 Y177.911 E.02928
G1 X122.287 Y177.911 E.17013
G1 X122.287 Y176.977 E.02928
G1 X122.231 Y176.731 E.00791
G1 X122.149 Y176.607 E.00466
G1 X121.991 Y176.479 E.00638
G1 X121.721 Y176.411 E.00873
G1 X104.787 Y176.411 E.53095
G1 X104.785 Y142.925 E1.04993
G1 X104.694 Y142.666 E.00861
G1 X104.467 Y142.467 E.00947
G1 X104.221 Y142.411 E.00791
G1 X103.287 Y142.411 E.02928
G1 X103.287 Y136.985 E.17013
G1 X104.221 Y136.985 E.02928
G1 X104.467 Y136.929 E.00791
G1 X104.591 Y136.847 E.00466
G1 X104.725 Y136.677 E.00679
G1 X104.787 Y136.419 E.00832
G1 X104.787 Y126.985 E.2958
G1 X117.765 Y126.983 E.40692
G1 X118.027 Y126.896 E.00866
G1 X118.216 Y126.695 E.00865
G1 X118.287 Y126.419 E.00894
G1 X118.287 Y46.985 E2.49059
G1 X124.36 Y46.974 E.19041
G1 X124.623 Y46.842 E.00923
G1 X124.805 Y46.516 E.01171
G1 X124.872 Y46.125 E.01244
G1 X124.975 Y46.046 E.00407
G1 X125.109 Y46.095 E.00447
G1 X125.18 Y46.483 E.01237
G1 X125.366 Y46.842 E.01268
G1 X125.496 Y46.929 E.0049
G1 X125.742 Y46.985 E.00791
G1 X131.713 Y46.985 E.18722
G1 X131.715 Y126.469 E2.49216
G1 X131.808 Y126.734 E.00881
G1 X132.002 Y126.913 E.00828
G1 X132.279 Y126.985 E.00897
G1 X145.213 Y126.985 E.40554
G1 X145.214 Y136.459 E.29705
G1 X145.306 Y136.73 E.00897
G1 X145.533 Y136.929 E.00947
G1 X145.779 Y136.985 E.00791
G1 X146.713 Y136.985 E.02928
G1 X146.713 Y137.919 E.02928
G1 X146.713 Y142.411 E.14084
G1 X145.779 Y142.411 E.02928
G1 X145.533 Y142.467 E.00791
G1 X145.409 Y142.549 E.00466
G1 X145.275 Y142.719 E.00679
G1 X145.213 Y142.977 E.00832
G1 X145.213 Y176.411 E1.0483
G1 X128.21 Y176.415 E.53312
G1 X127.943 Y176.521 E.00901
G1 X127.922 Y176.546 E.00102
M204 S1000
G1 X128.142 Y176.874 F10800
M204 S800
;TYPE:External perimeter
G1 F1200
G1 X128.09 Y176.977 E.00362
G1 X128.09 Y178.288 E.04111
G1 X121.91 Y178.288 E.19377
G1 X121.91 Y176.977 E.04111
G1 X121.864 Y176.853 E.00415
G1 X121.721 Y176.788 E.00493
G1 X104.41 Y176.788 E.54277
G1 X104.41 Y142.977 E1.06012
M73 P1 R158
M73 Q1 S161
G1 X104.371 Y142.862 E.00381
G1 X104.221 Y142.788 E.00524
G1 X102.91 Y142.788 E.04111
G1 X102.91 Y136.608 E.19377
G1 X104.221 Y136.608 E.04111
G1 X104.345 Y136.562 E.00415
G1 X104.41 Y136.419 E.00493
G1 X104.41 Y126.608 E.30762
G1 X117.721 Y126.608 E.41736
G1 X117.841 Y126.566 E.00399
G1 X117.91 Y126.419 E.00509
G1 X117.91 Y46.608 E2.50241
G1 X124.247 Y46.608 E.19869
G1 X124.329 Y46.589 E.00264
G1 X124.433 Y46.452 E.00539
G1 X124.517 Y45.97 E.01534
G1 X124.653 Y45.79 E.00707
G1 X124.866 Y45.677 E.00756
G1 X125.198 Y45.7 E.01043
G1 X125.389 Y45.83 E.00724
G1 X125.508 Y46.027 E.00722
G1 X125.554 Y46.441 E.01306
G1 X125.616 Y46.56 E.00421
G1 X125.742 Y46.608 E.00423
G1 X132.09 Y46.608 E.19904
G1 X132.09 Y126.419 E2.50241
G1 X132.138 Y126.545 E.00423
G1 X132.279 Y126.608 E.00484
G1 X145.59 Y126.608 E.41736
G1 X145.59 Y136.419 E.30762
G1 X145.629 Y136.534 E.00381
G1 X145.779 Y136.608 E.00524
G1 X147.09 Y136.608 E.04111
G1 X147.09 Y137.919 E.04111
G1 X147.09 Y142.788 E.15266
G1 X145.779 Y142.788 E.04111
G1 X145.655 Y142.834 E.00415
G1 X145.59 Y142.977 E.00493
G1 X145.59 Y176.788 E1.06012
G1 X128.279 Y176.788 E.54277
G1 X128.172 Y176.823 E.00353
M204 S1000
;WIPE_START
G1 F8640
G1 X128.142 Y176.874 E-.01366
G1 X128.09 Y176.977 E-.02664
G1 X128.09 Y178.288 E-.30271
G1 X126.111 Y178.288 E-.45699
;WIPE_END
G1 Z.6 F720
G1 X131.543 Y47.917 F10800
G1 Z.2 F720
G1 E.8 F2100
M204 S800
;TYPE:Solid infill
;WIDTH:0.420079
G1 F1200
G1 X130.95 Y47.324 E.0263
G1 X130.417 Y47.324 E.01672
G1 X131.374 Y48.281 E.04244
G1 X131.374 Y48.814 E.01672
G1 X129.884 Y47.324 E.06608
G1 X129.35 Y47.324 E.01675
G1 X131.374 Y49.348 E.08977
G1 X131.374 Y49.881 E.01672
G1 X128.817 Y47.324 E.11341
G1 X128.284 Y47.324 E.01672
G1 X131.374 Y50.414 E.13704
G1 X131.374 Y50.948 E.01675
G1 X127.75 Y47.324 E.16073
G1 X127.217 Y47.324 E.01672
G1 X131.374 Y51.481 E.18437
G1 X131.374 Y52.015 E.01675
G1 X126.683 Y47.324 E.20805
G1 X126.15 Y47.324 E.01672
G1 X131.374 Y52.548 E.23169
G1 X131.374 Y53.081 E.01672
G1 X125.595 Y47.303 E.25628
G1 X125.464 Y47.282 E.00416
G1 X125.343 Y47.233 E.00409
G1 X125.127 Y47.089 E.00814
G1 X124.994 Y46.855 E.00844
G1 X124.853 Y47.094 E.0087
G1 X131.374 Y53.615 E.28921
G1 X131.374 Y54.148 E.01672
G1 X124.502 Y47.276 E.30478
G1 X124.346 Y47.32 E.00508
