; generated by PrusaSlicer 2.9.2 on 2025-04-11 at 03:24:04 UTC


;
;
; 

; external perimeters extrusion width = 0.45mm
; perimeters extrusion width = 0.45mm
; infill extrusion width = 0.45mm
; solid infill extrusion width = 0.45mm
; top infill extrusion width = 0.40mm
; support material extrusion width = 0.35mm
; first layer extrusion width = 0.42mm

M73 P0 R158
M73 Q0 S161
M201 X1000 Y1000 Z200 E5000 ; sets maximum accelerations, mm/sec^2
M203 X200 Y200 Z12 E120 ; sets maximum feedrates, mm / sec
M204 S1250 T1250 ; sets acceleration (S) and retract acceleration (R), mm/sec^2
M205 X8.00 Y8.00 Z0.40 E4.50 ; sets the jerk limits, mm/sec
M205 S0 T0 ; sets the minimum extruding and travel feed rate, mm/sec

; printing object R Calf.STL id:0 copy 0
; stop printing object R Calf.STL id:0 copy 0

;TYPE:Custom
M862.3 P "MK3S" ; printer model check
M862.1 P0.4 ; nozzle diameter check
M115 U3.14.1 ; tell printer latest fw version
G90 ; use absolute coordinates
M83 ; extruder relative mode
M104 S215 ; set extruder temp
M140 S60 ; set bed temp
M190 S60 ; wait for bed temp
M109 S215 ; wait for extruder temp
G28 W ; home all without mesh bed level
G80 X98.9158 Y28.16 W52.1685 H153.415 ; mesh bed levelling

G1 Z0.2 F720
G1 Y-3 F1000 ; go outside print area
G92 E0
G1 X60 E9 F1000 ; intro line
G1 X100 E12.5 F1000 ; intro line

G92 E0
M221 S95

; Don't change E values below. Excessive value can damage the printer.

G21 ; set units to millimeters
G90 ; use absolute coordinates
M83 ; use relative distances for extrusion

M900 K0.05 ; Filament gcode LA 1.5
M900 K30 ; Filament gcode LA 1.0




M107
;LAYER_CHANGE
;Z:0.2
;HEIGHT:0.2
G1 E-.8 F2100
G1 Z.6 F720
G1 X108.34 Y34.977 F10800
G1 Z.2 F720
G1 E.8 F2100
M204 S800
;TYPE:Skirt/Brim
;WIDTH:0.42
G1 F1200
G1 X108.974 Y33.604 E.04742
G1 X113.588 Y28.99 E.20459
G1 X115.135 Y28.349 E.0525
G1 X134.865 Y28.349 E.61862
G1 X136.412 Y28.99 E.0525
G1 X141.026 Y33.604 E.20459
G1 X141.66 Y34.977 E.04742
G1 X150.889 Y150.331 E3.6284
G1 X150.896 Y174.849 E.76874
G1 X150.505 Y176.097 E.04101
G1 X149.684 Y176.807 E.03403
G1 X145.977 Y178.656 E.12989
G1 X145.31 Y178.865 E.02192
G1 X127.81 Y181.365 E.55427
G1 X122.19 Y181.365 E.17621
G1 X104.69 Y178.865 E.55427
M73 Q0 S160
G1 X104.023 Y178.656 E.02192
G1 X100.316 Y176.807 E.12989
G1 X99.373 Y175.9 E.04102
M73 P0 R157
G1 X99.104 Y174.849 E.03402
G1 X99.104 Y152.812 E.69095
G1 X100.318 Y135.524 E.54339
G1 X108.335 Y35.037 E3.16071
M204 S1000
;WIPE_START
G1 F8640
G1 X108.34 Y34.977 E-.0139
G1 X108.974 Y33.604 E-.3492
G1 X110.312 Y32.266 E-.4369
;WIPE_END
G1 Z.6 F720
; printing object R Calf.STL id:0 copy 0
G1 X148.707 Y174.849 F10800
G1 Z.2 F720
G1 E.8 F2100
M204 S800
;TYPE:Support material
G1 F1200
G1 X145.48 Y174.849 E.10118
G1 X145.48 Y150.505 E.76329
G1 X148.707 Y150.505 E.10118
G1 X148.707 Y174.792 E.7615
M204 S1000
G1 X148.044 Y174.679 F10800
M204 S800
G1 F1200
G1 X148.044 Y150.845 E.7473
G1 X147.625 Y150.845 E.01314
G1 X147.625 Y174.509 E.74197
G1 X147.206 Y174.509 E.01314
G1 X147.206 Y150.845 E.74197
G1 X146.787 Y150.845 E.01314
G1 X146.787 Y174.509 E.74197
G1 X146.368 Y174.509 E.01314
G1 X146.368 Y150.845 E.74197
G1 X145.949 Y150.845 E.01314
G1 X145.949 Y174.679 E.7473
M204 S1000
;WIPE_START
G1 F8640
G1 X145.949 Y171.214 E-.8
;WIPE_END
G1 Z.6 F720
G1 X104.52 Y174.849 F10800
G1 Z.2 F720
G1 E.8 F2100
M204 S800
G1 F1200
G1 X101.293 Y174.849 E.10118
G1 X101.293 Y152.812 E.69095
G1 X104.52 Y152.812 E.10118
G1 X104.52 Y174.792 E.68917
M204 S1000
G1 X104.051 Y174.679 F10800
M204 S800
G1 F1200
G1 X104.051 Y153.152 E.67496
G1 X103.632 Y153.152 E.01314
G1 X103.632 Y174.509 E.66963
G1 X103.213 Y174.509 E.01314
G1 X103.213 Y153.152 E.66963
G1 X102.794 Y153.152 E.01314
G1 X102.794 Y174.509 E.66963
G1 X102.375 Y174.509 E.01314
G1 X102.375 Y153.152 E.66963
G1 X101.956 Y153.152 E.01314
G1 X101.956 Y174.679 E.67496
M204 S1000
;WIPE_START
G1 F8640
G1 X101.956 Y171.214 E-.8
;WIPE_END
G1 Z.6 F720
G1 X120.436 Y40.402 F10800
G1 Z.2 F720
G1 E.8 F2100
M204 S800
;TYPE:Support material interface
;WIDTH:0.35
G1 F1200
G1 X120.436 Y45.274 E.1244
G1 X120.943 Y45.274 E.01295
G1 X120.943 Y40.402 E.1244
G1 X121.45 Y40.402 E.01295
G1 X121.45 Y45.274 E.1244
G1 X121.766 Y45.274 E.00807
G1 X121.958 Y44.514 E.02002
G1 X121.958 Y40.402 E.10499
G1 X122.311 Y40.402 E.00901
M204 S1000
;WIPE_START
G1 F8640
G1 X121.958 Y40.402 E-.08151
G1 X121.958 Y43.514 E-.71849
;WIPE_END
G1 Z.6 F720
G1 X127.113 Y43.692 F10800
G1 Z.2 F720
G1 E.8 F2100
M204 S800
;TYPE:Support material
;WIDTH:0.42
G1 F1200
G1 X127.499 Y44.198 E.01995
G1 X127.761 Y44.764 E.01956
G1 X127.861 Y45.218 E.01458
G1 X126.978 Y45.218 E.02769
G1 X126.978 Y43.576 E.05148
G1 X127.07 Y43.655 E.0038
M204 S1000
;WIPE_START
G1 F8640
G1 X126.978 Y43.576 E-.028
G1 X126.978 Y45.218 E-.37914
G1 X127.861 Y45.218 E-.20389
G1 X127.761 Y44.764 E-.10734
G1 X127.612 Y44.443 E-.08163
;WIPE_END
G1 Z.6 F720
G1 X125.468 Y42.822 F10800
G1 Z.2 F720
G1 E.8 F2100
M204 S800
G1 F1200
G1 X126.169 Y43.038 E.023
G1 X123.848 Y43.038 E.07277
G1 X124.223 Y42.889 E.01265
G1 X124.839 Y42.788 E.01957
G1 X125.412 Y42.819 E.01799
M204 S1000
;WIPE_START
G1 F8640
G1 X124.839 Y42.788 E-.1325
G1 X124.223 Y42.889 E-.14414
G1 X123.848 Y43.038 E-.09317
G1 X125.711 Y43.038 E-.43019
;WIPE_END
G1 Z.6 F720
G1 X123.022 Y45.218 F10800
G1 Z.2 F720
G1 E.8 F2100
M204 S800
G1 F1200
G1 X122.138 Y45.218 E.02772
G1 X122.357 Y44.471 E.02441
G1 X122.678 Y43.937 E.01954
G1 X123.022 Y43.573 E.0157
G1 X123.022 Y45.161 E.04979
M204 S1000
;WIPE_START
G1 F8640
G1 X123.022 Y43.573 E-.36667
G1 X122.678 Y43.937 E-.11564
G1 X122.357 Y44.471 E-.14387
G1 X122.145 Y45.193 E-.17382
;WIPE_END
G1 Z.6 F720
G1 X122.201 Y44.024 F10800
G1 Z.2 F720
G1 E.8 F2100
M204 S800
;TYPE:Support material interface
;WIDTH:0.35
G1 F1200
G1 X122.465 Y43.633 E.01205
G1 X122.465 Y40.402 E.0825
G1 X122.972 Y40.402 E.01295
G1 X122.972 Y43.133 E.06973
G1 X123.479 Y42.794 E.01557
G1 X123.479 Y40.402 E.06108
G1 X123.986 Y40.402 E.01295
G1 X123.986 Y42.592 E.05592
G1 X124.493 Y42.476 E.01328
G1 X124.493 Y40.402 E.05296
G1 X125 Y40.402 E.01295
G1 X125 Y42.432 E.05183
G1 X125.507 Y42.46 E.01297
G1 X125.507 Y40.402 E.05255
G1 X126.014 Y40.402 E.01295
G1 X126.014 Y42.595 E.056
G1 X126.521 Y42.813 E.01409
G1 X126.521 Y40.402 E.06156
G1 X127.028 Y40.402 E.01295
G1 X127.028 Y43.142 E.06996
G1 X127.535 Y43.645 E.01824
G1 X127.535 Y40.402 E.08281
G1 X128.042 Y40.402 E.01295
G1 X128.042 Y44.508 E.10484
G1 X128.246 Y45.274 E.02024
G1 X128.55 Y45.274 E.00776
G1 X128.55 Y40.402 E.1244
G1 X129.057 Y40.402 E.01295
G1 X129.057 Y45.274 E.1244
G1 X129.564 Y45.274 E.01295
G1 X129.564 Y40.402 E.1244
M204 S1000
;WIPE_START
G1 F8640
G1 X129.564 Y43.867 E-.8
;WIPE_END
G1 Z.6 F720
G1 X134.865 Y32.844 F10800
G1 Z.2 F720
G1 E.8 F2100
M204 S800
;TYPE:Support material
;WIDTH:0.42
G1 F1200
G1 X137.172 Y32.844 E.07233
G1 X137.172 Y35.151 E.07233
G1 X139.479 Y35.151 E.07233
G1 X139.479 Y57.188 E.69095
G1 X132.98 Y57.188 E.20377
G1 X132.98 Y45.499 E.3665
G1 X132.699 Y45.218 E.01246
G1 X129.978 Y45.218 E.08532
G1 X129.978 Y40.038 E.16242
G1 X120.022 Y40.038 E.31216
G1 X120.022 Y45.218 E.16242
G1 X117.301 Y45.218 E.08532
G1 X117.02 Y45.499 E.01246
G1 X117.02 Y57.188 E.3665
G1 X110.521 Y57.188 E.20377
G1 X110.521 Y35.151 E.69095
G1 X112.828 Y35.151 E.07233
G1 X112.828 Y32.844 E.07233
G1 X115.135 Y32.844 E.07233
G1 X115.135 Y30.537 E.07233
G1 X134.865 Y30.537 E.61862
G1 X134.865 Y32.788 E.07058
M204 S1000
G1 X138.826 Y57.018 F10800
M204 S800
G1 F1200
G1 X138.826 Y35.491 E.67496
G1 X138.407 Y35.491 E.01314
G1 X138.407 Y56.848 E.66963
G1 X137.988 Y56.848 E.01314
G1 X137.988 Y35.491 E.66963
G1 X137.569 Y35.491 E.01314
G1 X137.569 Y56.848 E.66963
G1 X137.15 Y56.848 E.01314
G1 X137.15 Y35.491 E.66963
G1 X136.832 Y35.491 E.00997
G1 X136.832 Y33.184 E.07233
G1 X136.731 Y33.184 E.00317
G1 X136.731 Y56.848 E.74197
G1 X136.312 Y56.848 E.01314
G1 X136.312 Y33.184 E.74197
G1 X135.893 Y33.184 E.01314
G1 X135.893 Y56.848 E.74197
G1 X135.474 Y56.848 E.01314
G1 X135.474 Y33.184 E.74197
G1 X135.055 Y33.184 E.01314
G1 X135.055 Y56.848 E.74197
G1 X134.636 Y56.848 E.01314
G1 X134.636 Y33.184 E.74197
G1 X134.525 Y33.184 E.00348
G1 X134.525 Y30.876 E.07237
G1 X134.218 Y30.876 E.00963
M73 Q0 S159
G1 X134.217 Y56.848 E.81433
G1 X133.799 Y56.848 E.01311
G1 X133.799 Y30.876 E.81433
G1 X133.38 Y30.876 E.01314
M73 P0 R156
G1 X133.38 Y56.848 E.81433
G1 X133.319 Y56.848 E.00191
G1 X133.319 Y45.359 E.36023
G1 X132.961 Y45 E.0159
G1 X132.961 Y30.876 E.44285
G1 X132.542 Y30.876 E.01314
G1 X132.542 Y44.879 E.43905
G1 X132.123 Y44.879 E.01314
G1 X132.123 Y30.876 E.43905
G1 X131.704 Y30.876 E.01314
G1 X131.704 Y44.879 E.43905
G1 X131.285 Y44.879 E.01314
G1 X131.285 Y30.876 E.43905
G1 X130.866 Y30.876 E.01314
G1 X130.866 Y44.879 E.43905
G1 X130.447 Y44.879 E.01314
G1 X130.447 Y30.876 E.43905
G1 X130.028 Y30.876 E.01314
G1 X130.028 Y39.699 E.27664
G1 X129.609 Y39.699 E.01314
G1 X129.609 Y30.876 E.27664
G1 X129.19 Y30.876 E.01314
G1 X129.19 Y39.699 E.27664
G1 X128.771 Y39.699 E.01314
G1 X128.771 Y30.876 E.27664
G1 X128.352 Y30.876 E.01314
G1 X128.352 Y39.699 E.27664
G1 X127.933 Y39.699 E.01314
G1 X127.933 Y30.876 E.27664
G1 X127.514 Y30.876 E.01314
G1 X127.514 Y39.699 E.27664
G1 X127.095 Y39.699 E.01314
G1 X127.095 Y30.876 E.27664
G1 X126.676 Y30.876 E.01314
G1 X126.676 Y39.699 E.27664
G1 X126.257 Y39.699 E.01314
G1 X126.257 Y30.876 E.27664
G1 X125.838 Y30.876 E.01314
G1 X125.838 Y39.699 E.27664
G1 X125.419 Y39.699 E.01314
G1 X125.419 Y30.876 E.27664
G1 X125 Y30.876 E.01314
G1 X125 Y39.699 E.27664
G1 X124.581 Y39.699 E.01314
G1 X124.581 Y30.876 E.27664
G1 X124.162 Y30.876 E.01314
G1 X124.162 Y39.699 E.27664
G1 X123.743 Y39.699 E.01314
G1 X123.743 Y30.876 E.27664
G1 X123.324 Y30.876 E.01314
G1 X123.324 Y39.699 E.27664
G1 X122.905 Y39.699 E.01314
G1 X122.905 Y30.876 E.27664
G1 X122.486 Y30.876 E.01314
G1 X122.486 Y39.699 E.27664
G1 X122.067 Y39.699 E.01314
M73 P1 R156
G1 X122.067 Y30.876 E.27664
G1 X121.648 Y30.876 E.01314
M73 Q1 S159
G1 X121.648 Y39.699 E.27664
G1 X121.229 Y39.699 E.01314
G1 X121.229 Y30.876 E.27664
G1 X120.81 Y30.876 E.01314
G1 X120.81 Y39.699 E.27664
G1 X120.391 Y39.699 E.01314
G1 X120.391 Y30.876 E.27664
G1 X119.972 Y30.876 E.01314
G1 X119.972 Y39.699 E.27664
G1 X119.683 Y39.699 E.00906
G1 X119.683 Y44.879 E.16242
G1 X119.553 Y44.879 E.00408
G1 X119.553 Y30.876 E.43905
G1 X119.134 Y30.876 E.01314
G1 X119.134 Y44.879 E.43905
G1 X118.715 Y44.879 E.01314
G1 X118.715 Y30.876 E.43905
G1 X118.296 Y30.876 E.01314
G1 X118.296 Y44.879 E.43905
G1 X117.877 Y44.879 E.01314
G1 X117.877 Y30.876 E.43905
G1 X117.458 Y30.876 E.01314
G1 X117.458 Y44.879 E.43905
G1 X117.161 Y44.879 E.00931
G1 X117.039 Y45 E.00539
G1 X117.039 Y30.876 E.44285
G1 X116.62 Y30.876 E.01314
G1 X116.62 Y56.848 E.81433
G1 X116.201 Y56.848 E.01314
G1 X116.201 Y30.876 E.81433
G1 X115.783 Y30.876 E.01311
G1 X115.783 Y56.848 E.81433
G1 X115.364 Y56.848 E.01314
G1 X115.364 Y33.184 E.74197
G1 X114.945 Y33.184 E.01314
G1 X114.945 Y56.848 E.74197
G1 X114.526 Y56.848 E.01314
G1 X114.526 Y33.184 E.74197
G1 X114.107 Y33.184 E.01314
G1 X114.107 Y56.848 E.74197
G1 X113.688 Y56.848 E.01314
G1 X113.688 Y33.184 E.74197
G1 X113.269 Y33.184 E.01314
G1 X113.269 Y56.848 E.74197
G1 X112.85 Y56.848 E.01314
G1 X112.85 Y35.491 E.66963
G1 X112.431 Y35.491 E.01314
G1 X112.431 Y56.848 E.66963
G1 X112.012 Y56.848 E.01314
G1 X112.012 Y35.491 E.66963
G1 X111.593 Y35.491 E.01314
G1 X111.593 Y56.848 E.66963
G1 X111.174 Y56.848 E.01314
G1 X111.174 Y35.321 E.67496
M204 S1000
;WIPE_START
G1 F8640
G1 X111.174 Y38.786 E-.8
;WIPE_END
G1 Z.6 F720
G1 X144.388 Y140.093 F10800
G1 Z.2 F720
G1 E.8 F2100
M204 S800
;TYPE:Perimeter
;WIDTH:0.419999
G1 F1200
G1 X144.273 Y140.222 E.00542
G1 X144.213 Y140.477 E.00821
G1 X144.213 Y175.911 E1.11101
G1 X127.279 Y175.911 E.53095
G1 X127.025 Y175.971 E.00818
G1 X126.807 Y176.164 E.00913
G1 X126.713 Y176.477 E.01025
G1 X126.713 Y178.411 E.06064
G1 X123.287 Y178.411 E.10742
G1 X123.287 Y176.477 E.06064
G1 X123.193 Y176.164 E.01025
G1 X122.975 Y175.971 E.00913
G1 X122.721 Y175.911 E.00818
G1 X105.787 Y175.911 E.53095
G1 X105.787 Y140.477 E1.11101
G1 X105.727 Y140.222 E.00821
G1 X105.534 Y140.005 E.00911
G1 X105.221 Y139.911 E.01025
G1 X103.287 Y139.911 E.06064
G1 X103.287 Y136.485 E.10742
G1 X105.221 Y136.485 E.06064
G1 X105.534 Y136.391 E.01025
G1 X105.727 Y136.174 E.00911
G1 X105.787 Y135.919 E.00821
G1 X105.787 Y126.485 E.2958
G1 X117.768 Y126.483 E.37566
G1 X118.039 Y126.387 E.00901
G1 X118.222 Y126.183 E.00859
G1 X118.287 Y125.919 E.00852
G1 X118.287 Y46.485 E2.49059
G1 X124.36 Y46.474 E.19041
G1 X124.623 Y46.342 E.00923
G1 X124.805 Y46.016 E.01171
G1 X124.872 Y45.625 E.01244
G1 X124.975 Y45.546 E.00407
G1 X125.109 Y45.595 E.00447
G1 X125.18 Y45.983 E.01237
G1 X125.366 Y46.342 E.01268
G1 X125.496 Y46.429 E.0049
G1 X125.742 Y46.485 E.00791
G1 X131.713 Y46.485 E.18722
G1 X131.715 Y125.969 E2.49216
G1 X131.8 Y126.222 E.00837
M73 Q1 S158
G1 X132.003 Y126.413 E.00874
G1 X132.279 Y126.485 E.00894
G1 X144.213 Y126.485 E.37418
G1 X144.213 Y135.919 E.2958
G1 X144.233 Y136.069 E.00474
M73 P1 R155
G1 X144.38 Y136.321 E.00915
G1 X144.601 Y136.456 E.00812
G1 X144.779 Y136.485 E.00565
G1 X146.713 Y136.485 E.06064
G1 X146.713 Y138.198 E.05371
G1 X146.713 Y139.911 E.05371
G1 X144.729 Y139.913 E.06221
G1 X144.466 Y140.005 E.00874
G1 X144.428 Y140.048 E.0018
M204 S1000
G1 X144.632 Y140.376 F10800
M204 S800
;TYPE:External perimeter
G1 F1200
G1 X144.59 Y140.477 E.00343
G1 X144.59 Y176.288 E1.12283
G1 X127.279 Y176.288 E.54277
G1 X127.165 Y176.326 E.00377
G1 X127.09 Y176.477 E.00529
G1 X127.09 Y178.788 E.07246
G1 X122.91 Y178.788 E.13106
G1 X122.91 Y176.477 E.07246
G1 X122.855 Y176.344 E.00451
G1 X122.721 Y176.288 E.00455
G1 X105.41 Y176.288 E.54277
G1 X105.41 Y140.477 E1.12283
G1 X105.372 Y140.363 E.00377
G1 X105.221 Y140.288 E.00529
G1 X102.91 Y140.288 E.07246
G1 X102.91 Y136.108 E.13106
G1 X105.221 Y136.108 E.07246
G1 X105.354 Y136.053 E.00451
G1 X105.41 Y135.919 E.00455
G1 X105.41 Y126.108 E.30762
G1 X117.721 Y126.108 E.386
G1 X117.845 Y126.062 E.00415
G1 X117.91 Y125.919 E.00493
G1 X117.91 Y46.108 E2.50241
G1 X124.247 Y46.108 E.19869
G1 X124.329 Y46.089 E.00264
G1 X124.433 Y45.952 E.00539
G1 X124.517 Y45.47 E.01534
G1 X124.653 Y45.29 E.00707
G1 X124.866 Y45.177 E.00756
G1 X125.198 Y45.2 E.01043
G1 X125.389 Y45.33 E.00724
G1 X125.508 Y45.527 E.00722
G1 X125.554 Y45.941 E.01306
G1 X125.616 Y46.06 E.00421
G1 X125.742 Y46.108 E.00423
G1 X132.09 Y46.108 E.19904
G1 X132.09 Y125.919 E2.50241
G1 X132.134 Y126.041 E.00407
G1 X132.279 Y126.108 E.00501
G1 X144.59 Y126.108 E.386
G1 X144.59 Y135.919 E.30762
G1 X144.646 Y136.053 E.00455
G1 X144.779 Y136.108 E.00451
G1 X147.09 Y136.108 E.07246
G1 X147.09 Y138.198 E.06553
G1 X147.09 Y140.288 E.06553
G1 X144.779 Y140.288 E.07246
G1 X144.668 Y140.333 E.00376
M204 S1000
;WIPE_START
G1 F8640
G1 X144.632 Y140.376 E-.01295
G1 X144.59 Y140.477 E-.02526
G1 X144.59 Y143.776 E-.76179
;WIPE_END
G1 Z.6 F720
G1 X131.543 Y47.418 F10800
G1 Z.2 F720
G1 E.8 F2100
M204 S800
;TYPE:Solid infill
;WIDTH:0.420242
G1 F1200
G1 X130.95 Y46.824 E.02633
G1 X130.417 Y46.824 E.01672
G1 X131.374 Y47.781 E.04246
G1 X131.374 Y48.315 E.01675
G1 X129.883 Y46.824 E.06616
G1 X129.349 Y46.824 E.01675
G1 X131.374 Y48.849 E.08985
G1 X131.374 Y49.382 E.01672
G1 X128.816 Y46.824 E.1135
G1 X128.282 Y46.824 E.01675
G1 X131.374 Y49.916 E.13719
G1 X131.374 Y50.45 E.01675
G1 X127.748 Y46.824 E.16089
G1 X127.215 Y46.824 E.01672
G1 X131.374 Y50.983 E.18454
G1 X131.374 Y51.517 E.01675
G1 X126.681 Y46.824 E.20823
G1 X126.148 Y46.824 E.01672
G1 X131.374 Y52.05 E.23188
G1 X131.374 Y52.584 E.01675
G1 X125.592 Y46.802 E.25655
G1 X125.464 Y46.782 E.00406
G1 X125.343 Y46.733 E.0041
G1 X125.127 Y46.589 E.00814
G1 X124.994 Y46.355 E.00844
G1 X124.851 Y46.596 E.00879
G1 X131.374 Y53.118 E.2894
G1 X131.374 Y53.651 E.01672
G1 X124.499 Y46.777 E.30502
G1 X124.346 Y46.82 E.00499
G1 X124.009 Y46.821 E.01057
G1 X131.374 Y54.185 E.32676
G1 X131.374 Y54.718 E.01672
G1 X123.476 Y46.821 E.35041
G1 X122.943 Y46.821 E.01672
G1 X131.374 Y55.252 E.37408
