; generated by PrusaSlicer 2.9.2 on 2025-04-11 at 03:24:32 UTC


;
;
; 

; external perimeters extrusion width = 0.45mm
; perimeters extrusion width = 0.45mm
; infill extrusion width = 0.45mm
; solid infill extrusion width = 0.45mm
; top infill extrusion width = 0.40mm
; support material extrusion width = 0.35mm
; first layer extrusion width = 0.42mm

M73 P0 R35
M73 Q0 S36
M201 X1000 Y1000 Z200 E5000 ; sets maximum accelerations, mm/sec^2
M203 X200 Y200 Z12 E120 ; sets maximum feedrates, mm / sec
M204 S1250 T1250 ; sets acceleration (S) and retract acceleration (R), mm/sec^2
M205 X8.00 Y8.00 Z0.40 E4.50 ; sets the jerk limits, mm/sec
M205 S0 T0 ; sets the minimum extruding and travel feed rate, mm/sec

; printing object R Shoulder Arm.STL id:0 copy 0
; stop printing object R Shoulder Arm.STL id:0 copy 0

;TYPE:Custom
M862.3 P "MK3S" ; printer model check
M862.1 P0.4 ; nozzle diameter check
M115 U3.14.1 ; tell printer latest fw version
G90 ; use absolute coordinates
M83 ; extruder relative mode
M104 S215 ; set extruder temp
M140 S60 ; set bed temp
M190 S60 ; wait for bed temp
M109 S215 ; wait for extruder temp
G28 W ; home all without mesh bed level
G80 X79.6229 Y81.2228 W90.7542 H47.1542 ; mesh bed levelling

G1 Z0.2 F720
G1 Y-3 F1000 ; go outside print area
G92 E0
G1 X60 E9 F1000 ; intro line
G1 X100 E12.5 F1000 ; intro line

G92 E0
M221 S95

; Don't change E values below. Excessive value can damage the printer.

G21 ; set units to millimeters
G90 ; use absolute coordinates
M83 ; use relative distances for extrusion

M900 K0.05 ; Filament gcode LA 1.5
M900 K30 ; Filament gcode LA 1.0




M107
;LAYER_CHANGE
;Z:0.2
;HEIGHT:0.2
G1 E-.8 F2100
G1 Z.6 F720
G1 X80.202 Y82.752 F10800
G1 Z.2 F720
G1 E.8 F2100
M204 S800
;TYPE:Skirt/Brim
;WIDTH:0.42
G1 F1200
G1 X81.835 Y81.818 E.05898
G1 X87.113 Y81.418 E.16596
G1 X95.644 Y81.411 E.26748
G1 X96.539 Y81.603 E.0287
M73 Q0 S35
G1 X168.894 Y114.003 E2.48571
G1 X169.874 Y114.869 E.04101
G1 X170.189 Y116 E.03681
G1 X170.189 Y126 E.31354
G1 X169.798 Y127.248 E.04101
G1 X168.765 Y128.051 E.04102
G1 X168 Y128.189 E.02437
G1 X82 Y128.189 E2.69647
G1 X80.752 Y127.798 E.04101
G1 X79.949 Y126.765 E.04102
G1 X79.811 Y126 E.02437
G1 X79.811 Y84 E1.31688
G1 X80.184 Y82.809 E.03913
M204 S1000
;WIPE_START
G1 F8640
G1 X80.202 Y82.752 E-.0138
G1 X81.835 Y81.818 E-.43438
G1 X83.354 Y81.703 E-.35182
;WIPE_END
G1 Z.6 F720
; printing object R Shoulder Arm.STL id:0 copy 0
G1 X95.644 Y96.408 F10800
G1 Z.2 F720
G1 E.8 F2100
M204 S800
;TYPE:Support material
G1 F1200
G1 X87.48 Y96.408 E.25598
G1 X87.48 Y83.801 E.39528
G1 X87.279 Y83.6 E.00891
G1 X95.644 Y83.6 E.26228
G1 X95.644 Y96.351 E.3998
M73 P1 R35
M73 Q1 S35
M204 S1000
G1 X95.253 Y96.238 F10800
M204 S800
G1 F1200
G1 X95.253 Y83.939 E.38563
G1 X94.834 Y83.939 E.01314
G1 X94.834 Y96.069 E.38033
G1 X94.415 Y96.069 E.01314
G1 X94.415 Y83.939 E.38033
G1 X93.996 Y83.939 E.01314
G1 X93.996 Y96.069 E.38033
G1 X93.577 Y96.069 E.01314
G1 X93.577 Y83.939 E.38033
G1 X93.158 Y83.939 E.01314
G1 X93.158 Y96.069 E.38033
G1 X92.739 Y96.069 E.01314
G1 X92.739 Y83.939 E.38033
G1 X92.32 Y83.939 E.01314
G1 X92.32 Y96.069 E.38033
G1 X91.901 Y96.069 E.01314
G1 X91.901 Y83.939 E.38033
G1 X91.482 Y83.939 E.01314
G1 X91.482 Y96.069 E.38033
G1 X91.063 Y96.069 E.01314
G1 X91.063 Y83.939 E.38033
G1 X90.644 Y83.939 E.01314
G1 X90.644 Y96.069 E.38033
G1 X90.225 Y96.069 E.01314
G1 X90.225 Y83.939 E.38033
G1 X89.806 Y83.939 E.01314
G1 X89.806 Y96.069 E.38033
G1 X89.387 Y96.069 E.01314
G1 X89.387 Y83.939 E.38033
G1 X88.968 Y83.939 E.01314
G1 X88.968 Y96.069 E.38033
G1 X88.549 Y96.069 E.01314
G1 X88.549 Y83.939 E.38033
G1 X88.13 Y83.939 E.01314
G1 X88.13 Y96.238 E.38563
M204 S1000
;WIPE_START
G1 F8640
G1 X88.13 Y92.773 E-.8
;WIPE_END
G1 Z.6 F720
G1 X146.588 Y122.884 F10800
G1 Z.2 F720
G1 E.8 F2100
M204 S800
;TYPE:Perimeter
;WIDTH:0.419999
G1 F1200
G1 X146.461 Y122.957 E.00459
G1 X145.646 Y123.176 E.02646
G1 X145.354 Y123.176 E.00916
G1 X144.539 Y122.957 E.02646
G1 X144.285 Y122.811 E.00919
G1 X143.689 Y122.215 E.02643
G1 X143.543 Y121.961 E.00919
G1 X143.324 Y121.146 E.02646
G1 X143.324 Y120.854 E.00916
G1 X143.543 Y120.039 E.02646
G1 X143.689 Y119.785 E.00919
G1 X144.285 Y119.189 E.02643
G1 X144.539 Y119.043 E.00919
G1 X145.354 Y118.824 E.02646
G1 X145.646 Y118.824 E.00916
G1 X146.461 Y119.043 E.02646
G1 X146.715 Y119.189 E.00919
G1 X147.311 Y119.785 E.02643
G1 X147.457 Y120.039 E.00919
G1 X147.676 Y120.854 E.02646
G1 X147.676 Y121.146 E.00916
G1 X147.457 Y121.961 E.02646
G1 X147.311 Y122.215 E.00919
G1 X146.715 Y122.811 E.02643
G1 X146.64 Y122.854 E.00271
M204 S1000
G1 X146.397 Y122.559 F10800
M204 S800
;TYPE:External perimeter
G1 F1200
G1 X145.549 Y122.811 E.02774
G1 X144.637 Y122.593 E.0294
G1 X143.956 Y121.948 E.02941
G1 X143.689 Y121.049 E.0294
G1 X143.907 Y120.137 E.0294
G1 X144.552 Y119.456 E.02941
G1 X145.451 Y119.189 E.0294
G1 X146.363 Y119.407 E.0294
G1 X147.044 Y120.052 E.02941
G1 X147.311 Y120.951 E.0294
G1 X147.093 Y121.863 E.0294
G1 X146.453 Y122.539 E.02919
M204 S1000
;WIPE_START
G1 F8640
G1 X146.397 Y122.559 E-.01373
G1 X145.549 Y122.811 E-.20427
G1 X144.637 Y122.593 E-.21652
G1 X143.956 Y121.948 E-.21658
G1 X143.772 Y121.33 E-.1489
;WIPE_END
G1 Z.6 F720
G1 X160.5 Y118.824 F10800
G1 Z.2 F720
G1 E.8 F2100
M204 S800
;TYPE:Perimeter
G1 F1200
G1 X160.646 Y118.824 E.00458
G1 X161.461 Y119.043 E.02646
G1 X161.715 Y119.189 E.00919
G1 X162.311 Y119.785 E.02643
G1 X162.457 Y120.039 E.00919
G1 X162.676 Y120.854 E.02646
G1 X162.676 Y121.146 E.00916
G1 X162.457 Y121.961 E.02646
G1 X162.311 Y122.215 E.00919
G1 X161.715 Y122.811 E.02643
G1 X161.461 Y122.957 E.00919
G1 X160.646 Y123.176 E.02646
G1 X160.354 Y123.176 E.00916
G1 X159.539 Y122.957 E.02646
G1 X159.285 Y122.811 E.00919
G1 X158.689 Y122.215 E.02643
G1 X158.543 Y121.961 E.00919
G1 X158.324 Y121.146 E.02646
G1 X158.324 Y120.854 E.00916
G1 X158.543 Y120.039 E.02646
G1 X158.689 Y119.785 E.00919
G1 X159.285 Y119.189 E.02643
G1 X159.539 Y119.043 E.00919
G1 X160.354 Y118.824 E.02646
G1 X160.44 Y118.824 E.0027
M204 S1000
G1 X160.502 Y119.201 F10800
M204 S800
;TYPE:External perimeter
G1 F1200
G1 X161.363 Y119.407 E.02776
G1 X162.044 Y120.052 E.02941
G1 X162.311 Y120.951 E.0294
G1 X162.093 Y121.863 E.0294
G1 X161.448 Y122.544 E.02941
G1 X160.549 Y122.811 E.0294
G1 X159.637 Y122.593 E.0294
G1 X158.956 Y121.948 E.02941
G1 X158.689 Y121.049 E.0294
G1 X158.689 Y120.951 E.00307
G1 X158.907 Y120.137 E.02642
G1 X159.552 Y119.456 E.02941
G1 X160.444 Y119.191 E.02918
M204 S1000
;WIPE_START
G1 F8640
G1 X160.502 Y119.201 E-.01359
G1 X161.363 Y119.407 E-.20442
G1 X162.044 Y120.052 E-.21658
G1 X162.311 Y120.951 E-.21654
G1 X162.161 Y121.578 E-.14887
;WIPE_END
G1 Z.6 F720
G1 X86.397 Y116.616 F10800
G1 Z.2 F720
G1 E.8 F2100
M204 S800
;TYPE:Perimeter
G1 F1200
G1 X86.561 Y116.744 E.00652
G1 X86.779 Y116.787 E.00697
G1 X167.213 Y116.787 E2.52195
G1 X167.213 Y119.233 E.07669
M73 P1 R34
M73 Q2 S35
G1 X167.213 Y125.213 E.1875
G1 X82.787 Y125.213 E2.64711
M73 P2 R34
G1 X82.787 Y84.787 E1.26753
G1 X86.213 Y84.787 E.10742
G1 X86.213 Y116.221 E.98559
G1 X86.221 Y116.319 E.00308
G1 X86.326 Y116.561 E.00827
G1 X86.35 Y116.579 E.00094
M204 S1000
G1 X86.676 Y116.359 F10800
M204 S800
;TYPE:External perimeter
G1 F1200
G1 X86.779 Y116.41 E.0036
G1 X167.59 Y116.41 E2.53377
G1 X167.59 Y119.233 E.08851
G1 X167.59 Y125.59 E.19932
G1 X82.41 Y125.59 E2.67075
G1 X82.41 Y84.41 E1.29117
G1 X86.59 Y84.41 E.13106
G1 X86.59 Y116.221 E.99741
G1 X86.626 Y116.329 E.00357
M204 S1000
;WIPE_START
G1 F8640
G1 X86.676 Y116.359 E-.01346
G1 X86.779 Y116.41 E-.02654
G1 X90.07 Y116.41 E-.76
;WIPE_END
G1 Z.6 F720
G1 X167.043 Y117.724 F10800
G1 Z.2 F720
M73 P3 R34
M73 Q3 S35
G1 E.8 F2100
M204 S800
;TYPE:Solid infill
;WIDTH:0.42216
G1 F1200
G1 X166.446 Y117.126 E.02665
G1 X165.91 Y117.126 E.0169
G1 X166.874 Y118.09 E.04299
G1 X166.874 Y118.627 E.01693
G1 X165.373 Y117.126 E.06694
G1 X164.837 Y117.126 E.0169
G1 X166.874 Y119.163 E.09084
G1 X166.874 Y119.699 E.0169
G1 X164.301 Y117.126 E.11474
G1 X163.764 Y117.126 E.01693
G1 X166.874 Y120.236 E.13869
G1 X166.874 Y120.772 E.0169
G1 X163.228 Y117.126 E.1626
G1 X162.692 Y117.126 E.0169
G1 X166.874 Y121.308 E.1865
G1 X166.874 Y121.845 E.01693
G1 X162.155 Y117.126 E.21045
G1 X161.619 Y117.126 E.0169
G1 X166.874 Y122.381 E.23435
G1 X166.874 Y122.917 E.0169
M73 Q3 S34
G1 X161.083 Y117.126 E.25825
G1 X160.546 Y117.126 E.01693
G1 X166.874 Y123.454 E.2822
G1 X166.874 Y123.99 E.0169
G1 X160.01 Y117.126 E.30611
G1 X159.474 Y117.126 E.0169
G1 X160.884 Y118.537 E.0629
G1 X160.503 Y118.465 E.01223
G1 X160.301 Y118.49 E.00642
G1 X158.938 Y117.126 E.06081
G1 X158.401 Y117.126 E.01693
G1 X159.877 Y118.602 E.06582
G1 X159.453 Y118.714 E.01383
G1 X157.865 Y117.126 E.07082
G1 X157.329 Y117.126 E.0169
G1 X159.109 Y118.907 E.0794
G1 X159.059 Y118.935 E.00181
G1 X158.83 Y119.164 E.01021
G1 X156.792 Y117.126 E.09089
G1 X156.256 Y117.126 E.0169
G1 X158.562 Y119.433 E.10286
G1 X158.442 Y119.553 E.00535
G1 X158.315 Y119.722 E.00667
G1 X155.72 Y117.126 E.11575
G1 X155.183 Y117.126 E.01693
G1 X158.171 Y120.114 E.13325
G1 X158.058 Y120.537 E.01381
G1 X154.647 Y117.126 E.15212
G1 X154.111 Y117.126 E.0169
G1 X158.159 Y121.174 E.18052
M204 S1000
;WIPE_START
G1 F8640
G1 X155.709 Y118.724 E-.8
;WIPE_END
G1 Z.6 F720
G1 X162.723 Y120.376 F10800
G1 Z.2 F720
G1 E.8 F2100
M204 S800
G1 F1200
G1 X166.874 Y124.526 E.18509
G1 X166.874 Y124.874 E.01097
G1 X166.685 Y124.874 E.00596
G1 X163.009 Y121.198 E.16393
G1 X162.899 Y121.624 E.01387
G1 X166.148 Y124.874 E.14491
G1 X165.612 Y124.874 E.0169
G1 X162.786 Y122.047 E.12605
G1 X162.69 Y122.279 E.00792
G1 X162.598 Y122.396 E.00469
G1 X165.076 Y124.874 E.11051
G1 X164.539 Y124.874 E.01693
G1 X162.336 Y122.67 E.09827
G1 X162.067 Y122.938 E.01197
G1 X164.003 Y124.874 E.08634
G1 X163.467 Y124.874 E.0169
G1 X161.761 Y123.168 E.07608
G1 X161.568 Y123.28 E.00704
G1 X161.386 Y123.329 E.00594
G1 X162.93 Y124.874 E.06888
G1 X162.394 Y124.874 E.0169
G1 X160.963 Y123.442 E.06384
G1 X160.725 Y123.506 E.00777
G1 X160.517 Y123.533 E.00661
G1 X161.858 Y124.874 E.0598
G1 X161.321 Y124.874 E.01693
G1 X159.836 Y123.388 E.06625
G1 X159.432 Y123.28 E.01319
G1 X159.059 Y123.065 E.01358
G1 X158.442 Y122.447 E.02754
G1 X158.296 Y122.253 E.00766
G1 X158.217 Y122.058 E.00663
G1 X158.112 Y121.664 E.01286
G1 X153.574 Y117.126 E.20238
G1 X153.038 Y117.126 E.0169
G1 X160.785 Y124.874 E.34551
G1 X160.249 Y124.874 E.0169
G1 X152.502 Y117.126 E.34551
G1 X151.965 Y117.126 E.01693
G1 X159.712 Y124.874 E.34551
G1 X159.176 Y124.874 E.0169
G1 X151.429 Y117.126 E.34551
G1 X150.893 Y117.126 E.0169
G1 X158.64 Y124.874 E.34551
G1 X158.103 Y124.874 E.01693
G1 X150.356 Y117.126 E.34551
G1 X149.82 Y117.126 E.0169
G1 X157.567 Y124.874 E.34551
G1 X157.031 Y124.874 E.0169
G1 X149.284 Y117.126 E.34551
G1 X148.747 Y117.126 E.01693
G1 X156.494 Y124.874 E.34551
G1 X155.958 Y124.874 E.0169
G1 X148.211 Y117.126 E.34551
G1 X147.675 Y117.126 E.0169
G1 X155.422 Y124.874 E.34551
G1 X154.885 Y124.874 E.01693
G1 X147.138 Y117.126 E.34551
G1 X146.602 Y117.126 E.0169
G1 X154.349 Y124.874 E.34551
G1 X153.813 Y124.874 E.0169
G1 X146.066 Y117.126 E.34551
G1 X145.529 Y117.126 E.01693
G1 X153.276 Y124.874 E.34551
G1 X152.74 Y124.874 E.0169
G1 X144.993 Y117.126 E.34551
G1 X144.457 Y117.126 E.0169
G1 X145.861 Y118.53 E.06261
G1 X145.503 Y118.465 E.01147
G1 X145.288 Y118.494 E.00684
G1 X143.92 Y117.126 E.06101
G1 X143.384 Y117.126 E.0169
G1 X144.863 Y118.606 E.06598
G1 X144.439 Y118.718 E.01383
G1 X142.848 Y117.126 E.07097
G1 X142.311 Y117.126 E.01693
G1 X144.098 Y118.913 E.07969
G1 X143.822 Y119.173 E.01196
G1 X141.775 Y117.126 E.09129
G1 X141.239 Y117.126 E.0169
G1 X143.553 Y119.441 E.10322
G1 X143.442 Y119.553 E.00497
G1 X143.307 Y119.731 E.00704
G1 X140.702 Y117.126 E.11617
G1 X140.166 Y117.126 E.0169
G1 X143.168 Y120.128 E.13388
G1 X143.054 Y120.551 E.01381
G1 X139.63 Y117.126 E.15272
G1 X139.093 Y117.126 E.01693
G1 X143.162 Y121.195 E.18146
M204 S1000
;WIPE_START
G1 F8640
M73 P4 R34
G1 X140.712 Y118.745 E-.8
;WIPE_END
G1 Z.6 F720
M73 Q4 S34
G1 X147.73 Y120.399 F10800
G1 Z.2 F720
G1 E.8 F2100
M204 S800
G1 F1200
G1 X152.204 Y124.874 E.19954
G1 X151.667 Y124.874 E.01693
G1 X148.007 Y121.214 E.16322
G1 X147.895 Y121.638 E.01383
G1 X151.131 Y124.874 E.14431
G1 X150.595 Y124.874 E.0169
G1 X147.782 Y122.06 E.12547
G1 X147.704 Y122.253 E.00656
G1 X147.59 Y122.405 E.00599
G1 X150.058 Y124.874 E.11008
G1 X149.522 Y124.874 E.0169
G1 X147.327 Y122.678 E.09791
G1 X147.059 Y122.947 E.01197
G1 X148.986 Y124.874 E.08594
G1 X148.45 Y124.874 E.0169
G1 X146.751 Y123.175 E.07577
G1 X146.568 Y123.28 E.00665
G1 X146.372 Y123.333 E.0064
G1 X147.913 Y124.874 E.06872
G1 X147.377 Y124.874 E.0169
G1 X145.949 Y123.446 E.06368
G1 X145.725 Y123.506 E.00731
G1 X145.502 Y123.535 E.00709
G1 X146.841 Y124.874 E.05971
G1 X146.304 Y124.874 E.01693
G1 X144.813 Y123.382 E.06651
G1 X144.432 Y123.28 E.01244
G1 X144.059 Y123.065 E.01358
G1 X143.442 Y122.447 E.02754
G1 X143.296 Y122.253 E.00766
G1 X143.217 Y122.058 E.00663
G1 X143.118 Y121.687 E.01211
G1 X138.557 Y117.126 E.2034
G1 X138.021 Y117.126 E.0169
G1 X145.768 Y124.874 E.34551
G1 X145.232 Y124.874 E.0169
G1 X137.484 Y117.126 E.34553
G1 X136.948 Y117.126 E.0169
G1 X144.695 Y124.874 E.34551
G1 X144.159 Y124.874 E.0169
G1 X136.412 Y117.126 E.34551
G1 X135.875 Y117.126 E.01693
G1 X143.623 Y124.874 E.34553
G1 X143.086 Y124.874 E.01693
G1 X135.339 Y117.126 E.34551
G1 X134.803 Y117.126 E.0169
G1 X142.55 Y124.874 E.34551
G1 X142.014 Y124.874 E.0169
G1 X134.266 Y117.126 E.34553
G1 X133.73 Y117.126 E.0169
G1 X141.477 Y124.874 E.34551
G1 X140.941 Y124.874 E.0169
G1 X133.194 Y117.126 E.34551
G1 X132.658 Y117.126 E.0169
G1 X140.405 Y124.874 E.34551
G1 X139.868 Y124.874 E.01693
G1 X132.121 Y117.126 E.34551
G1 X131.585 Y117.126 E.0169
G1 X139.332 Y124.874 E.34551
G1 X138.796 Y124.874 E.0169
G1 X131.049 Y117.126 E.34551
G1 X130.512 Y117.126 E.01693
G1 X138.259 Y124.874 E.34551
G1 X137.723 Y124.874 E.0169
G1 X129.976 Y117.126 E.34551
G1 X129.44 Y117.126 E.0169
G1 X137.187 Y124.874 E.34551
G1 X136.65 Y124.874 E.01693
G1 X128.903 Y117.126 E.34551
G1 X128.367 Y117.126 E.0169
G1 X136.114 Y124.874 E.34551
G1 X135.578 Y124.874 E.0169
G1 X127.831 Y117.126 E.34551
G1 X127.294 Y117.126 E.01693
G1 X135.041 Y124.874 E.34551
G1 X134.505 Y124.874 E.0169
M73 P4 R33
G1 X126.758 Y117.126 E.34551
G1 X126.222 Y117.126 E.0169
G1 X133.969 Y124.874 E.34551
G1 X133.432 Y124.874 E.01693
G1 X125.685 Y117.126 E.34551
G1 X125.149 Y117.126 E.0169
G1 X132.896 Y124.874 E.34551
G1 X132.36 Y124.874 E.0169
G1 X124.613 Y117.126 E.34551
G1 X124.076 Y117.126 E.01693
G1 X131.823 Y124.874 E.34551
G1 X131.287 Y124.874 E.0169
G1 X123.54 Y117.126 E.34551
G1 X123.004 Y117.126 E.0169
G1 X130.751 Y124.874 E.34551
G1 X130.214 Y124.874 E.01693
G1 X122.467 Y117.126 E.34551
G1 X121.931 Y117.126 E.0169
G1 X129.678 Y124.874 E.34551
G1 X129.142 Y124.874 E.0169
M73 P5 R33
G1 X121.395 Y117.126 E.34551
G1 X120.858 Y117.126 E.01693
M73 Q5 S34
G1 X128.605 Y124.874 E.34551
G1 X128.069 Y124.874 E.0169
G1 X120.322 Y117.126 E.34551
G1 X119.786 Y117.126 E.0169
G1 X127.533 Y124.874 E.34551
G1 X126.996 Y124.874 E.01693
G1 X119.249 Y117.126 E.34551
G1 X118.713 Y117.126 E.0169
G1 X126.46 Y124.874 E.34551
G1 X125.924 Y124.874 E.0169
G1 X118.177 Y117.126 E.34551
G1 X117.64 Y117.126 E.01693
G1 X125.387 Y124.874 E.34551
G1 X124.851 Y124.874 E.0169
G1 X117.104 Y117.126 E.34551
G1 X116.568 Y117.126 E.0169
G1 X124.315 Y124.874 E.34551
G1 X123.778 Y124.874 E.01693
G1 X116.031 Y117.126 E.34551
G1 X115.495 Y117.126 E.0169
G1 X123.242 Y124.874 E.34551
G1 X122.706 Y124.874 E.0169
G1 X114.959 Y117.126 E.34551
G1 X114.422 Y117.126 E.01693
G1 X122.17 Y124.874 E.34553
G1 X121.633 Y124.874 E.01693
G1 X113.886 Y117.126 E.34551
G1 X113.35 Y117.126 E.0169
G1 X121.097 Y124.874 E.34551
G1 X120.561 Y124.874 E.0169
G1 X112.813 Y117.126 E.34553
G1 X112.277 Y117.126 E.0169
G1 X120.024 Y124.874 E.34551
G1 X119.488 Y124.874 E.0169
G1 X111.741 Y117.126 E.34551
G1 X111.204 Y117.126 E.01693
G1 X118.952 Y124.874 E.34553
G1 X118.415 Y124.874 E.01693
