; generated by PrusaSlicer 2.9.2 on 2025-04-12 at 04:54:14 UTC


;
;
; 

; external perimeters extrusion width = 0.45mm
; perimeters extrusion width = 0.45mm
; infill extrusion width = 0.45mm
; solid infill extrusion width = 0.45mm
; top infill extrusion width = 0.40mm
; support material extrusion width = 0.35mm
; first layer extrusion width = 0.42mm

M73 P0 R35
M73 Q0 S36
M201 X1000 Y1000 Z200 E5000 ; sets maximum accelerations, mm/sec^2
M203 X200 Y200 Z12 E120 ; sets maximum feedrates, mm / sec
M204 S1250 T1250 ; sets acceleration (S) and retract acceleration (R), mm/sec^2
M205 X8.00 Y8.00 Z0.40 E4.50 ; sets the jerk limits, mm/sec
M205 S0 T0 ; sets the minimum extruding and travel feed rate, mm/sec

; printing object R Shoulder Arm.STL id:0 copy 0
; stop printing object R Shoulder Arm.STL id:0 copy 0

;TYPE:Custom
M862.3 P "MK3S" ; printer model check
M862.1 P0.4 ; nozzle diameter check
M115 U3.14.1 ; tell printer latest fw version
G90 ; use absolute coordinates
M83 ; extruder relative mode
M104 S215 ; set extruder temp
M140 S60 ; set bed temp
M190 S60 ; wait for bed temp
M109 S215 ; wait for extruder temp
G28 W ; home all without mesh bed level
G80 X80.1229 Y81.2228 W89.7542 H47.1542 ; mesh bed levelling

G1 Z0.2 F720
G1 Y-3 F1000 ; go outside print area
G92 E0
G1 X60 E9 F1000 ; intro line
G1 X100 E12.5 F1000 ; intro line

G92 E0
M221 S95

; Don't change E values below. Excessive value can damage the printer.

G21 ; set units to millimeters
G90 ; use absolute coordinates
M83 ; use relative distances for extrusion

M900 K0.05 ; Filament gcode LA 1.5
M900 K30 ; Filament gcode LA 1.0




M107
;LAYER_CHANGE
;Z:0.2
;HEIGHT:0.2
G1 E-.8 F2100
M73 Q0 S35
G1 Z.6 F720
G1 X80.702 Y82.752 F10800
G1 Z.2 F720
G1 E.8 F2100
M204 S800
;TYPE:Skirt/Brim
;WIDTH:0.42
G1 F1200
G1 X82.335 Y81.818 E.05898
G1 X87.613 Y81.418 E.16596
G1 X95.644 Y81.411 E.25181
G1 X96.544 Y81.605 E.02887
G1 X168.4 Y114.005 E2.47144
G1 X169.377 Y114.874 E.041
G1 X169.689 Y116 E.03664
G1 X169.689 Y126 E.31354
G1 X169.298 Y127.248 E.04101
G1 X168.265 Y128.051 E.04102
G1 X167.5 Y128.189 E.02437
G1 X82.5 Y128.189 E2.66512
G1 X81.252 Y127.798 E.04101
G1 X80.449 Y126.765 E.04102
G1 X80.311 Y126 E.02437
G1 X80.311 Y84 E1.31688
G1 X80.684 Y82.809 E.03913
M204 S1000
;WIPE_START
G1 F8640
G1 X80.702 Y82.752 E-.0138
G1 X82.335 Y81.818 E-.43438
G1 X83.854 Y81.703 E-.35182
;WIPE_END
G1 Z.6 F720
; printing object R Shoulder Arm.STL id:0 copy 0
G1 X95.644 Y96.408 F10800
G1 Z.2 F720
G1 E.8 F2100
M204 S800
;TYPE:Support material
G1 F1200
G1 X87.98 Y96.408 E.2403
G1 X87.98 Y83.801 E.39528
G1 X87.779 Y83.6 E.00891
G1 X95.644 Y83.6 E.2466
G1 X95.644 Y96.351 E.3998
M204 S1000
G1 X95.253 Y96.238 F10800
M73 P1 R35
M73 Q1 S35
M204 S800
G1 F1200
G1 X95.253 Y83.939 E.38563
G1 X94.834 Y83.939 E.01314
G1 X94.834 Y96.069 E.38033
G1 X94.415 Y96.069 E.01314
G1 X94.415 Y83.939 E.38033
G1 X93.996 Y83.939 E.01314
G1 X93.996 Y96.069 E.38033
G1 X93.577 Y96.069 E.01314
G1 X93.577 Y83.939 E.38033
G1 X93.158 Y83.939 E.01314
G1 X93.158 Y96.069 E.38033
G1 X92.739 Y96.069 E.01314
G1 X92.739 Y83.939 E.38033
G1 X92.32 Y83.939 E.01314
G1 X92.32 Y96.069 E.38033
G1 X91.901 Y96.069 E.01314
G1 X91.901 Y83.939 E.38033
G1 X91.482 Y83.939 E.01314
G1 X91.482 Y96.069 E.38033
G1 X91.063 Y96.069 E.01314
G1 X91.063 Y83.939 E.38033
G1 X90.644 Y83.939 E.01314
G1 X90.644 Y96.069 E.38033
G1 X90.225 Y96.069 E.01314
G1 X90.225 Y83.939 E.38033
G1 X89.806 Y83.939 E.01314
G1 X89.806 Y96.069 E.38033
G1 X89.387 Y96.069 E.01314
G1 X89.387 Y83.939 E.38033
G1 X88.968 Y83.939 E.01314
G1 X88.968 Y96.069 E.38033
G1 X88.549 Y96.069 E.01314
G1 X88.549 Y83.77 E.38563
M204 S1000
;WIPE_START
G1 F8640
G1 X88.549 Y87.235 E-.8
;WIPE_END
G1 Z.6 F720
G1 X143.116 Y119.912 F10800
G1 Z.2 F720
G1 E.8 F2100
M204 S800
;TYPE:Perimeter
;WIDTH:0.419999
G1 F1200
G1 X143.189 Y119.785 E.00459
G1 X143.785 Y119.189 E.02643
G1 X144.039 Y119.043 E.00919
G1 X144.854 Y118.824 E.02646
G1 X145.146 Y118.824 E.00916
G1 X145.961 Y119.043 E.02646
G1 X146.215 Y119.189 E.00919
G1 X146.811 Y119.785 E.02643
G1 X146.957 Y120.039 E.00919
G1 X147.176 Y120.854 E.02646
G1 X147.176 Y121.146 E.00916
G1 X146.957 Y121.961 E.02646
G1 X146.811 Y122.215 E.00919
G1 X146.215 Y122.811 E.02643
G1 X145.961 Y122.957 E.00919
G1 X145.146 Y123.176 E.02646
G1 X144.854 Y123.176 E.00916
G1 X144.039 Y122.957 E.02646
G1 X143.785 Y122.811 E.00919
G1 X143.189 Y122.215 E.02643
G1 X143.043 Y121.961 E.00919
G1 X142.824 Y121.146 E.02646
G1 X142.824 Y120.854 E.00916
G1 X143.043 Y120.039 E.02646
G1 X143.086 Y119.964 E.00271
M204 S1000
G1 X143.443 Y120.098 F10800
M204 S800
;TYPE:External perimeter
G1 F1200
G1 X144.052 Y119.456 E.02775
G1 X144.951 Y119.189 E.0294
G1 X145.863 Y119.407 E.0294
G1 X146.544 Y120.052 E.02941
G1 X146.811 Y120.951 E.0294
G1 X146.593 Y121.863 E.0294
G1 X145.948 Y122.544 E.02941
G1 X145.049 Y122.811 E.0294
G1 X144.137 Y122.593 E.0294
G1 X143.456 Y121.948 E.02941
G1 X143.189 Y121.049 E.0294
G1 X143.405 Y120.144 E.02917
M204 S1000
;WIPE_START
G1 F8640
G1 X143.443 Y120.098 E-.01378
G1 X144.052 Y119.456 E-.20433
G1 X144.951 Y119.189 E-.21654
G1 X145.863 Y119.407 E-.21652
G1 X146.331 Y119.85 E-.14883
;WIPE_END
G1 Z.6 F720
G1 X162.176 Y121 F10800
G1 Z.2 F720
G1 E.8 F2100
M204 S800
;TYPE:Perimeter
G1 F1200
G1 X162.176 Y121.146 E.00458
G1 X161.957 Y121.961 E.02646
G1 X161.811 Y122.215 E.00919
G1 X161.215 Y122.811 E.02643
G1 X160.961 Y122.957 E.00919
G1 X160.146 Y123.176 E.02646
G1 X159.854 Y123.176 E.00916
G1 X159.039 Y122.957 E.02646
G1 X158.785 Y122.811 E.00919
G1 X158.189 Y122.215 E.02643
G1 X158.043 Y121.961 E.00919
G1 X157.824 Y121.146 E.02646
G1 X157.824 Y120.854 E.00916
G1 X158.043 Y120.039 E.02646
G1 X158.189 Y119.785 E.00919
G1 X158.785 Y119.189 E.02643
G1 X159.039 Y119.043 E.00919
G1 X159.854 Y118.824 E.02646
G1 X160.146 Y118.824 E.00916
G1 X160.961 Y119.043 E.02646
G1 X161.215 Y119.189 E.00919
G1 X161.811 Y119.785 E.02643
G1 X161.957 Y120.039 E.00919
G1 X162.176 Y120.854 E.02646
G1 X162.176 Y120.94 E.0027
M204 S1000
G1 X161.799 Y121.002 F10800
M204 S800
;TYPE:External perimeter
G1 F1200
G1 X161.593 Y121.863 E.02776
G1 X160.948 Y122.544 E.02941
G1 X160.049 Y122.811 E.0294
G1 X159.137 Y122.593 E.0294
G1 X158.456 Y121.948 E.02941
G1 X158.189 Y121.049 E.0294
G1 X158.407 Y120.137 E.0294
G1 X159.052 Y119.456 E.02941
G1 X159.951 Y119.189 E.0294
G1 X160.863 Y119.407 E.0294
G1 X161.544 Y120.052 E.02941
G1 X161.809 Y120.944 E.02918
M204 S1000
;WIPE_START
G1 F8640
G1 X161.799 Y121.002 E-.01359
G1 X161.593 Y121.863 E-.20442
G1 X160.948 Y122.544 E-.21658
G1 X160.049 Y122.811 E-.21654
G1 X159.422 Y122.661 E-.14887
;WIPE_END
G1 Z.6 F720
G1 X86.897 Y116.616 F10800
G1 Z.2 F720
G1 E.8 F2100
M204 S800
;TYPE:Perimeter
G1 F1200
G1 X87.061 Y116.744 E.00652
G1 X87.279 Y116.787 E.00697
G1 X166.713 Y116.787 E2.49059
G1 X166.713 Y119.233 E.07669
M73 P1 R34
G1 X166.713 Y125.213 E.1875
G1 X83.287 Y125.213 E2.61576
G1 X83.287 Y84.787 E1.26753
M73 P2 R34
M73 Q2 S35
G1 X86.713 Y84.787 E.10742
G1 X86.713 Y116.221 E.98559
G1 X86.721 Y116.319 E.00308
G1 X86.826 Y116.561 E.00827
G1 X86.85 Y116.579 E.00094
M204 S1000
G1 X87.176 Y116.359 F10800
M204 S800
;TYPE:External perimeter
G1 F1200
G1 X87.279 Y116.41 E.0036
G1 X167.09 Y116.41 E2.50241
G1 X167.09 Y119.233 E.08851
G1 X167.09 Y125.59 E.19932
G1 X82.91 Y125.59 E2.6394
G1 X82.91 Y84.41 E1.29117
G1 X87.09 Y84.41 E.13106
G1 X87.09 Y116.221 E.99741
G1 X87.126 Y116.329 E.00357
M204 S1000
;WIPE_START
G1 F8640
G1 X87.176 Y116.359 E-.01346
G1 X87.279 Y116.41 E-.02654
G1 X90.57 Y116.41 E-.76
;WIPE_END
G1 Z.6 F720
G1 X165.78 Y116.957 F10800
G1 Z.2 F720
M73 Q2 S34
G1 E.8 F2100
M204 S800
;TYPE:Solid infill
;WIDTH:0.420243
G1 F1200
G1 X166.374 Y117.55 E.02633
G1 X166.374 Y118.083 E.01672
G1 X165.417 Y117.126 E.04246
G1 X164.883 Y117.126 E.01675
G1 X166.374 Y118.617 E.06616
G1 X166.374 Y119.151 E.01675
M73 Q3 S34
G1 X164.349 Y117.126 E.08985
G1 X163.816 Y117.126 E.01672
M73 P3 R34
G1 X166.374 Y119.684 E.1135
G1 X166.374 Y120.218 E.01675
G1 X163.282 Y117.126 E.13719
G1 X162.748 Y117.126 E.01675
G1 X166.374 Y120.752 E.16089
G1 X166.374 Y121.285 E.01672
G1 X162.215 Y117.126 E.18454
G1 X161.681 Y117.126 E.01675
G1 X166.374 Y121.819 E.20823
G1 X166.374 Y122.352 E.01672
G1 X161.148 Y117.126 E.23188
G1 X160.614 Y117.126 E.01675
G1 X166.374 Y122.886 E.25557
G1 X166.374 Y123.42 E.01675
G1 X160.08 Y117.126 E.27927
G1 X159.547 Y117.126 E.01672
G1 X166.374 Y123.953 E.30292
G1 X166.374 Y124.487 E.01675
G1 X162.449 Y120.562 E.17415
G1 X162.506 Y120.775 E.00692
G1 X162.536 Y121 E.00712
G1 X162.514 Y121.161 E.0051
G1 X166.227 Y124.874 E.16475
G1 X165.693 Y124.874 E.01675
G1 X162.408 Y121.588 E.14578
G1 X162.295 Y122.009 E.01368
G1 X165.159 Y124.874 E.1271
G1 X164.626 Y124.874 E.01672
G1 X162.12 Y122.368 E.11119
G1 X161.862 Y122.643 E.01183
G1 X164.092 Y124.874 E.09897
G1 X163.559 Y124.874 E.01672
G1 X161.595 Y122.91 E.08714
G1 X161.441 Y123.065 E.00686
G1 X161.298 Y123.147 E.00517
G1 X163.025 Y124.874 E.07663
G1 X162.491 Y124.874 E.01675
G1 X160.934 Y123.316 E.06911
G1 X160.513 Y123.429 E.01368
G1 X161.958 Y124.874 E.06412
G1 X161.424 Y124.874 E.01675
G1 X159.902 Y123.352 E.06753
M204 S1000
;WIPE_START
G1 F8640
G1 X161.424 Y124.874 E-.497
G1 X161.958 Y124.874 E-.1233
G1 X161.408 Y124.324 E-.1797
;WIPE_END
G1 Z.6 F720
G1 X160.678 Y118.791 F10800
G1 Z.2 F720
G1 E.8 F2100
M204 S800
G1 F1200
G1 X159.013 Y117.126 E.07388
G1 X158.48 Y117.126 E.01672
G1 X159.834 Y118.481 E.0601
G1 X159.412 Y118.593 E.0137
G1 X157.946 Y117.126 E.06507
G1 X157.412 Y117.126 E.01675
G1 X158.99 Y118.704 E.07002
G1 X158.932 Y118.72 E.00189
G1 X158.64 Y118.888 E.01057
G1 X156.879 Y117.126 E.07816
G1 X156.345 Y117.126 E.01675
G1 X158.357 Y119.138 E.08927
G1 X158.09 Y119.405 E.01185
G1 X155.811 Y117.126 E.10112
G1 X155.278 Y117.126 E.01672
G1 X157.84 Y119.688 E.11368
G1 X157.796 Y119.747 E.00231
G1 X157.684 Y120.066 E.01061
G1 X154.744 Y117.126 E.13045
G1 X154.211 Y117.126 E.01672
G1 X157.571 Y120.487 E.14911
G1 X157.494 Y120.775 E.00935
G1 X157.474 Y120.924 E.00472
G1 X153.677 Y117.126 E.1685
G1 X153.143 Y117.126 E.01675
G1 X157.586 Y121.569 E.19714
G1 X157.717 Y122.058 E.01588
G1 X157.796 Y122.253 E.0066
G1 X157.942 Y122.447 E.00762
G1 X158.559 Y123.065 E.0274
G1 X158.932 Y123.28 E.01351
G1 X159.431 Y123.414 E.01621
G1 X160.89 Y124.874 E.06476
G1 X160.357 Y124.874 E.01672
G1 X152.61 Y117.126 E.34376
G1 X152.076 Y117.126 E.01675
G1 X159.823 Y124.874 E.34376
G1 X159.29 Y124.874 E.01672
G1 X151.543 Y117.126 E.34376
G1 X151.009 Y117.126 E.01675
G1 X158.756 Y124.874 E.34376
G1 X158.222 Y124.874 E.01675
G1 X150.475 Y117.126 E.34376
G1 X149.942 Y117.126 E.01672
G1 X157.689 Y124.874 E.34376
G1 X157.155 Y124.874 E.01675
G1 X149.408 Y117.126 E.34376
G1 X148.874 Y117.126 E.01675
G1 X156.622 Y124.874 E.34378
G1 X156.088 Y124.874 E.01675
G1 X148.341 Y117.126 E.34376
G1 X147.807 Y117.126 E.01675
G1 X155.554 Y124.874 E.34376
G1 X155.021 Y124.874 E.01672
G1 X147.274 Y117.126 E.34376
G1 X146.74 Y117.126 E.01675
G1 X154.487 Y124.874 E.34376
G1 X153.953 Y124.874 E.01675
G1 X146.206 Y117.126 E.34376
G1 X145.673 Y117.126 E.01672
G1 X153.42 Y124.874 E.34376
G1 X152.886 Y124.874 E.01675
G1 X145.139 Y117.126 E.34376
G1 X144.606 Y117.126 E.01672
G1 X152.353 Y124.874 E.34376
G1 X151.819 Y124.874 E.01675
G1 X147.427 Y120.482 E.19487
G1 X147.506 Y120.775 E.00952
G1 X147.536 Y121 E.00712
G1 X147.521 Y121.109 E.00345
G1 X151.285 Y124.874 E.16703
G1 X150.752 Y124.874 E.01672
G1 X147.421 Y121.543 E.1478
G1 X147.308 Y121.963 E.01365
G1 X150.218 Y124.874 E.12914
G1 X149.685 Y124.874 E.01672
G1 X147.144 Y122.333 E.11274
G1 X147.058 Y122.447 E.00448
G1 X146.891 Y122.614 E.00741
G1 X149.151 Y124.874 E.10028
G1 X148.617 Y124.874 E.01675
G1 X146.625 Y122.881 E.08841
G1 X146.441 Y123.065 E.00816
G1 X146.336 Y123.126 E.00381
G1 X148.084 Y124.874 E.07756
G1 X147.55 Y124.874 E.01675
G1 X145.98 Y123.304 E.06966
G1 X145.559 Y123.416 E.01367
G1 X147.016 Y124.874 E.06467
G1 X146.483 Y124.874 E.01672
G1 X145.128 Y123.519 E.06012
G1 X145 Y123.536 E.00405
G1 X144.775 Y123.506 E.00712
G1 X144.511 Y123.435 E.00858
G1 X146.119 Y125.043 E.07135
M204 S1000
;WIPE_START
G1 F8640
G1 X144.511 Y123.435 E-.52509
G1 X144.775 Y123.506 E-.06312
G1 X145 Y123.536 E-.05241
G1 X145.128 Y123.519 E-.02982
G1 X145.525 Y123.916 E-.12956
;WIPE_END
G1 Z.6 F720
G1 X145.758 Y118.813 F10800
G1 Z.2 F720
G1 E.8 F2100
M204 S800
G1 F1200
G1 X144.072 Y117.126 E.07483
G1 X143.538 Y117.126 E.01675
M73 P4 R34
G1 X144.887 Y118.475 E.05986
G1 X144.459 Y118.581 E.01383
M73 Q4 S34
G1 X143.005 Y117.126 E.06454
G1 X142.471 Y117.126 E.01675
G1 X144.037 Y118.692 E.06948
G1 X143.932 Y118.72 E.00341
G1 X143.678 Y118.867 E.00921
G1 X141.937 Y117.126 E.07725
G1 X141.404 Y117.126 E.01672
G1 X143.386 Y119.109 E.08796
G1 X143.119 Y119.375 E.01182
G1 X140.87 Y117.126 E.09979
G1 X140.337 Y117.126 E.01672
G1 X142.865 Y119.655 E.11219
G1 X142.796 Y119.747 E.00361
G1 X142.696 Y120.02 E.00912
G1 X139.803 Y117.126 E.12839
G1 X139.269 Y117.126 E.01675
G1 X142.584 Y120.441 E.14709
G1 X142.481 Y120.872 E.0139
G1 X138.736 Y117.126 E.16619
G1 X138.202 Y117.126 E.01675
G1 X142.805 Y121.729 E.20424
M204 S1000
;WIPE_START
G1 F8640
G1 X140.355 Y119.279 E-.8
;WIPE_END
G1 Z.6 F720
G1 X145.585 Y125.043 F10800
G1 Z.2 F720
G1 E.8 F2100
M204 S800
G1 F1200
G1 X137.669 Y117.126 E.35126
G1 X137.135 Y117.126 E.01675
G1 X144.882 Y124.874 E.34376
G1 X144.348 Y124.874 E.01675
G1 X136.601 Y117.126 E.34376
G1 X136.068 Y117.126 E.01672
G1 X143.815 Y124.874 E.34376
G1 X143.281 Y124.874 E.01675
G1 X135.534 Y117.126 E.34376
G1 X135 Y117.126 E.01675
G1 X142.748 Y124.874 E.34378
G1 X142.214 Y124.874 E.01675
G1 X134.467 Y117.126 E.34376
G1 X133.933 Y117.126 E.01675
G1 X141.68 Y124.874 E.34376
G1 X141.147 Y124.874 E.01672
G1 X133.4 Y117.126 E.34376
G1 X132.866 Y117.126 E.01675
G1 X140.613 Y124.874 E.34376
G1 X140.079 Y124.874 E.01675
G1 X132.332 Y117.126 E.34376
G1 X131.799 Y117.126 E.01672
G1 X139.546 Y124.874 E.34376
G1 X139.012 Y124.874 E.01675
G1 X131.265 Y117.126 E.34376
G1 X130.732 Y117.126 E.01672
G1 X138.479 Y124.874 E.34376
G1 X137.945 Y124.874 E.01675
G1 X130.198 Y117.126 E.34376
G1 X129.664 Y117.126 E.01675
G1 X137.411 Y124.874 E.34376
G1 X136.878 Y124.874 E.01672
G1 X129.131 Y117.126 E.34376
G1 X128.597 Y117.126 E.01675
G1 X136.344 Y124.874 E.34376
G1 X135.811 Y124.874 E.01672
M73 P4 R33
G1 X128.063 Y117.126 E.34378
G1 X127.53 Y117.126 E.01672
G1 X135.277 Y124.874 E.34376
G1 X134.743 Y124.874 E.01675
G1 X126.996 Y117.126 E.34376
G1 X126.463 Y117.126 E.01672
G1 X134.21 Y124.874 E.34376
G1 X133.676 Y124.874 E.01675
G1 X125.929 Y117.126 E.34376
G1 X125.395 Y117.126 E.01675
G1 X133.142 Y124.874 E.34376
G1 X132.609 Y124.874 E.01672
G1 X124.862 Y117.126 E.34376
G1 X124.328 Y117.126 E.01675
G1 X132.075 Y124.874 E.34376
G1 X131.542 Y124.874 E.01672
G1 X123.795 Y117.126 E.34376
G1 X123.261 Y117.126 E.01675
G1 X131.008 Y124.874 E.34376
G1 X130.474 Y124.874 E.01675
G1 X122.727 Y117.126 E.34376
G1 X122.194 Y117.126 E.01672
G1 X129.941 Y124.874 E.34376
G1 X129.407 Y124.874 E.01675
G1 X121.66 Y117.126 E.34376
G1 X121.126 Y117.126 E.01675
G1 X128.874 Y124.874 E.34378
G1 X128.34 Y124.874 E.01675
M73 P5 R33
G1 X120.593 Y117.126 E.34376
G1 X120.059 Y117.126 E.01675
M73 Q5 S34
G1 X127.806 Y124.874 E.34376
G1 X127.273 Y124.874 E.01672
G1 X119.526 Y117.126 E.34376
G1 X118.992 Y117.126 E.01675
G1 X126.739 Y124.874 E.34376
G1 X126.205 Y124.874 E.01675
G1 X118.458 Y117.126 E.34376
G1 X117.925 Y117.126 E.01672
G1 X125.672 Y124.874 E.34376
G1 X125.138 Y124.874 E.01675
G1 X117.391 Y117.126 E.34376
G1 X116.858 Y117.126 E.01672
G1 X124.605 Y124.874 E.34376
G1 X124.071 Y124.874 E.01675
G1 X116.324 Y117.126 E.34376
G1 X115.79 Y117.126 E.01675
G1 X123.537 Y124.874 E.34376
G1 X123.004 Y124.874 E.01672
G1 X115.257 Y117.126 E.34376
G1 X114.723 Y117.126 E.01675
G1 X122.47 Y124.874 E.34376
G1 X121.937 Y124.874 E.01672
G1 X114.189 Y117.126 E.34378
G1 X113.656 Y117.126 E.01672
G1 X121.403 Y124.874 E.34376
G1 X120.869 Y124.874 E.01675
G1 X113.122 Y117.126 E.34376
G1 X112.589 Y117.126 E.01672
G1 X120.336 Y124.874 E.34376
G1 X119.802 Y124.874 E.01675
