; generated by PrusaSlicer 2.9.2 on 2025-04-11 at 03:24:55 UTC


;
;
; 

; external perimeters extrusion width = 0.45mm
; perimeters extrusion width = 0.45mm
; infill extrusion width = 0.45mm
; solid infill extrusion width = 0.45mm
; top infill extrusion width = 0.40mm
; support material extrusion width = 0.35mm
; first layer extrusion width = 0.42mm

M73 P0 R124
M73 Q0 S125
M201 X1000 Y1000 Z200 E5000 ; sets maximum accelerations, mm/sec^2
M203 X200 Y200 Z12 E120 ; sets maximum feedrates, mm / sec
M204 S1250 T1250 ; sets acceleration (S) and retract acceleration (R), mm/sec^2
M205 X8.00 Y8.00 Z0.40 E4.50 ; sets the jerk limits, mm/sec
M205 S0 T0 ; sets the minimum extruding and travel feed rate, mm/sec

; printing object R Shoulder.STL id:0 copy 0
; stop printing object R Shoulder.STL id:0 copy 0

;TYPE:Custom
M862.3 P "MK3S" ; printer model check
M862.1 P0.4 ; nozzle diameter check
M115 U3.14.1 ; tell printer latest fw version
G90 ; use absolute coordinates
M83 ; extruder relative mode
M104 S215 ; set extruder temp
M140 S60 ; set bed temp
M190 S60 ; wait for bed temp
M109 S215 ; wait for extruder temp
G28 W ; home all without mesh bed level
G80 X98.9158 Y69.6873 W52.1685 H69.4398 ; mesh bed levelling

G1 Z0.2 F720
G1 Y-3 F1000 ; go outside print area
G92 E0
G1 X60 E9 F1000 ; intro line
G1 X100 E12.5 F1000 ; intro line

G92 E0
M221 S95

; Don't change E values below. Excessive value can damage the printer.

G21 ; set units to millimeters
G90 ; use absolute coordinates
M83 ; use relative distances for extrusion

M900 K0.05 ; Filament gcode LA 1.5
M900 K30 ; Filament gcode LA 1.0




M107
;LAYER_CHANGE
;Z:0.2
;HEIGHT:0.2
G1 E-.8 F2100
G1 Z.6 F720
G1 X107.795 Y75.44 F10800
G1 Z.2 F720
G1 E.8 F2100
M204 S800
;TYPE:Skirt/Brim
;WIDTH:0.42
G1 F1200
G1 X111.035 Y70.81 E.17719
G1 X112.071 Y70.011 E.04102
G1 X112.828 Y69.876 E.02411
G1 X137.172 Y69.876 E.76329
G1 X138.42 Y70.267 E.04101
G1 X138.965 Y70.81 E.02412
G1 X146.793 Y81.995 E.42805
G1 X147.123 Y82.719 E.02495
G1 X149.623 Y92.719 E.32319
G1 X150.896 Y108.978 E.51135
G1 X150.896 Y133.321 E.76326
G1 X150.505 Y134.57 E.04104
G1 X149.239 Y135.444 E.04824
G1 X145.31 Y136.417 E.12691
G1 X127.5 Y138.939 E.56399
G1 X122.19 Y138.917 E.16649
G1 X104.69 Y136.417 E.55427
G1 X100.761 Y135.444 E.12691
G1 X99.645 Y134.762 E.04101
G1 X99.104 Y133.321 E.04826
G1 X99.109 Y111.139 E.6955
G1 X100.316 Y93.104 E.56674
G1 X102.877 Y82.719 E.33537
G1 X103.207 Y81.995 E.02495
G1 X107.76 Y75.489 E.24898
M204 S1000
;WIPE_START
G1 F8640
G1 X107.795 Y75.44 E-.0139
G1 X109.747 Y72.65 E-.7861
;WIPE_END
G1 Z.6 F720
; printing object R Shoulder.STL id:0 copy 0
G1 X104.52 Y133.321 F10800
G1 Z.2 F720
G1 E.8 F2100
M204 S800
;TYPE:Support material
G1 F1200
G1 X101.293 Y133.321 E.10118
G1 X101.293 Y111.285 E.69092
G1 X104.52 Y111.285 E.10118
G1 X104.52 Y133.265 E.68917
M204 S1000
G1 X104.051 Y133.152 F10800
M204 S800
G1 F1200
G1 X104.051 Y111.624 E.675
G1 X103.632 Y111.624 E.01314
G1 X103.632 Y132.982 E.66967
G1 X103.213 Y132.982 E.01314
G1 X103.213 Y111.624 E.66967
G1 X102.794 Y111.624 E.01314
G1 X102.794 Y132.982 E.66967
G1 X102.375 Y132.982 E.01314
G1 X102.375 Y111.624 E.66967
G1 X101.956 Y111.624 E.01314
G1 X101.956 Y133.152 E.675
M204 S1000
;WIPE_START
G1 F8640
M73 P0 R123
G1 X101.956 Y129.687 E-.8
;WIPE_END
G1 Z.6 F720
G1 X148.707 Y133.321 F10800
G1 Z.2 F720
G1 E.8 F2100
M204 S800
G1 F1200
G1 X145.48 Y133.321 E.10118
G1 X145.48 Y108.978 E.76326
G1 X148.707 Y108.978 E.10118
G1 X148.707 Y133.265 E.7615
M204 S1000
G1 X148.044 Y133.152 F10800
M204 S800
G1 F1200
G1 X148.044 Y109.317 E.74733
G1 X147.625 Y109.317 E.01314
G1 X147.625 Y132.982 E.742
G1 X147.206 Y132.982 E.01314
G1 X147.206 Y109.317 E.742
G1 X146.787 Y109.317 E.01314
G1 X146.787 Y132.982 E.742
G1 X146.368 Y132.982 E.01314
G1 X146.368 Y109.317 E.742
G1 X145.949 Y109.317 E.01314
G1 X145.949 Y133.152 E.74733
M204 S1000
;WIPE_START
G1 F8640
G1 X145.949 Y129.687 E-.8
;WIPE_END
G1 Z.6 F720
G1 X137.172 Y82.566 F10800
G1 Z.2 F720
G1 E.8 F2100
M204 S800
G1 F1200
G1 X133.08 Y82.566 E.1283
G1 X133.08 Y73.051 E.29834
G1 X132.799 Y72.77 E.01246
G1 X131.58 Y72.77 E.03822
G1 X131.58 Y72.065 E.0221
G1 X137.172 Y72.064 E.17533
G1 X137.172 Y82.509 E.3275
M73 Q0 S124
M204 S1000
G1 X136.731 Y82.396 F10800
M204 S800
G1 F1200
G1 X136.731 Y72.404 E.31329
G1 X136.312 Y72.404 E.01314
G1 X136.312 Y82.226 E.30796
G1 X135.893 Y82.226 E.01314
G1 X135.893 Y72.404 E.30796
G1 X135.474 Y72.404 E.01314
G1 X135.474 Y82.226 E.30796
G1 X135.055 Y82.226 E.01314
G1 X135.055 Y72.404 E.30796
G1 X134.636 Y72.404 E.01314
G1 X134.636 Y82.226 E.30796
G1 X134.217 Y82.226 E.01314
G1 X134.217 Y72.404 E.30796
G1 X133.799 Y72.404 E.01311
G1 X133.799 Y82.226 E.30796
G1 X133.419 Y82.226 E.01191
G1 X133.38 Y72.404 E.30796
G1 X132.123 Y72.404 E.03941
G1 X132.123 Y72.6 E.00615
M204 S1000
;WIPE_START
G1 F8640
G1 X132.123 Y72.404 E-.04526
G1 X133.38 Y72.404 E-.29024
G1 X133.388 Y74.416 E-.4645
;WIPE_END
G1 Z.6 F720
G1 X131.12 Y72.065 F10800
G1 Z.2 F720
G1 E.8 F2100
M204 S800
G1 F1200
G1 X131.12 Y72.77 E.0221
G1 X129.901 Y72.77 E.03822
G1 X129.62 Y73.051 E.01246
G1 X129.62 Y82.566 E.29834
G1 X126.671 Y82.566 E.09246
G1 X126.671 Y72.064 E.32928
G1 X131.063 Y72.065 E.13771
M204 S1000
G1 X130.447 Y72.6 F10800
M204 S800
G1 F1200
G1 X130.447 Y72.404 E.00615
G1 X129.761 Y72.431 E.02153
G1 X129.609 Y72.582 E.00672
G1 X129.609 Y72.404 E.00558
G1 X129.19 Y72.404 E.01314
G1 X129.19 Y82.226 E.30796
G1 X128.771 Y82.226 E.01314
G1 X128.771 Y72.404 E.30796
G1 X128.352 Y72.404 E.01314
G1 X128.352 Y82.226 E.30796
G1 X127.933 Y82.226 E.01314
G1 X127.933 Y72.404 E.30796
G1 X127.514 Y72.404 E.01314
G1 X127.514 Y82.226 E.30796
G1 X127.095 Y82.226 E.01314
G1 X127.095 Y72.234 E.31329
M204 S1000
;WIPE_START
G1 F8640
G1 X127.095 Y75.699 E-.8
;WIPE_END
G1 Z.6 F720
G1 X118.42 Y72.065 F10800
G1 Z.2 F720
G1 E.8 F2100
M204 S800
G1 F1200
G1 X118.42 Y72.77 E.0221
G1 X117.201 Y72.77 E.03822
G1 X116.92 Y73.051 E.01246
G1 X116.92 Y82.566 E.29834
G1 X112.828 Y82.566 E.1283
G1 X112.828 Y72.064 E.32928
G1 X118.363 Y72.065 E.17355
M204 S1000
G1 X117.877 Y72.6 F10800
M204 S800
G1 F1200
G1 X117.877 Y72.404 E.00615
G1 X116.62 Y72.404 E.03941
G1 X116.581 Y82.226 E.30796
G1 X116.201 Y82.226 E.01191
G1 X116.201 Y72.404 E.30796
G1 X115.783 Y72.404 E.01311
G1 X115.783 Y82.226 E.30796
G1 X115.364 Y82.226 E.01314
G1 X115.364 Y72.404 E.30796
G1 X114.945 Y72.404 E.01314
G1 X114.945 Y82.226 E.30796
G1 X114.526 Y82.226 E.01314
G1 X114.526 Y72.404 E.30796
G1 X114.107 Y72.404 E.01314
G1 X114.107 Y82.226 E.30796
G1 X113.688 Y82.226 E.01314
G1 X113.688 Y72.404 E.30796
G1 X113.269 Y72.404 E.01314
G1 X113.269 Y82.396 E.31329
M204 S1000
;WIPE_START
G1 F8640
G1 X113.269 Y78.931 E-.8
;WIPE_END
G1 Z.6 F720
G1 X123.329 Y82.566 F10800
G1 Z.2 F720
G1 E.8 F2100
M204 S800
G1 F1200
G1 X120.38 Y82.566 E.09246
G1 X120.38 Y73.051 E.29834
G1 X120.099 Y72.77 E.01246
G1 X118.88 Y72.77 E.03822
G1 X118.88 Y72.065 E.0221
G1 X123.329 Y72.064 E.1395
G1 X123.329 Y82.509 E.3275
M204 S1000
G1 X122.905 Y82.396 F10800
M204 S800
G1 F1200
G1 X122.905 Y72.404 E.31329
G1 X122.486 Y72.404 E.01314
G1 X122.486 Y82.226 E.30796
G1 X122.067 Y82.226 E.01314
G1 X122.067 Y72.404 E.30796
G1 X121.648 Y72.404 E.01314
G1 X121.648 Y82.226 E.30796
G1 X121.229 Y82.226 E.01314
G1 X121.229 Y72.404 E.30796
G1 X120.81 Y72.404 E.01314
G1 X120.81 Y82.226 E.30796
G1 X120.719 Y82.226 E.00285
G1 X120.719 Y72.911 E.29207
G1 X120.391 Y72.582 E.01457
G1 X120.391 Y72.404 E.00558
G1 X119.553 Y72.431 E.02629
G1 X119.553 Y72.235 E.00615
M204 S1000
;WIPE_START
G1 F8640
G1 X119.553 Y72.431 E-.04526
G1 X120.391 Y72.404 E-.1936
G1 X120.391 Y72.582 E-.0411
G1 X120.719 Y72.911 E-.10727
G1 X120.719 Y74.699 E-.41277
;WIPE_END
G1 Z.6 F720
G1 X119.296 Y83.865 F10800
G1 Z.2 F720
G1 E.8 F2100
M204 S800
;TYPE:Perimeter
;WIDTH:0.419999
G1 F1200
G1 X119.442 Y83.985 E.00593
G1 X119.679 Y84.037 E.00761
G1 X130.321 Y84.037 E.33367
G1 X130.558 Y83.985 E.00761
G1 X130.779 Y83.804 E.00896
G1 X130.887 Y83.471 E.01098
G1 X130.887 Y74.037 E.2958
G1 X131.813 Y74.037 E.02903
G1 X131.813 Y83.471 E.2958
G1 X131.921 Y83.804 E.01098
G1 X132.142 Y83.985 E.00896
G1 X132.379 Y84.037 E.00761
G1 X144.213 Y84.037 E.37105
G1 X144.213 Y93.471 E.2958
G1 X144.233 Y93.621 E.00474
G1 X144.38 Y93.873 E.00915
G1 X144.601 Y94.008 E.00812
G1 X144.779 Y94.037 E.00565
G1 X146.713 Y94.037 E.06064
G1 X146.713 Y95.75 E.05371
G1 X146.713 Y97.463 E.05371
G1 X144.729 Y97.465 E.06221
G1 X144.466 Y97.557 E.00874
G1 X144.273 Y97.774 E.00911
G1 X144.213 Y98.025 E.00809
G1 X144.213 Y133.463 E1.11113
G1 X127.279 Y133.463 E.53095
G1 X127.025 Y133.523 E.00818
G1 X126.807 Y133.716 E.00913
G1 X126.713 Y134.029 E.01025
G1 X126.713 Y135.963 E.06064
G1 X123.287 Y135.963 E.10742
G1 X123.287 Y134.029 E.06064
G1 X123.193 Y133.716 E.01025
G1 X122.975 Y133.523 E.00913
G1 X122.721 Y133.463 E.00818
G1 X105.787 Y133.463 E.53095
G1 X105.787 Y98.029 E1.11101
G1 X105.727 Y97.774 E.00821
G1 X105.534 Y97.557 E.00911
G1 X105.221 Y97.463 E.01025
G1 X103.287 Y97.463 E.06064
G1 X103.287 Y94.037 E.10742
G1 X105.221 Y94.037 E.06064
G1 X105.534 Y93.943 E.01025
G1 X105.727 Y93.726 E.00911
G1 X105.787 Y93.471 E.00821
G1 X105.787 Y84.037 E.2958
G1 X117.621 Y84.037 E.37105
G1 X117.858 Y83.985 E.00761
M73 P1 R123
M73 Q1 S124
G1 X118.079 Y83.804 E.00896
G1 X118.187 Y83.471 E.01098
G1 X118.187 Y74.037 E.2958
G1 X119.113 Y74.037 E.02903
G1 X119.113 Y83.471 E.2958
G1 X119.221 Y83.804 E.01098
G1 X119.249 Y83.827 E.00114
M204 S1000
G1 X119.544 Y83.575 F10800
M204 S800
;TYPE:External perimeter
G1 F1200
G1 X119.572 Y83.627 E.00185
G1 X119.679 Y83.66 E.00351
G1 X130.221 Y83.66 E.33054
G1 X130.428 Y83.627 E.00657
G1 X130.51 Y83.471 E.00553
G1 X130.51 Y73.66 E.30762
G1 X132.19 Y73.66 E.05268
G1 X132.19 Y83.471 E.30762
G1 X132.272 Y83.627 E.00553
G1 X132.379 Y83.66 E.00351
G1 X144.59 Y83.66 E.38287
G1 X144.59 Y93.471 E.30762
G1 X144.646 Y93.605 E.00455
G1 X144.779 Y93.66 E.00451
G1 X147.09 Y93.66 E.07246
G1 X147.09 Y95.75 E.06553
G1 X147.09 Y97.84 E.06553
G1 X144.779 Y97.84 E.07246
G1 X144.646 Y97.895 E.00451
G1 X144.59 Y98.027 E.0045
G1 X144.59 Y133.84 E1.12289
G1 X127.279 Y133.84 E.54277
G1 X127.165 Y133.878 E.00377
G1 X127.09 Y134.029 E.00529
G1 X127.09 Y136.34 E.07246
G1 X122.91 Y136.34 E.13106
G1 X122.91 Y134.029 E.07246
G1 X122.855 Y133.896 E.00451
G1 X122.721 Y133.84 E.00455
G1 X105.41 Y133.84 E.54277
G1 X105.41 Y98.029 E1.12283
G1 X105.372 Y97.915 E.00377
G1 X105.221 Y97.84 E.00529
G1 X102.91 Y97.84 E.07246
G1 X102.91 Y93.66 E.13106
G1 X105.221 Y93.66 E.07246
G1 X105.354 Y93.605 E.00451
G1 X105.41 Y93.471 E.00455
G1 X105.41 Y83.66 E.30762
G1 X117.621 Y83.66 E.38287
G1 X117.728 Y83.627 E.00351
G1 X117.81 Y83.471 E.00553
G1 X117.81 Y73.66 E.30762
G1 X119.49 Y73.66 E.05268
M73 P1 R122
G1 X119.49 Y83.471 E.30762
G1 X119.516 Y83.521 E.00177
M204 S1000
;WIPE_START
G1 F8640
G1 X119.544 Y83.575 E-.01405
G1 X119.572 Y83.627 E-.01364
G1 X119.679 Y83.66 E-.02585
G1 X122.912 Y83.66 E-.74646
;WIPE_END
G1 Z.6 F720
G1 X131.643 Y74.713 F10800
G1 Z.2 F720
G1 E.8 F2100
M204 S800
;TYPE:Solid infill
;WIDTH:0.42141
G1 F1200
G1 X131.307 Y74.376 E.01498
G1 X131.226 Y74.376 E.00255
G1 X131.226 Y74.832 E.01435
G1 X131.474 Y75.079 E.01102
G1 X131.474 Y75.614 E.01684
G1 X131.226 Y75.367 E.01102
G1 X131.226 Y75.902 E.01684
G1 X131.474 Y76.149 E.01102
G1 X131.474 Y76.684 E.01684
G1 X131.226 Y76.437 E.01102
G1 X131.226 Y76.973 E.01687
G1 X131.474 Y77.22 E.01102
G1 X131.474 Y77.755 E.01684
G1 X131.226 Y77.508 E.01102
G1 X131.226 Y78.043 E.01684
G1 X131.474 Y78.29 E.01102
G1 X131.474 Y78.826 E.01687
G1 X131.226 Y78.578 E.01104
G1 X131.226 Y79.114 E.01687
G1 X131.474 Y79.361 E.01102
G1 X131.474 Y79.896 E.01684
G1 X131.226 Y79.649 E.01102
G1 X131.226 Y80.184 E.01684
G1 X131.474 Y80.431 E.01102
G1 X131.474 Y80.967 E.01687
G1 X131.226 Y80.719 E.01104
G1 X131.226 Y81.255 E.01687
G1 X131.474 Y81.502 E.01102
G1 X131.474 Y82.037 E.01684
G1 X131.226 Y81.79 E.01102
G1 X131.226 Y82.325 E.01684
G1 X131.474 Y82.572 E.01102
G1 X131.474 Y83.108 E.01687
G1 X131.057 Y82.691 E.01856
M204 S1000
;WIPE_START
G1 F8640
G1 X131.474 Y83.108 E-.13617
G1 X131.474 Y82.572 E-.12376
G1 X131.226 Y82.325 E-.08082
G1 X131.226 Y81.79 E-.12353
G1 X131.474 Y82.037 E-.08082
G1 X131.474 Y81.502 E-.12353
G1 X131.226 Y81.255 E-.08082
G1 X131.226 Y81.036 E-.05055
;WIPE_END
G1 Z.6 F720
G1 X118.943 Y74.859 F10800
G1 Z.2 F720
G1 E.8 F2100
M204 S800
G1 F1200
G1 X118.526 Y74.443 E.01854
G1 X118.526 Y74.978 E.01684
G1 X118.774 Y75.225 E.01102
G1 X118.774 Y75.76 E.01684
G1 X118.526 Y75.513 E.01102
G1 X118.526 Y76.048 E.01684
G1 X118.774 Y76.296 E.01104
G1 X118.774 Y76.831 E.01684
G1 X118.526 Y76.584 E.01102
G1 X118.526 Y77.119 E.01684
G1 X118.774 Y77.366 E.01102
G1 X118.774 Y77.901 E.01684
G1 X118.526 Y77.654 E.01102
G1 X118.526 Y78.19 E.01687
G1 X118.774 Y78.437 E.01102
G1 X118.774 Y78.972 E.01684
G1 X118.526 Y78.725 E.01102
G1 X118.526 Y79.26 E.01684
G1 X118.774 Y79.507 E.01102
G1 X118.774 Y80.042 E.01684
G1 X118.526 Y79.795 E.01102
G1 X118.526 Y80.331 E.01687
G1 X118.774 Y80.578 E.01102
G1 X118.774 Y81.113 E.01684
G1 X118.526 Y80.866 E.01102
G1 X118.526 Y81.401 E.01684
G1 X118.774 Y81.648 E.01102
G1 X118.774 Y82.184 E.01687
G1 X118.526 Y81.936 E.01104
G1 X118.526 Y82.472 E.01687
G1 X118.774 Y82.719 E.01102
G1 X118.774 Y83.254 E.01684
G1 X118.357 Y82.837 E.01856
M204 S1000
;WIPE_START
G1 F8640
G1 X118.774 Y83.254 E-.13617
G1 X118.774 Y82.719 E-.12353
G1 X118.526 Y82.472 E-.08082
G1 X118.526 Y81.936 E-.12376
G1 X118.774 Y82.184 E-.08098
G1 X118.774 Y81.648 E-.12376
G1 X118.526 Y81.401 E-.08082
G1 X118.526 Y81.184 E-.05016
;WIPE_END
G1 Z.6 F720
G1 X145.784 Y94.207 F10800
G1 Z.2 F720
G1 E.8 F2100
M204 S800
G1 F1200
G1 X146.374 Y94.796 E.02624
G1 X146.374 Y95.331 E.01684
G1 X145.249 Y94.207 E.05005
M204 S1000
;WIPE_START
G1 F8640
G1 X146.374 Y95.331 E-.3672
G1 X146.374 Y94.796 E-.12353
G1 X145.784 Y94.207 E-.1925
;WIPE_END
G1 E-.11677 F2100
G1 Z.6 F720
G1 X143.278 Y84.207 F10800
G1 Z.2 F720
G1 E.8 F2100
M204 S800
G1 F1200
G1 X143.874 Y84.802 E.0265
G1 X143.874 Y85.338 E.01687
G1 X142.912 Y84.376 E.04282
G1 X142.377 Y84.376 E.01684
G1 X143.874 Y85.873 E.06663
G1 X143.874 Y86.408 E.01684
G1 X141.842 Y84.376 E.09044
G1 X141.307 Y84.376 E.01684
G1 X143.874 Y86.943 E.11425
G1 X143.874 Y87.479 E.01687
G1 X140.771 Y84.376 E.13811
G1 X140.236 Y84.376 E.01684
G1 X143.874 Y88.014 E.16192
G1 X143.874 Y88.549 E.01684
G1 X139.701 Y84.376 E.18573
G1 X139.166 Y84.376 E.01684
G1 X143.874 Y89.084 E.20954
G1 X143.874 Y89.62 E.01687
G1 X138.63 Y84.376 E.2334
G1 X138.095 Y84.376 E.01684
G1 X143.874 Y90.155 E.25721
G1 X143.874 Y90.69 E.01684
G1 X137.56 Y84.376 E.28102
G1 X137.024 Y84.376 E.01687
G1 X143.874 Y91.226 E.30488
G1 X143.874 Y91.761 E.01684
G1 X136.489 Y84.376 E.32869
G1 X135.954 Y84.376 E.01684
G1 X143.874 Y92.296 E.3525
G1 X143.874 Y92.831 E.01684
G1 X135.419 Y84.376 E.37631
G1 X134.883 Y84.376 E.01687
G1 X143.874 Y93.367 E.40017
G1 X143.9 Y93.695 E.01036
G1 X144.002 Y93.939 E.00832
G1 X144.139 Y94.113 E.00697
G1 X144.281 Y94.228 E.00575
G1 X144.496 Y94.333 E.00753
G1 X144.766 Y94.376 E.0086
G1 X144.883 Y94.376 E.00368
G1 X146.374 Y95.867 E.06636
G1 X146.374 Y96.402 E.01684
G1 X134.348 Y84.376 E.53525
G1 X133.813 Y84.376 E.01684
G1 X146.374 Y96.937 E.55906
G1 X146.374 Y97.124 E.00589
M73 Q1 S123
G1 X146.025 Y97.124 E.01098
G1 X133.278 Y84.376 E.56736
G1 X132.742 Y84.376 E.01687
G1 X145.489 Y97.124 E.56736
G1 X144.954 Y97.124 E.01684
G1 X131.226 Y83.396 E.611
G1 X131.222 Y83.568 E.00541
G1 X131.125 Y83.829 E.00876
G1 X144.473 Y97.178 E.59411
G1 X144.276 Y97.274 E.0069
G1 X144.151 Y97.391 E.00539
G1 X130.908 Y84.148 E.58941
G1 X130.838 Y84.217 E.00309
G1 X130.615 Y84.329 E.00785
G1 X130.563 Y84.338 E.00166
G1 X143.931 Y97.707 E.595
G1 X143.876 Y97.949 E.00781
G1 X143.876 Y98.187 E.00749
G1 X130.066 Y84.376 E.61467
G1 X129.531 Y84.376 E.01684
G1 X143.876 Y98.722 E.63848
G1 X143.876 Y99.257 E.01684
G1 X128.995 Y84.376 E.66232
G1 X128.46 Y84.376 E.01684
G1 X143.876 Y99.792 E.68613
G1 X143.876 Y100.327 E.01684
G1 X127.925 Y84.376 E.70994
G1 X127.39 Y84.376 E.01684
