; generated by PrusaSlicer 2.9.2 on 2025-04-12 at 14:27:05 UTC


;
;
; 

; external perimeters extrusion width = 0.45mm
; perimeters extrusion width = 0.45mm
; infill extrusion width = 0.45mm
; solid infill extrusion width = 0.45mm
; top infill extrusion width = 0.40mm
; support material extrusion width = 0.35mm
; first layer extrusion width = 0.42mm

M73 P0 R129
M73 Q0 S130
M201 X1000 Y1000 Z200 E5000 ; sets maximum accelerations, mm/sec^2
M203 X200 Y200 Z12 E120 ; sets maximum feedrates, mm / sec
M204 S1250 T1250 ; sets acceleration (S) and retract acceleration (R), mm/sec^2
M205 X8.00 Y8.00 Z0.40 E4.50 ; sets the jerk limits, mm/sec
M205 S0 T0 ; sets the minimum extruding and travel feed rate, mm/sec

; printing object R Shoulder.STL id:0 copy 0
; stop printing object R Shoulder.STL id:0 copy 0

;TYPE:Custom
M862.3 P "MK3S" ; printer model check
M862.1 P0.4 ; nozzle diameter check
M115 U3.14.1 ; tell printer latest fw version
G90 ; use absolute coordinates
M83 ; extruder relative mode
M104 S215 ; set extruder temp
M140 S60 ; set bed temp
M190 S60 ; wait for bed temp
M109 S215 ; wait for extruder temp
G28 W ; home all without mesh bed level
G80 X96.6087 Y71.3729 W56.7826 H67.2542 ; mesh bed levelling

G1 Z0.2 F720
G1 Y-3 F1000 ; go outside print area
G92 E0
G1 X60 E9 F1000 ; intro line
G1 X100 E12.5 F1000 ; intro line

G92 E0
M221 S95

; Don't change E values below. Excessive value can damage the printer.

G21 ; set units to millimeters
G90 ; use absolute coordinates
M83 ; use relative distances for extrusion

M900 K0.05 ; Filament gcode LA 1.5
M900 K30 ; Filament gcode LA 1.0




M107
;LAYER_CHANGE
;Z:0.2
;HEIGHT:0.2
G1 E-.8 F2100
G1 Z.6 F720
G1 X102.406 Y82.25 F10800
G1 Z.2 F720
G1 E.8 F2100
M204 S800
;TYPE:Skirt/Brim
;WIDTH:0.42
G1 F1200
G1 X111.235 Y72.872 E.40385
G1 X112.533 Y72.203 E.04579
G1 X117.4 Y71.561 E.15392
G1 X132.895 Y71.581 E.48584
G1 X137.467 Y72.203 E.14467
G1 X138.765 Y72.872 E.04579
G1 X147.594 Y82.25 E.40385
G1 X148.147 Y83.323 E.03785
G1 X153.203 Y108.978 E.81987
G1 X153.203 Y133.321 E.76326
M73 P0 R128
G1 X152.812 Y134.57 E.04104
G1 X151.614 Y135.426 E.04617
G1 X146.187 Y136.931 E.17658
G1 X128.5 Y138.439 E.55658
G1 X121.313 Y138.431 E.22534
G1 X103.813 Y136.931 E.55071
G1 X98.386 Y135.426 E.17658
G1 X97.293 Y134.708 E.041
G1 X96.797 Y133.321 E.04619
G1 X96.797 Y111.285 E.69092
G1 X101.847 Y83.358 E.88983
G1 X102.379 Y82.303 E.03705
M204 S1000
;WIPE_START
G1 F8640
G1 X102.406 Y82.25 E-.01373
G1 X104.74 Y79.771 E-.78627
;WIPE_END
G1 Z.6 F720
; printing object R Shoulder.STL id:0 copy 0
G1 X103.52 Y133.321 F10800
G1 Z.2 F720
G1 E.8 F2100
M204 S800
;TYPE:Support material
G1 F1200
G1 X98.986 Y133.321 E.14216
G1 X98.986 Y111.285 E.69092
G1 X103.52 Y111.285 E.14216
G1 X103.52 Y133.265 E.68917
M204 S1000
G1 X102.794 Y133.152 F10800
M204 S800
G1 F1200
G1 X102.794 Y111.624 E.675
G1 X102.375 Y111.624 E.01314
G1 X102.375 Y132.982 E.66967
G1 X101.956 Y132.982 E.01314
G1 X101.956 Y111.624 E.66967
G1 X101.537 Y111.624 E.01314
G1 X101.537 Y132.982 E.66967
G1 X101.118 Y132.982 E.01314
G1 X101.118 Y111.624 E.66967
G1 X100.699 Y111.624 E.01314
G1 X100.699 Y132.982 E.66967
G1 X100.28 Y132.982 E.01314
G1 X100.28 Y111.624 E.66967
G1 X99.861 Y111.624 E.01314
G1 X99.861 Y132.982 E.66967
G1 X99.442 Y132.982 E.01314
G1 X99.442 Y111.455 E.67496
M204 S1000
;WIPE_START
G1 F8640
G1 X99.442 Y114.92 E-.8
;WIPE_END
G1 Z.6 F720
G1 X116.92 Y83.27 F10800
G1 Z.2 F720
G1 E.8 F2100
M204 S800
G1 F1200
G1 X112.828 Y83.27 E.1283
G1 X112.828 Y74.372 E.27899
G1 X116.92 Y74.372 E.1283
G1 X116.92 Y83.213 E.2772
M204 S1000
G1 X116.201 Y83.1 F10800
M204 S800
G1 F1200
G1 X116.201 Y74.711 E.26303
G1 X115.783 Y74.711 E.01311
G1 X115.783 Y82.931 E.25773
G1 X115.364 Y82.931 E.01314
G1 X115.364 Y74.711 E.25773
G1 X114.945 Y74.711 E.01314
G1 X114.945 Y82.931 E.25773
M73 Q0 S129
G1 X114.526 Y82.931 E.01314
G1 X114.526 Y74.711 E.25773
G1 X114.107 Y74.711 E.01314
G1 X114.107 Y82.931 E.25773
G1 X113.688 Y82.931 E.01314
G1 X113.688 Y74.711 E.25773
G1 X113.269 Y74.711 E.01314
G1 X113.269 Y83.1 E.26303
M204 S1000
;WIPE_START
G1 F8640
G1 X113.269 Y79.635 E-.8
;WIPE_END
G1 Z.6 F720
G1 X123.329 Y83.27 F10800
G1 Z.2 F720
G1 E.8 F2100
M204 S800
G1 F1200
G1 X120.38 Y83.27 E.09246
G1 X120.38 Y74.372 E.27899
G1 X123.329 Y74.372 E.09246
G1 X123.329 Y83.213 E.2772
M204 S1000
G1 X122.905 Y83.1 F10800
M204 S800
G1 F1200
G1 X122.905 Y74.711 E.26303
G1 X122.486 Y74.711 E.01314
G1 X122.486 Y82.931 E.25773
G1 X122.067 Y82.931 E.01314
G1 X122.067 Y74.711 E.25773
G1 X121.648 Y74.711 E.01314
G1 X121.648 Y82.931 E.25773
G1 X121.229 Y82.931 E.01314
G1 X121.229 Y74.711 E.25773
G1 X120.81 Y74.711 E.01314
G1 X120.81 Y83.1 E.26303
M204 S1000
;WIPE_START
G1 F8640
G1 X120.81 Y79.635 E-.8
;WIPE_END
G1 Z.6 F720
G1 X129.62 Y83.27 F10800
G1 Z.2 F720
G1 E.8 F2100
M204 S800
G1 F1200
G1 X126.671 Y83.27 E.09246
G1 X126.671 Y74.372 E.27899
G1 X129.62 Y74.372 E.09246
G1 X129.62 Y83.213 E.2772
M204 S1000
G1 X129.19 Y83.1 F10800
M204 S800
G1 F1200
G1 X129.19 Y74.711 E.26303
G1 X128.771 Y74.711 E.01314
G1 X128.771 Y82.931 E.25773
G1 X128.352 Y82.931 E.01314
G1 X128.352 Y74.711 E.25773
G1 X127.933 Y74.711 E.01314
G1 X127.933 Y82.931 E.25773
G1 X127.514 Y82.931 E.01314
G1 X127.514 Y74.711 E.25773
G1 X127.095 Y74.711 E.01314
G1 X127.095 Y83.1 E.26303
M204 S1000
;WIPE_START
G1 F8640
G1 X127.095 Y79.635 E-.8
;WIPE_END
G1 Z.6 F720
G1 X137.172 Y83.27 F10800
G1 Z.2 F720
G1 E.8 F2100
M204 S800
G1 F1200
G1 X133.08 Y83.27 E.1283
G1 X133.08 Y74.372 E.27899
G1 X137.172 Y74.372 E.1283
G1 X137.172 Y83.213 E.2772
M204 S1000
G1 X136.731 Y83.1 F10800
M204 S800
G1 F1200
G1 X136.731 Y74.711 E.26303
G1 X136.312 Y74.711 E.01314
G1 X136.312 Y82.931 E.25773
G1 X135.893 Y82.931 E.01314
G1 X135.893 Y74.711 E.25773
G1 X135.474 Y74.711 E.01314
G1 X135.474 Y82.931 E.25773
G1 X135.055 Y82.931 E.01314
G1 X135.055 Y74.711 E.25773
G1 X134.636 Y74.711 E.01314
G1 X134.636 Y82.931 E.25773
G1 X134.217 Y82.931 E.01314
G1 X134.217 Y74.711 E.25773
G1 X133.799 Y74.711 E.01311
G1 X133.799 Y83.1 E.26303
M204 S1000
;WIPE_START
G1 F8640
G1 X133.799 Y79.635 E-.8
;WIPE_END
G1 Z.6 F720
G1 X151.014 Y133.321 F10800
G1 Z.2 F720
G1 E.8 F2100
M204 S800
G1 F1200
G1 X146.48 Y133.321 E.14216
G1 X146.48 Y108.978 E.76326
G1 X151.014 Y108.978 E.14216
G1 X151.014 Y133.265 E.7615
M204 S1000
G1 X150.558 Y133.152 F10800
M204 S800
G1 F1200
G1 X150.558 Y109.317 E.74733
G1 X150.139 Y109.317 E.01314
G1 X150.139 Y132.982 E.742
G1 X149.72 Y132.982 E.01314
G1 X149.72 Y109.317 E.742
G1 X149.301 Y109.317 E.01314
G1 X149.301 Y132.982 E.742
G1 X148.882 Y132.982 E.01314
G1 X148.882 Y109.317 E.742
G1 X148.463 Y109.317 E.01314
G1 X148.463 Y132.982 E.742
G1 X148.044 Y132.982 E.01314
G1 X148.044 Y109.317 E.742
G1 X147.625 Y109.317 E.01314
G1 X147.625 Y132.982 E.742
G1 X147.206 Y132.982 E.01314
G1 X147.206 Y109.147 E.74733
M204 S1000
;WIPE_START
G1 F8640
G1 X147.206 Y112.612 E-.8
;WIPE_END
G1 Z.6 F720
G1 X119.296 Y84.368 F10800
G1 Z.2 F720
G1 E.8 F2100
M204 S800
;TYPE:Perimeter
;WIDTH:0.419999
G1 F1200
G1 X119.457 Y84.492 E.00637
G1 X119.679 Y84.537 E.0071
G1 X130.321 Y84.537 E.33367
G1 X130.543 Y84.492 E.0071
G1 X130.766 Y84.321 E.00881
G1 X130.887 Y83.971 E.01161
G1 X130.887 Y74.537 E.2958
G1 X131.813 Y74.537 E.02903
G1 X131.813 Y83.971 E.2958
G1 X131.934 Y84.321 E.01161
G1 X132.157 Y84.492 E.00881
G1 X132.379 Y84.537 E.0071
G1 X145.213 Y84.537 E.4024
G1 X145.214 Y94.011 E.29705
G1 X145.306 Y94.282 E.00897
G1 X145.533 Y94.481 E.00947
G1 X145.779 Y94.537 E.00791
G1 X146.713 Y94.537 E.02928
G1 X146.713 Y95.471 E.02928
G1 X146.713 Y99.963 E.14084
G1 X145.779 Y99.963 E.02928
G1 X145.533 Y100.019 E.00791
G1 X145.409 Y100.101 E.00466
G1 X145.275 Y100.271 E.00679
G1 X145.213 Y100.529 E.00832
G1 X145.213 Y133.963 E1.0483
G1 X128.21 Y133.967 E.53312
M73 P0 R127
G1 X127.943 Y134.074 E.00902
G1 X127.769 Y134.283 E.00853
G1 X127.713 Y134.529 E.00791
G1 X127.713 Y135.463 E.02928
G1 X122.287 Y135.463 E.17013
G1 X122.287 Y134.529 E.02928
G1 X122.231 Y134.283 E.00791
G1 X122.149 Y134.159 E.00466
G1 X121.991 Y134.031 E.00638
G1 X121.721 Y133.963 E.00873
G1 X104.787 Y133.963 E.53095
G1 X104.786 Y100.49 E1.04952
G1 X104.694 Y100.218 E.009
G1 X104.467 Y100.019 E.00947
G1 X104.221 Y99.963 E.00791
G1 X103.287 Y99.963 E.02928
G1 X103.287 Y94.537 E.17013
G1 X104.221 Y94.537 E.02928
G1 X104.467 Y94.481 E.00791
G1 X104.591 Y94.399 E.00466
G1 X104.725 Y94.229 E.00679
G1 X104.787 Y93.971 E.00832
G1 X104.787 Y84.537 E.2958
G1 X117.621 Y84.537 E.4024
G1 X117.843 Y84.492 E.0071
G1 X118.066 Y84.321 E.00881
G1 X118.187 Y83.971 E.01161
G1 X118.187 Y74.537 E.2958
G1 X119.113 Y74.537 E.02903
M73 P1 R127
G1 X119.113 Y83.971 E.2958
G1 X119.234 Y84.321 E.01161
M73 Q1 S129
G1 X119.248 Y84.332 E.00056
M204 S1000
G1 X119.576 Y84.11 F10800
M204 S800
;TYPE:External perimeter
G1 F1200
G1 X119.679 Y84.16 E.00359
G1 X130.321 Y84.16 E.33367
G1 X130.423 Y84.13 E.00333
G1 X130.51 Y83.971 E.00568
G1 X130.51 Y74.16 E.30762
G1 X132.19 Y74.16 E.05268
G1 X132.19 Y83.971 E.30762
G1 X132.23 Y84.088 E.00388
G1 X132.379 Y84.16 E.00519
G1 X145.59 Y84.16 E.41422
G1 X145.59 Y93.971 E.30762
G1 X145.629 Y94.086 E.00381
G1 X145.779 Y94.16 E.00524
G1 X147.09 Y94.16 E.04111
G1 X147.09 Y95.471 E.04111
G1 X147.09 Y100.34 E.15266
G1 X145.779 Y100.34 E.04111
G1 X145.655 Y100.386 E.00415
G1 X145.59 Y100.529 E.00493
G1 X145.59 Y134.34 E1.06012
G1 X128.279 Y134.34 E.54277
G1 X128.167 Y134.377 E.0037
G1 X128.09 Y134.529 E.00534
G1 X128.09 Y135.84 E.04111
G1 X121.91 Y135.84 E.19377
G1 X121.91 Y134.529 E.04111
G1 X121.864 Y134.405 E.00415
G1 X121.721 Y134.34 E.00493
G1 X104.41 Y134.34 E.54277
G1 X104.41 Y100.529 E1.06012
G1 X104.371 Y100.414 E.00381
G1 X104.221 Y100.34 E.00524
G1 X102.91 Y100.34 E.04111
G1 X102.91 Y94.16 E.19377
G1 X104.221 Y94.16 E.04111
G1 X104.345 Y94.114 E.00415
G1 X104.41 Y93.971 E.00493
G1 X104.41 Y84.16 E.30762
G1 X117.621 Y84.16 E.41422
G1 X117.723 Y84.13 E.00333
G1 X117.81 Y83.971 E.00568
G1 X117.81 Y74.16 E.30762
G1 X119.49 Y74.16 E.05268
G1 X119.49 Y83.971 E.30762
G1 X119.527 Y84.079 E.00358
M204 S1000
;WIPE_START
G1 F8640
G1 X119.576 Y84.11 E-.01339
G1 X119.679 Y84.16 E-.02644
G1 X122.971 Y84.16 E-.76017
;WIPE_END
G1 Z.6 F720
G1 X145.044 Y85.471 F10800
G1 Z.2 F720
G1 E.8 F2100
M204 S800
;TYPE:Solid infill
;WIDTH:0.420812
G1 F1200
G1 X144.449 Y84.876 E.02644
G1 X143.914 Y84.876 E.01681
G1 X144.874 Y85.836 E.04266
G1 X144.875 Y86.371 E.01681
G1 X143.38 Y84.876 E.06643
G1 X142.846 Y84.876 E.01678
G1 X144.875 Y86.906 E.09019
G1 X144.876 Y87.441 E.01681
G1 X142.311 Y84.876 E.11398
G1 X141.777 Y84.876 E.01678
G1 X144.876 Y87.976 E.13773
G1 X144.876 Y88.51 E.01678
G1 X141.242 Y84.876 E.16148
G1 X140.708 Y84.876 E.01678
G1 X144.877 Y89.045 E.18526
G1 X144.877 Y89.58 E.01681
G1 X140.174 Y84.876 E.20901
G1 X139.639 Y84.876 E.01681
G1 X144.877 Y90.115 E.23278
G1 X144.878 Y90.65 E.01681
G1 X139.105 Y84.876 E.25656
G1 X138.57 Y84.876 E.01681
G1 X144.878 Y91.184 E.28031
G1 X144.879 Y91.719 E.01681
G1 X138.036 Y84.876 E.30408
G1 X137.501 Y84.876 E.01681
G1 X144.879 Y92.254 E.32786
G1 X144.879 Y92.789 E.01681
M73 Q1 S128
G1 X136.967 Y84.876 E.35161
G1 X136.433 Y84.876 E.01678
G1 X145.05 Y93.493 E.38292
M204 S1000
;WIPE_START
G1 F8640
G1 X142.6 Y91.043 E-.8
;WIPE_END
G1 Z.6 F720
G1 X146.543 Y95.522 F10800
G1 Z.2 F720
G1 E.8 F2100
M204 S800
G1 F1200
G1 X145.898 Y94.876 E.02868
G1 X145.762 Y94.876 E.00427
G1 X145.391 Y94.792 E.01195
G1 X145.188 Y94.658 E.00764
G1 X145.059 Y94.522 E.00589
G1 X144.942 Y94.321 E.00731
G1 X144.88 Y94.092 E.00745
G1 X144.88 Y93.858 E.00735
G1 X135.898 Y84.876 E.39913
G1 X135.364 Y84.876 E.01678
G1 X146.374 Y95.886 E.48925
G1 X146.374 Y96.421 E.01681
G1 X134.829 Y84.876 E.51303
G1 X134.295 Y84.876 E.01678
G1 X146.374 Y96.955 E.53676
G1 X146.374 Y97.49 E.01681
G1 X133.761 Y84.876 E.56051
G1 X133.226 Y84.876 E.01681
G1 X146.374 Y98.024 E.58426
G1 X146.374 Y98.558 E.01678
G1 X132.522 Y84.707 E.61552
M204 S1000
;WIPE_START
G1 F8640
G1 X134.972 Y87.157 E-.8
;WIPE_END
G1 Z.6 F720
G1 X131.643 Y75.277 F10800
G1 Z.2 F720
G1 E.8 F2100
M204 S800
G1 F1200
G1 X131.226 Y74.876 E.01818
G1 X131.226 Y75.395 E.01631
G1 X131.474 Y75.642 E.011
G1 X131.474 Y76.176 E.01678
G1 X131.226 Y75.929 E.011
G1 X131.226 Y76.464 E.01681
G1 X131.474 Y76.711 E.011
G1 X131.474 Y77.245 E.01678
G1 X131.226 Y76.998 E.011
G1 X131.226 Y77.533 E.01681
G1 X131.474 Y77.78 E.011
G1 X131.474 Y78.314 E.01678
G1 X131.226 Y78.067 E.011
G1 X131.226 Y78.601 E.01678
G1 X131.474 Y78.849 E.01102
G1 X131.474 Y79.383 E.01678
G1 X131.226 Y79.136 E.011
G1 X131.226 Y79.67 E.01678
G1 X131.474 Y79.917 E.011
G1 X131.474 Y80.452 E.01681
G1 X131.226 Y80.205 E.011
G1 X131.226 Y80.739 E.01678
G1 X131.474 Y80.986 E.011
G1 X131.474 Y81.521 E.01681
G1 X131.226 Y81.274 E.011
G1 X131.226 Y81.808 E.01678
G1 X131.474 Y82.055 E.011
G1 X131.474 Y82.59 E.01681
G1 X131.226 Y82.342 E.01102
G1 X131.226 Y82.877 E.01681
G1 X131.474 Y83.124 E.011
G1 X131.474 Y83.658 E.01678
G1 X131.226 Y83.411 E.011
G1 X131.226 Y83.946 E.01681
G1 X146.374 Y99.093 E.67311
G1 X146.374 Y99.624 E.01669
G1 X131.107 Y84.361 E.67833
G1 X131.042 Y84.525 E.00554
G1 X130.882 Y84.67 E.00678
G1 X145.836 Y99.624 E.66451
G1 X145.762 Y99.624 E.00233
G1 X145.388 Y99.71 E.01206
G1 X130.524 Y84.847 E.66049
G1 X130.333 Y84.876 E.00607
G1 X130.02 Y84.876 E.00984
G1 X145.092 Y99.949 E.66978
G1 X145.022 Y100.03 E.00336
G1 X144.907 Y100.299 E.00919
G1 X129.485 Y84.876 E.68533
G1 X128.95 Y84.876 E.01681
G1 X144.875 Y100.801 E.70766
G1 X144.875 Y101.335 E.01678
G1 X128.416 Y84.876 E.73139
G1 X127.881 Y84.876 E.01681
G1 X144.875 Y101.87 E.75517
G1 X144.875 Y102.404 E.01678
G1 X127.347 Y84.876 E.7789
G1 X126.812 Y84.876 E.01681
G1 X144.875 Y102.939 E.80267
G1 X144.875 Y103.473 E.01678
G1 X126.278 Y84.876 E.8264
G1 X125.743 Y84.876 E.01681
G1 X144.875 Y104.007 E.85015
G1 X144.875 Y104.542 E.01681
G1 X125.209 Y84.876 E.8739
G1 X124.674 Y84.875 E.01681
G1 X144.875 Y105.076 E.89768
G1 X144.875 Y105.611 E.01681
G1 X124.14 Y84.875 E.92143
G1 X123.605 Y84.875 E.01681
G1 X144.875 Y106.145 E.94518
G1 X144.875 Y106.679 E.01678
G1 X123.071 Y84.875 E.96891
G1 X122.536 Y84.875 E.01681
G1 X144.875 Y107.214 E.99268
G1 X144.875 Y107.748 E.01678
G1 X122.002 Y84.875 E1.01641
G1 X121.467 Y84.875 E.01681
M73 P1 R126
G1 X144.875 Y108.283 E1.04019
G1 X144.875 Y108.817 E.01678
G1 X120.933 Y84.875 E1.06392
G1 X120.398 Y84.875 E.01681
G1 X144.875 Y109.351 E1.08767
G1 X144.875 Y109.886 E.01681
G1 X119.694 Y84.705 E1.11897
M204 S1000
;WIPE_START
G1 F8640
G1 X122.144 Y87.155 E-.8
;WIPE_END
G1 Z.6 F720
G1 X118.943 Y75.403 F10800
G1 Z.2 F720
G1 E.8 F2100
M204 S800
G1 F1200
G1 X118.526 Y74.987 E.01851
G1 X118.526 Y75.521 E.01678
G1 X118.774 Y75.768 E.011
G1 X118.774 Y76.303 E.01681
G1 X118.526 Y76.055 E.01102
G1 X118.526 Y76.59 E.01681
G1 X118.774 Y76.837 E.011
G1 X118.774 Y77.371 E.01678
G1 X118.526 Y77.124 E.011
G1 X118.526 Y77.659 E.01681
G1 X118.774 Y77.906 E.011
G1 X118.774 Y78.44 E.01678
G1 X118.526 Y78.193 E.011
G1 X118.526 Y78.728 E.01681
G1 X118.774 Y78.975 E.011
G1 X118.774 Y79.509 E.01678
G1 X118.526 Y79.262 E.011
G1 X118.526 Y79.796 E.01678
G1 X118.774 Y80.043 E.011
G1 X118.774 Y80.578 E.01681
G1 X118.526 Y80.331 E.011
G1 X118.526 Y80.865 E.01678
G1 X118.774 Y81.112 E.011
G1 X118.774 Y81.647 E.01681
G1 X118.526 Y81.4 E.011
G1 X118.526 Y81.934 E.01678
G1 X118.774 Y82.181 E.011
G1 X118.774 Y82.716 E.01681
G1 X118.526 Y82.468 E.01102
G1 X118.526 Y83.003 E.01681
G1 X118.774 Y83.25 E.011
G1 X118.774 Y83.784 E.01678
G1 X118.526 Y83.537 E.011
G1 X118.522 Y84.068 E.01669
G1 X144.875 Y110.42 E1.17103
G1 X144.875 Y110.954 E.01678
G1 X118.371 Y84.451 E1.17774
G1 X118.342 Y84.525 E.0025
G1 X118.116 Y84.73 E.00959
G1 X144.875 Y111.489 E1.1891
G1 X144.875 Y112.023 E.01678
G1 X117.715 Y84.864 E1.20689
G1 X117.193 Y84.876 E.01641
G1 X144.875 Y112.558 E1.23011
G1 X144.875 Y113.092 E.01678
G1 X116.659 Y84.876 E1.25384
G1 X116.125 Y84.876 E.01678
G1 X144.875 Y113.626 E1.27757
G1 X144.875 Y114.161 E.01681
G1 X115.59 Y84.876 E1.30134
G1 X115.056 Y84.876 E.01678
M73 P2 R126
M73 Q1 S127
G1 X144.875 Y114.695 E1.32507
G1 X144.875 Y115.23 E.01681
