; generated by PrusaSlicer 2.9.2 on 2025-04-12 at 15:32:36 UTC


;
;
; 

; external perimeters extrusion width = 0.45mm
; perimeters extrusion width = 0.45mm
; infill extrusion width = 0.45mm
; solid infill extrusion width = 0.45mm
; top infill extrusion width = 0.40mm
; support material extrusion width = 0.35mm
; first layer extrusion width = 0.42mm

M73 P0 R230
M73 Q0 S234
M201 X1000 Y1000 Z200 E5000 ; sets maximum accelerations, mm/sec^2
M203 X200 Y200 Z12 E120 ; sets maximum feedrates, mm / sec
M204 S1250 T1250 ; sets acceleration (S) and retract acceleration (R), mm/sec^2
M205 X8.00 Y8.00 Z0.40 E4.50 ; sets the jerk limits, mm/sec
M205 S0 T0 ; sets the minimum extruding and travel feed rate, mm/sec

; printing object R Thigh.STL id:0 copy 0
; stop printing object R Thigh.STL id:0 copy 0

;TYPE:Custom
M862.3 P "MK3S" ; printer model check
M862.1 P0.4 ; nozzle diameter check
M115 U3.14.1 ; tell printer latest fw version
G90 ; use absolute coordinates
M83 ; extruder relative mode
M104 S215 ; set extruder temp
M140 S60 ; set bed temp
M190 S60 ; wait for bed temp
M109 S215 ; wait for extruder temp
G28 W ; home all without mesh bed level
G80 X89.6875 Y37.3883 W66.6896 H133.739 ; mesh bed levelling

G1 Z0.2 F720
G1 Y-3 F1000 ; go outside print area
G92 E0
G1 X60 E9 F1000 ; intro line
G1 X100 E12.5 F1000 ; intro line

G92 E0
M221 S95

; Don't change E values below. Excessive value can damage the printer.

G21 ; set units to millimeters
G90 ; use absolute coordinates
M83 ; use relative distances for extrusion

M900 K0.05 ; Filament gcode LA 1.5
M900 K30 ; Filament gcode LA 1.0




M107
;LAYER_CHANGE
;Z:0.2
;HEIGHT:0.2
G1 E-.8 F2100
G1 Z.6 F720
G1 X90.267 Y38.517 F10800
G1 Z.2 F720
G1 E.8 F2100
M204 S800
;TYPE:Skirt/Brim
;WIDTH:0.42
G1 F1200
G1 X91.3 Y37.715 E.041
G1 X92.065 Y37.577 E.02437
G1 X104.939 Y37.578 E.40366
G1 X154.066 Y39.062 E1.54105
G1 X155.302 Y39.491 E.04102
G1 X156.073 Y40.548 E.04102
G1 X156.189 Y41.25 E.02231
G1 X156.187 Y86.33 E1.41345
G1 X153.201 Y168.007 E2.56264
G1 X152.765 Y169.241 E.04104
G1 X151.094 Y170.115 E.05913
G1 X128.58 Y170.937 E.70638
G1 X121.5 Y170.939 E.22199
G1 X103.813 Y169.431 E.55658
G1 X102.649 Y168.971 E.03924
G1 X97.634 Y165.035 E.19989
G1 X96.803 Y163.466 E.05567
G1 X89.881 Y64.261 E3.11807
G1 X89.876 Y39.765 E.76805
M73 Q0 S233
G1 X90.249 Y38.574 E.03913
M204 S1000
;WIPE_START
G1 F8640
G1 X90.267 Y38.517 E-.0138
G1 X91.3 Y37.715 E-.30197
G1 X92.065 Y37.577 E-.17949
G1 X93.385 Y37.577 E-.30474
;WIPE_END
G1 Z.6 F720
; printing object R Thigh.STL id:0 copy 0
G1 X151.014 Y167.928 F10800
G1 Z.2 F720
G1 E.8 F2100
M204 S800
;TYPE:Support material
G1 F1200
G1 X144.941 Y167.928 E.19041
G1 X145.138 Y167.73 E.00876
G1 X146.199 Y167.73 E.03327
G1 X146.48 Y167.449 E.01246
G1 X146.48 Y141.277 E.8206
G1 X151.014 Y141.277 E.14216
G1 X151.014 Y167.871 E.83384
M204 S1000
G1 X150.558 Y167.758 F10800
M204 S800
G1 F1200
G1 X150.558 Y141.616 E.81966
G1 X150.139 Y141.616 E.01314
G1 X150.139 Y167.588 E.81433
G1 X149.72 Y167.588 E.01314
G1 X149.72 Y141.616 E.81433
G1 X149.301 Y141.616 E.01314
G1 X149.301 Y167.588 E.81433
G1 X148.882 Y167.588 E.01314
G1 X148.882 Y141.616 E.81433
G1 X148.463 Y141.616 E.01314
G1 X148.463 Y167.588 E.81433
G1 X148.044 Y167.588 E.01314
G1 X148.044 Y141.616 E.81433
G1 X147.625 Y141.616 E.01314
G1 X147.625 Y167.588 E.81433
G1 X147.206 Y167.588 E.01314
M73 P0 R229
G1 X147.206 Y141.447 E.81963
M204 S1000
;WIPE_START
G1 F8640
G1 X147.206 Y144.912 E-.8
;WIPE_END
G1 Z.6 F720
G1 X144.093 Y115.77 F10800
G1 Z.2 F720
G1 E.8 F2100
M204 S800
G1 F1200
G1 X141.48 Y115.77 E.08193
G1 X141.48 Y86.73 E.91053
G1 X144.093 Y86.73 E.08193
G1 X144.093 Y115.713 E.90874
M204 S1000
G1 X143.435 Y115.6 F10800
M204 S800
G1 F1200
G1 X143.435 Y87.069 E.89457
G1 X143.016 Y87.069 E.01314
G1 X143.016 Y115.431 E.88927
G1 X142.597 Y115.431 E.01314
G1 X142.597 Y87.069 E.88927
G1 X142.178 Y87.069 E.01314
G1 X142.178 Y115.6 E.89457
M204 S1000
;WIPE_START
G1 F8640
G1 X142.178 Y112.135 E-.8
;WIPE_END
G1 Z.6 F720
G1 X135.52 Y115.77 F10800
G1 Z.2 F720
G1 E.8 F2100
M204 S800
G1 F1200
G1 X131.285 Y115.77 E.13279
G1 X131.285 Y86.73 E.91053
G1 X135.52 Y86.73 E.13279
G1 X135.52 Y115.713 E.90874
M204 S1000
G1 X135.055 Y115.6 F10800
M204 S800
G1 F1200
G1 X135.055 Y87.069 E.89457
G1 X134.636 Y87.069 E.01314
G1 X134.636 Y115.431 E.88927
G1 X134.217 Y115.431 E.01314
G1 X134.217 Y87.069 E.88927
G1 X133.799 Y87.069 E.01311
G1 X133.799 Y115.431 E.88927
G1 X133.38 Y115.431 E.01314
G1 X133.38 Y87.069 E.88927
G1 X132.961 Y87.069 E.01314
G1 X132.961 Y115.431 E.88927
G1 X132.542 Y115.431 E.01314
G1 X132.542 Y87.069 E.88927
G1 X132.123 Y87.069 E.01314
G1 X132.123 Y115.431 E.88927
G1 X131.704 Y115.431 E.01314
G1 X131.704 Y86.9 E.89457
M204 S1000
;WIPE_START
G1 F8640
G1 X131.704 Y90.365 E-.8
;WIPE_END
G1 Z.6 F720
G1 X118.715 Y115.77 F10800
G1 Z.2 F720
G1 E.8 F2100
M204 S800
G1 F1200
G1 X114.48 Y115.77 E.13279
G1 X114.48 Y86.73 E.91053
G1 X118.715 Y86.73 E.13279
G1 X118.715 Y115.713 E.90874
M204 S1000
G1 X118.296 Y115.6 F10800
M204 S800
G1 F1200
G1 X118.296 Y87.069 E.89457
G1 X117.877 Y87.069 E.01314
G1 X117.877 Y115.431 E.88927
G1 X117.458 Y115.431 E.01314
G1 X117.458 Y87.069 E.88927
G1 X117.039 Y87.069 E.01314
G1 X117.039 Y115.431 E.88927
G1 X116.62 Y115.431 E.01314
G1 X116.62 Y87.069 E.88927
G1 X116.201 Y87.069 E.01314
M73 Q0 S232
G1 X116.201 Y115.431 E.88927
G1 X115.783 Y115.431 E.01311
G1 X115.783 Y87.069 E.88927
G1 X115.364 Y87.069 E.01314
G1 X115.364 Y115.431 E.88927
G1 X114.945 Y115.431 E.01314
G1 X114.945 Y86.9 E.89457
M204 S1000
;WIPE_START
G1 F8640
G1 X114.945 Y90.365 E-.8
;WIPE_END
G1 Z.6 F720
G1 X104.873 Y64.109 F10800
G1 Z.2 F720
G1 E.8 F2100
M204 S800
G1 F1200
G1 X101.48 Y64.109 E.10639
G1 X101.48 Y41.051 E.72297
G1 X101.199 Y40.77 E.01246
G1 X99.078 Y40.77 E.0665
G1 X98.5 Y40.192 E.02563
G1 X97.922 Y40.77 E.02563
G1 X95.801 Y40.77 E.0665
G1 X95.52 Y41.051 E.01246
G1 X95.52 Y64.109 E.72297
G1 X92.065 Y64.109 E.10833
G1 X92.065 Y39.765 E.76329
G1 X104.873 Y39.765 E.40159
G1 X104.873 Y64.052 E.7615
M204 S1000
G1 X104.47 Y63.939 F10800
M204 S800
G1 F1200
G1 X104.47 Y40.105 E.7473
G1 X104.051 Y40.105 E.01314
G1 X104.051 Y63.77 E.742
G1 X103.632 Y63.77 E.01314
G1 X103.632 Y40.105 E.742
G1 X103.213 Y40.105 E.01314
G1 X103.213 Y63.77 E.742
G1 X102.794 Y63.77 E.01314
G1 X102.794 Y40.105 E.742
G1 X102.375 Y40.105 E.01314
G1 X102.375 Y63.77 E.742
G1 X101.956 Y63.77 E.01314
M73 P0 R228
G1 X101.956 Y40.105 E.742
G1 X101.537 Y40.105 E.01314
G1 X101.537 Y40.629 E.01643
G1 X101.339 Y40.431 E.00878
G1 X101.118 Y40.431 E.00693
G1 X101.118 Y40.105 E.01022
G1 X100.699 Y40.105 E.01314
G1 X100.699 Y40.431 E.01022
G1 X100.28 Y40.431 E.01314
G1 X100.28 Y40.105 E.01022
G1 X99.861 Y40.105 E.01314
G1 X99.861 Y40.431 E.01022
G1 X99.442 Y40.431 E.01314
G1 X99.442 Y40.105 E.01022
G1 X99.023 Y40.105 E.01314
G1 X99.023 Y40.476 E.01163
M204 S1000
;WIPE_START
G1 F8640
G1 X99.023 Y40.105 E-.08566
G1 X99.442 Y40.105 E-.09675
G1 X99.442 Y40.431 E-.07527
G1 X99.861 Y40.431 E-.09675
G1 X99.861 Y40.105 E-.07527
G1 X100.28 Y40.105 E-.09675
G1 X100.28 Y40.431 E-.07527
G1 X100.699 Y40.431 E-.09675
G1 X100.699 Y40.105 E-.07527
G1 X100.813 Y40.105 E-.02626
;WIPE_END
G1 Z.6 F720
G1 X97.767 Y40.6 F10800
G1 Z.2 F720
G1 E.8 F2100
M204 S800
G1 F1200
G1 X97.767 Y40.105 E.01552
G1 X97.348 Y40.105 E.01314
G1 X97.348 Y40.431 E.01022
G1 X96.929 Y40.431 E.01314
G1 X96.929 Y40.105 E.01022
G1 X96.51 Y40.105 E.01314
G1 X96.51 Y40.431 E.01022
G1 X96.091 Y40.431 E.01314
G1 X96.091 Y40.105 E.01022
G1 X95.672 Y40.105 E.01314
G1 X95.672 Y40.431 E.01022
G1 X95.253 Y40.839 E.01834
G1 X95.253 Y40.105 E.02301
G1 X94.834 Y40.105 E.01314
G1 X94.834 Y63.77 E.742
G1 X94.415 Y63.77 E.01314
G1 X94.415 Y40.105 E.742
G1 X93.996 Y40.105 E.01314
G1 X93.996 Y63.77 E.742
G1 X93.577 Y63.77 E.01314
G1 X93.577 Y40.105 E.742
G1 X93.158 Y40.105 E.01314
G1 X93.158 Y63.77 E.742
G1 X92.739 Y63.77 E.01314
G1 X92.739 Y39.935 E.74733
M204 S1000
;WIPE_START
G1 F8640
G1 X92.739 Y43.4 E-.8
;WIPE_END
G1 Z.6 F720
G1 X148.52 Y57.188 F10800
G1 Z.2 F720
G1 E.8 F2100
M204 S800
G1 F1200
G1 X140.513 Y57.188 E.25105
G1 X140.513 Y44.38 E.40159
G1 X148.52 Y44.38 E.25105
G1 X148.52 Y57.131 E.3998
M204 S1000
G1 X148.044 Y57.018 F10800
M204 S800
G1 F1200
G1 X148.044 Y44.719 E.38563
G1 X147.625 Y44.719 E.01314
G1 X147.625 Y56.848 E.3803
G1 X147.206 Y56.848 E.01314
G1 X147.206 Y44.719 E.3803
G1 X146.787 Y44.719 E.01314
G1 X146.787 Y56.848 E.3803
G1 X146.368 Y56.848 E.01314
G1 X146.368 Y44.719 E.3803
G1 X145.949 Y44.719 E.01314
G1 X145.949 Y56.848 E.3803
G1 X145.53 Y56.848 E.01314
G1 X145.53 Y44.719 E.3803
G1 X145.111 Y44.719 E.01314
G1 X145.111 Y56.848 E.3803
G1 X144.692 Y56.848 E.01314
G1 X144.692 Y44.719 E.3803
G1 X144.273 Y44.719 E.01314
G1 X144.273 Y56.848 E.3803
G1 X143.854 Y56.848 E.01314
G1 X143.854 Y44.719 E.3803
G1 X143.435 Y44.719 E.01314
G1 X143.435 Y56.848 E.3803
G1 X143.016 Y56.848 E.01314
G1 X143.016 Y44.719 E.3803
G1 X142.597 Y44.719 E.01314
G1 X142.597 Y56.848 E.3803
G1 X142.178 Y56.848 E.01314
G1 X142.178 Y44.719 E.3803
G1 X141.759 Y44.719 E.01314
G1 X141.759 Y56.848 E.3803
G1 X141.34 Y56.848 E.01314
G1 X141.34 Y44.719 E.3803
G1 X140.921 Y44.719 E.01314
G1 X140.921 Y57.018 E.38563
M204 S1000
;WIPE_START
G1 F8640
G1 X140.921 Y53.553 E-.8
;WIPE_END
G1 Z.6 F720
G1 X108.52 Y115.77 F10800
G1 Z.2 F720
G1 E.8 F2100
M204 S800
G1 F1200
G1 X105.907 Y115.77 E.08193
G1 X105.907 Y86.73 E.91053
G1 X108.52 Y86.73 E.08193
G1 X108.52 Y115.713 E.90874
M204 S1000
G1 X107.822 Y115.6 F10800
M204 S800
G1 F1200
G1 X107.822 Y87.069 E.89457
G1 X107.403 Y87.069 E.01314
G1 X107.403 Y115.431 E.88927
G1 X106.984 Y115.431 E.01314
G1 X106.984 Y87.069 E.88927
G1 X106.565 Y87.069 E.01314
G1 X106.565 Y115.6 E.89457
M204 S1000
;WIPE_START
G1 F8640
G1 X106.565 Y112.135 E-.8
;WIPE_END
G1 Z.6 F720
G1 X103.52 Y163.313 F10800
G1 Z.2 F720
G1 E.8 F2100
M204 S800
G1 F1200
G1 X98.986 Y163.313 E.14216
G1 X98.986 Y143.584 E.61859
G1 X103.52 Y143.584 E.14216
G1 X103.52 Y163.257 E.61683
M204 S1000
G1 X102.794 Y163.144 F10800
M204 S800
G1 F1200
G1 X102.794 Y143.923 E.60266
G1 X102.375 Y143.923 E.01314
M73 P1 R228
G1 X102.375 Y162.974 E.59733
G1 X101.956 Y162.974 E.01314
M73 Q1 S231
G1 X101.956 Y143.923 E.59733
G1 X101.537 Y143.923 E.01314
G1 X101.537 Y162.974 E.59733
G1 X101.118 Y162.974 E.01314
G1 X101.118 Y143.923 E.59733
G1 X100.699 Y143.923 E.01314
G1 X100.699 Y162.974 E.59733
G1 X100.28 Y162.974 E.01314
G1 X100.28 Y143.923 E.59733
G1 X99.861 Y143.923 E.01314
G1 X99.861 Y162.974 E.59733
G1 X99.442 Y162.974 E.01314
G1 X99.442 Y143.754 E.60263
M204 S1000
;WIPE_START
G1 F8640
G1 X99.442 Y147.219 E-.8
;WIPE_END
G1 Z.6 F720
G1 X136.599 Y85.635 F10800
G1 Z.2 F720
G1 E.8 F2100
M204 S800
;TYPE:Perimeter
;WIDTH:0.419999
G1 F1200
G1 X136.674 Y85.689 E.0029
G1 X136.751 Y85.83 E.00504
G1 X136.787 Y86.029 E.00634
G1 X136.787 Y116.471 E.95449
G1 X136.705 Y116.765 E.00957
G1 X136.494 Y116.967 E.00916
G1 X136.221 Y117.037 E.00884
G1 X113.779 Y117.037 E.70365
G1 X113.506 Y116.967 E.00884
G1 X113.295 Y116.765 E.00916
G1 X113.213 Y116.471 E.00957
G1 X113.213 Y86.029 E.95449
G1 X113.249 Y85.83 E.00634
G1 X113.439 Y85.576 E.00995
G1 X113.681 Y85.471 E.00827
G1 X113.779 Y85.463 E.00308
G1 X136.221 Y85.463 E.70365
G1 X136.405 Y85.493 E.00585
G1 X136.551 Y85.6 E.00568
M204 S1000
G1 X136.324 Y85.891 F10800
M204 S800
;TYPE:External perimeter
G1 F1200
G1 X136.372 Y85.915 E.00168
G1 X136.41 Y86.029 E.00377
G1 X136.41 Y116.471 E.95449
G1 X136.341 Y116.617 E.00506
G1 X136.221 Y116.66 E.004
G1 X113.779 Y116.66 E.70365
G1 X113.639 Y116.598 E.0048
G1 X113.59 Y116.471 E.00427
G1 X113.59 Y86.029 E.95449
G1 X113.665 Y85.878 E.00529
G1 X113.779 Y85.84 E.00377
G1 X136.221 Y85.84 E.70365
G1 X136.271 Y85.865 E.00175
M204 S1000
;WIPE_START
G1 F8640
G1 X136.324 Y85.891 E-.01363
G1 X136.372 Y85.915 E-.01239
G1 X136.41 Y86.029 E-.02775
G1 X136.41 Y89.261 E-.74623
;WIPE_END
G1 Z.6 F720
G1 X100.366 Y81.847 F10800
G1 Z.2 F720
G1 E.8 F2100
M204 S800
;TYPE:Perimeter
G1 F1200
G1 X100.379 Y81.871 E.00086
G1 X100.554 Y81.991 E.00665
G1 X100.779 Y82.037 E.0072
G1 X149.221 Y82.037 E1.51886
G1 X149.319 Y82.029 E.00308
M73 P1 R227
G1 X149.621 Y81.871 E.01069
G1 X149.741 Y81.696 E.00665
G1 X149.787 Y81.471 E.0072
G1 X149.787 Y42.037 E1.23642
G1 X153.213 Y42.037 E.10742
G1 X153.213 Y43.75 E.05371
G1 X153.213 Y85.463 E1.30788
G1 X140.779 Y85.463 E.38986
G1 X140.681 Y85.471 E.00308
G1 X140.439 Y85.576 E.00827
G1 X140.249 Y85.83 E.00995
G1 X140.213 Y86.029 E.00634
G1 X140.213 Y116.471 E.95449
G1 X140.295 Y116.765 E.00957
G1 X140.506 Y116.967 E.00916
G1 X140.779 Y117.037 E.00884
G1 X145.213 Y117.037 E.13902
G1 X145.214 Y126.511 E.29705
G1 X145.306 Y126.782 E.00897
G1 X145.533 Y126.981 E.00947
G1 X145.779 Y127.037 E.00791
G1 X146.713 Y127.037 E.02928
G1 X146.713 Y132.463 E.17013
G1 X145.779 Y132.463 E.02928
G1 X145.533 Y132.519 E.00791
G1 X145.409 Y132.601 E.00466
G1 X145.275 Y132.771 E.00679
G1 X145.213 Y133.029 E.00832
G1 X145.213 Y166.463 E1.0483
G1 X128.21 Y166.467 E.53312
G1 X127.943 Y166.574 E.00902
G1 X127.769 Y166.783 E.00853
G1 X127.713 Y167.029 E.00791
G1 X127.713 Y167.963 E.02928
G1 X122.287 Y167.963 E.17013
G1 X122.287 Y167.029 E.02928
G1 X122.231 Y166.783 E.00791
G1 X122.149 Y166.659 E.00466
G1 X121.991 Y166.531 E.00638
G1 X121.721 Y166.463 E.00873
G1 X104.787 Y166.463 E.53095
G1 X104.787 Y133.029 E1.0483
G1 X104.785 Y132.976 E.00166
G1 X104.694 Y132.718 E.00858
G1 X104.467 Y132.519 E.00947
G1 X104.221 Y132.463 E.00791
G1 X103.287 Y132.463 E.02928
G1 X103.287 Y127.037 E.17013
G1 X104.221 Y127.037 E.02928
G1 X104.467 Y126.981 E.00791
G1 X104.591 Y126.899 E.00466
G1 X104.725 Y126.729 E.00679
G1 X104.787 Y126.471 E.00832
G1 X104.787 Y117.037 E.2958
G1 X109.221 Y117.037 E.13902
G1 X109.494 Y116.967 E.00884
G1 X109.705 Y116.765 E.00916
G1 X109.787 Y116.471 E.00957
G1 X109.787 Y86.029 E.95449
G1 X109.751 Y85.83 E.00634
G1 X109.674 Y85.689 E.00504
G1 X109.405 Y85.493 E.01044
G1 X109.221 Y85.463 E.00585
G1 X96.787 Y85.463 E.38986
G1 X96.787 Y42.037 E1.36159
G1 X100.213 Y42.037 E.10742
G1 X100.213 Y81.471 E1.23642
G1 X100.221 Y81.569 E.00308
G1 X100.338 Y81.794 E.00795
M204 S1000
G1 X100.632 Y81.572 F10800
M204 S800
;TYPE:External perimeter
G1 F1200
G1 X100.645 Y81.605 E.00111
G1 X100.779 Y81.66 E.00454
G1 X149.221 Y81.66 E1.51886
G1 X149.355 Y81.605 E.00454
G1 X149.41 Y81.471 E.00454
G1 X149.41 Y41.66 E1.24824
G1 X153.59 Y41.66 E.13106
G1 X153.59 Y43.75 E.06553
G1 X153.59 Y85.84 E1.3197
G1 X140.779 Y85.84 E.40168
G1 X140.665 Y85.878 E.00377
G1 X140.59 Y86.029 E.00529
G1 X140.59 Y116.471 E.95449
G1 X140.639 Y116.598 E.00427
G1 X140.779 Y116.66 E.0048
G1 X145.59 Y116.66 E.15085
G1 X145.59 Y126.471 E.30762
G1 X145.629 Y126.586 E.00381
G1 X145.779 Y126.66 E.00524
G1 X147.09 Y126.66 E.04111
G1 X147.09 Y132.84 E.19377
G1 X145.779 Y132.84 E.04111
G1 X145.655 Y132.886 E.00415
G1 X145.59 Y133.029 E.00493
G1 X145.59 Y166.84 E1.06012
G1 X128.279 Y166.84 E.54277
G1 X128.167 Y166.877 E.0037
G1 X128.09 Y167.029 E.00534
G1 X128.09 Y168.34 E.04111
G1 X121.91 Y168.34 E.19377
G1 X121.91 Y167.029 E.04111
G1 X121.864 Y166.905 E.00415
G1 X121.721 Y166.84 E.00493
G1 X104.41 Y166.84 E.54277
G1 X104.41 Y133.029 E1.06012
G1 X104.371 Y132.914 E.00381
G1 X104.221 Y132.84 E.00524
G1 X102.91 Y132.84 E.04111
G1 X102.91 Y126.66 E.19377
G1 X104.221 Y126.66 E.04111
M73 Q1 S230
G1 X104.345 Y126.614 E.00415
G1 X104.41 Y126.471 E.00493
G1 X104.41 Y116.66 E.30762
G1 X109.221 Y116.66 E.15085
G1 X109.341 Y116.617 E.004
G1 X109.41 Y116.471 E.00506
G1 X109.41 Y86.029 E.95449
G1 X109.372 Y85.915 E.00377
G1 X109.221 Y85.84 E.00529
G1 X96.41 Y85.84 E.40168
G1 X96.41 Y41.66 E1.38523
G1 X100.59 Y41.66 E.13106
G1 X100.59 Y81.471 E1.24824
G1 X100.609 Y81.517 E.00156
M204 S1000
;WIPE_START
G1 F8640
G1 X100.632 Y81.572 E-.01377
G1 X100.645 Y81.605 E-.00819
G1 X100.779 Y81.66 E-.03345
G1 X104.004 Y81.66 E-.74459
;WIPE_END
G1 Z.6 F720
G1 X100.043 Y42.763 F10800
G1 Z.2 F720
G1 E.8 F2100
M204 S800
;TYPE:Solid infill
;WIDTH:0.420003
G1 F1200
G1 X99.656 Y42.376 E.01716
G1 X99.123 Y42.376 E.01671
G1 X99.874 Y43.127 E.0333
