; generated by PrusaSlicer 2.9.2 on 2025-04-11 at 03:25:18 UTC


;
;
; 

; external perimeters extrusion width = 0.45mm
; perimeters extrusion width = 0.45mm
; infill extrusion width = 0.45mm
; solid infill extrusion width = 0.45mm
; top infill extrusion width = 0.40mm
; support material extrusion width = 0.35mm
; first layer extrusion width = 0.42mm

M73 P0 R227
M73 Q0 S231
M201 X1000 Y1000 Z200 E5000 ; sets maximum accelerations, mm/sec^2
M203 X200 Y200 Z12 E120 ; sets maximum feedrates, mm / sec
M204 S1250 T1250 ; sets acceleration (S) and retract acceleration (R), mm/sec^2
M205 X8.00 Y8.00 Z0.40 E4.50 ; sets the jerk limits, mm/sec
M205 S0 T0 ; sets the minimum extruding and travel feed rate, mm/sec

; printing object R Thigh.STL id:0 copy 0
; stop printing object R Thigh.STL id:0 copy 0

;TYPE:Custom
M862.3 P "MK3S" ; printer model check
M862.1 P0.4 ; nozzle diameter check
M115 U3.14.1 ; tell printer latest fw version
G90 ; use absolute coordinates
M83 ; extruder relative mode
M104 S215 ; set extruder temp
M140 S60 ; set bed temp
M190 S60 ; wait for bed temp
M109 S215 ; wait for extruder temp
G28 W ; home all without mesh bed level
G80 X89.6875 Y35.0813 W66.6896 H136.546 ; mesh bed levelling

G1 Z0.2 F720
G1 Y-3 F1000 ; go outside print area
G92 E0
G1 X60 E9 F1000 ; intro line
G1 X100 E12.5 F1000 ; intro line

G92 E0
M221 S95

; Don't change E values below. Excessive value can damage the printer.

G21 ; set units to millimeters
G90 ; use absolute coordinates
M83 ; use relative distances for extrusion

M900 K0.05 ; Filament gcode LA 1.5
M900 K30 ; Filament gcode LA 1.0




M107
;LAYER_CHANGE
;Z:0.2
;HEIGHT:0.2
G1 E-.8 F2100
G1 Z.6 F720
G1 X90.267 Y36.21 F10800
G1 Z.2 F720
G1 E.8 F2100
M204 S800
;TYPE:Skirt/Brim
;WIDTH:0.42
G1 F1200
G1 X91.3 Y35.408 E.041
G1 X92.065 Y35.27 E.02437
G1 X105.019 Y35.275 E.40616
G1 X154.146 Y38.566 E1.54379
G1 X155.366 Y39.04 E.04104
G1 X156.189 Y40.75 E.0595
G1 X156.184 Y85.895 E1.41549
G1 X150.891 Y165.765 E2.50976
G1 X150.418 Y166.985 E.04103
M73 Q0 S230
G1 X149.345 Y167.714 E.04067
G1 X145.31 Y168.917 E.13202
G1 X127.81 Y171.417 E.55427
G1 X122.19 Y171.417 E.17621
G1 X104.69 Y168.917 E.55427
G1 X103.512 Y168.355 E.04092
G1 X99.805 Y164.918 E.1585
G1 X99.114 Y163.516 E.04901
G1 X89.885 Y64.312 E3.1239
G1 X89.876 Y37.458 E.84199
G1 X90.249 Y36.267 E.03913
M204 S1000
;WIPE_START
G1 F8640
G1 X90.267 Y36.21 E-.0138
G1 X91.3 Y35.408 E-.30197
G1 X92.065 Y35.27 E-.17949
G1 X93.385 Y35.27 E-.30474
;WIPE_END
G1 Z.6 F720
; printing object R Thigh.STL id:0 copy 0
G1 X148.707 Y165.62 F10800
G1 Z.2 F720
G1 E.8 F2100
M204 S800
;TYPE:Support material
G1 F1200
G1 X145.48 Y165.62 E.10118
G1 X145.48 Y141.277 E.76326
G1 X148.707 Y141.277 E.10118
G1 X148.707 Y165.564 E.7615
M204 S1000
G1 X148.044 Y165.451 F10800
M204 S800
G1 F1200
G1 X148.044 Y141.616 E.74733
G1 X147.625 Y141.616 E.01314
G1 X147.625 Y165.281 E.742
G1 X147.206 Y165.281 E.01314
G1 X147.206 Y141.616 E.742
G1 X146.787 Y141.616 E.01314
G1 X146.787 Y165.281 E.742
G1 X146.368 Y165.281 E.01314
G1 X146.368 Y141.616 E.742
G1 X145.949 Y141.616 E.01314
G1 X145.949 Y165.451 E.74733
M204 S1000
;WIPE_START
G1 F8640
G1 X145.949 Y161.986 E-.8
;WIPE_END
G1 Z.6 F720
G1 X104.52 Y163.313 F10800
G1 Z.2 F720
G1 E.8 F2100
M204 S800
G1 F1200
G1 X101.293 Y163.313 E.10118
G1 X101.293 Y143.584 E.61859
G1 X104.52 Y143.584 E.10118
G1 X104.52 Y163.257 E.61683
M204 S1000
G1 X104.051 Y163.144 F10800
M204 S800
G1 F1200
G1 X104.051 Y143.923 E.60266
G1 X103.632 Y143.923 E.01314
G1 X103.632 Y162.974 E.59733
G1 X103.213 Y162.974 E.01314
G1 X103.213 Y143.923 E.59733
G1 X102.794 Y143.923 E.01314
G1 X102.794 Y162.974 E.59733
M73 P0 R226
G1 X102.375 Y162.974 E.01314
G1 X102.375 Y143.923 E.59733
G1 X101.956 Y143.923 E.01314
G1 X101.956 Y163.144 E.60266
M204 S1000
;WIPE_START
G1 F8640
G1 X101.956 Y159.679 E-.8
;WIPE_END
G1 Z.6 F720
G1 X109.52 Y115.27 F10800
G1 Z.2 F720
G1 E.8 F2100
M204 S800
G1 F1200
G1 X105.907 Y115.27 E.11328
G1 X105.907 Y86.23 E.91053
G1 X109.52 Y86.23 E.11328
G1 X109.52 Y115.213 E.90874
M204 S1000
G1 X109.079 Y115.1 F10800
M204 S800
G1 F1200
G1 X109.079 Y86.569 E.89457
G1 X108.66 Y86.569 E.01314
G1 X108.66 Y114.931 E.88927
G1 X108.241 Y114.931 E.01314
G1 X108.241 Y86.569 E.88927
G1 X107.822 Y86.569 E.01314
G1 X107.822 Y114.931 E.88927
G1 X107.403 Y114.931 E.01314
G1 X107.403 Y86.569 E.88927
G1 X106.984 Y86.569 E.01314
G1 X106.984 Y114.931 E.88927
G1 X106.565 Y114.931 E.01314
G1 X106.565 Y86.4 E.89457
M204 S1000
;WIPE_START
G1 F8640
G1 X106.565 Y89.865 E-.8
;WIPE_END
G1 Z.6 F720
G1 X104.873 Y64.109 F10800
G1 Z.2 F720
G1 E.8 F2100
M204 S800
G1 F1200
G1 X101.48 Y64.109 E.10639
G1 X101.48 Y40.551 E.73864
G1 X101.199 Y40.27 E.01246
G1 X95.801 Y40.27 E.16925
G1 X95.52 Y40.551 E.01246
G1 X95.52 Y64.109 E.73864
G1 X92.065 Y64.109 E.10833
G1 X92.065 Y37.458 E.83562
G1 X104.873 Y37.458 E.40159
G1 X104.873 Y64.052 E.83384
M204 S1000
G1 X104.47 Y63.939 F10800
M204 S800
G1 F1200
G1 X104.47 Y37.798 E.81963
G1 X104.051 Y37.798 E.01314
G1 X104.051 Y63.77 E.81433
G1 X103.632 Y63.77 E.01314
G1 X103.632 Y37.798 E.81433
G1 X103.213 Y37.798 E.01314
G1 X103.213 Y63.77 E.81433
G1 X102.794 Y63.77 E.01314
G1 X102.794 Y37.798 E.81433
G1 X102.375 Y37.798 E.01314
G1 X102.375 Y63.77 E.81433
G1 X101.956 Y63.77 E.01314
M73 Q0 S229
G1 X101.956 Y37.798 E.81433
G1 X101.537 Y37.798 E.01314
G1 X101.537 Y40.129 E.07309
G1 X101.339 Y39.931 E.00878
G1 X101.118 Y39.931 E.00693
G1 X101.118 Y37.798 E.06688
G1 X100.699 Y37.798 E.01314
G1 X100.699 Y39.931 E.06688
G1 X100.28 Y39.931 E.01314
G1 X100.28 Y37.798 E.06688
G1 X99.861 Y37.798 E.01314
G1 X99.861 Y39.931 E.06688
G1 X99.442 Y39.931 E.01314
G1 X99.442 Y37.798 E.06688
G1 X99.023 Y37.798 E.01314
G1 X99.023 Y39.931 E.06688
G1 X98.604 Y39.931 E.01314
G1 X98.604 Y37.798 E.06688
G1 X98.185 Y37.798 E.01314
G1 X98.185 Y39.931 E.06688
G1 X97.767 Y39.931 E.01311
G1 X97.767 Y37.798 E.06688
G1 X97.348 Y37.798 E.01314
G1 X97.348 Y39.931 E.06688
G1 X96.929 Y39.931 E.01314
G1 X96.929 Y37.798 E.06688
G1 X96.51 Y37.798 E.01314
G1 X96.51 Y39.931 E.06688
G1 X96.091 Y39.931 E.01314
G1 X96.091 Y37.798 E.06688
G1 X95.672 Y37.798 E.01314
G1 X95.672 Y39.931 E.06688
G1 X95.253 Y40.339 E.01834
G1 X95.253 Y37.798 E.07967
G1 X94.834 Y37.798 E.01314
G1 X94.834 Y63.77 E.81433
G1 X94.415 Y63.77 E.01314
G1 X94.415 Y37.798 E.81433
G1 X93.996 Y37.798 E.01314
G1 X93.996 Y63.77 E.81433
G1 X93.577 Y63.77 E.01314
G1 X93.577 Y37.798 E.81433
G1 X93.158 Y37.798 E.01314
G1 X93.158 Y63.77 E.81433
G1 X92.739 Y63.77 E.01314
G1 X92.739 Y37.628 E.81966
M204 S1000
;WIPE_START
G1 F8640
G1 X92.739 Y41.093 E-.8
;WIPE_END
G1 Z.6 F720
G1 X148.52 Y57.188 F10800
G1 Z.2 F720
G1 E.8 F2100
M204 S800
G1 F1200
G1 X140.513 Y57.188 E.25105
G1 X140.513 Y44.38 E.40159
G1 X148.52 Y44.38 E.25105
G1 X148.52 Y57.131 E.3998
M204 S1000
G1 X148.044 Y57.018 F10800
M204 S800
G1 F1200
G1 X148.044 Y44.719 E.38563
G1 X147.625 Y44.719 E.01314
G1 X147.625 Y56.848 E.3803
G1 X147.206 Y56.848 E.01314
G1 X147.206 Y44.719 E.3803
G1 X146.787 Y44.719 E.01314
G1 X146.787 Y56.848 E.3803
G1 X146.368 Y56.848 E.01314
G1 X146.368 Y44.719 E.3803
G1 X145.949 Y44.719 E.01314
G1 X145.949 Y56.848 E.3803
G1 X145.53 Y56.848 E.01314
G1 X145.53 Y44.719 E.3803
G1 X145.111 Y44.719 E.01314
G1 X145.111 Y56.848 E.3803
G1 X144.692 Y56.848 E.01314
G1 X144.692 Y44.719 E.3803
G1 X144.273 Y44.719 E.01314
G1 X144.273 Y56.848 E.3803
G1 X143.854 Y56.848 E.01314
G1 X143.854 Y44.719 E.3803
G1 X143.435 Y44.719 E.01314
G1 X143.435 Y56.848 E.3803
G1 X143.016 Y56.848 E.01314
G1 X143.016 Y44.719 E.3803
G1 X142.597 Y44.719 E.01314
G1 X142.597 Y56.848 E.3803
G1 X142.178 Y56.848 E.01314
G1 X142.178 Y44.719 E.3803
G1 X141.759 Y44.719 E.01314
G1 X141.759 Y56.848 E.3803
G1 X141.34 Y56.848 E.01314
G1 X141.34 Y44.719 E.3803
G1 X140.921 Y44.719 E.01314
G1 X140.921 Y57.018 E.38563
M204 S1000
;WIPE_START
G1 F8640
G1 X140.921 Y53.553 E-.8
;WIPE_END
G1 Z.6 F720
G1 X144.093 Y115.27 F10800
G1 Z.2 F720
G1 E.8 F2100
M204 S800
G1 F1200
G1 X140.48 Y115.27 E.11328
G1 X140.48 Y86.23 E.91053
G1 X144.093 Y86.23 E.11328
M73 P0 R225
G1 X144.093 Y115.213 E.90874
M204 S1000
G1 X143.435 Y115.1 F10800
M204 S800
G1 F1200
G1 X143.435 Y86.569 E.89457
G1 X143.016 Y86.569 E.01314
G1 X143.016 Y114.931 E.88927
G1 X142.597 Y114.931 E.01314
G1 X142.597 Y86.569 E.88927
G1 X142.178 Y86.569 E.01314
G1 X142.178 Y114.931 E.88927
G1 X141.759 Y114.931 E.01314
G1 X141.759 Y86.569 E.88927
G1 X141.34 Y86.569 E.01314
G1 X141.34 Y114.931 E.88927
G1 X140.921 Y114.931 E.01314
G1 X140.921 Y86.4 E.89457
M204 S1000
;WIPE_START
G1 F8640
G1 X140.921 Y89.865 E-.8
;WIPE_END
G1 Z.6 F720
G1 X134.52 Y115.27 F10800
G1 Z.2 F720
G1 E.8 F2100
M204 S800
G1 F1200
G1 X131.285 Y115.27 E.10143
G1 X131.285 Y86.23 E.91053
G1 X134.52 Y86.23 E.10143
G1 X134.52 Y115.213 E.90874
M204 S1000
G1 X133.799 Y115.1 F10800
M204 S800
G1 F1200
G1 X133.799 Y86.569 E.89457
G1 X133.38 Y86.569 E.01314
G1 X133.38 Y114.931 E.88927
G1 X132.961 Y114.931 E.01314
G1 X132.961 Y86.569 E.88927
G1 X132.542 Y86.569 E.01314
G1 X132.542 Y114.931 E.88927
G1 X132.123 Y114.931 E.01314
G1 X132.123 Y86.569 E.88927
G1 X131.704 Y86.569 E.01314
G1 X131.704 Y115.1 E.89457
M204 S1000
;WIPE_START
G1 F8640
G1 X131.704 Y111.635 E-.8
;WIPE_END
G1 Z.6 F720
G1 X118.715 Y115.27 F10800
G1 Z.2 F720
G1 E.8 F2100
M204 S800
G1 F1200
G1 X115.48 Y115.27 E.10143
G1 X115.48 Y86.23 E.91053
G1 X118.715 Y86.23 E.10143
G1 X118.715 Y115.213 E.90874
M204 S1000
G1 X118.296 Y115.1 F10800
M204 S800
G1 F1200
G1 X118.296 Y86.569 E.89457
G1 X117.877 Y86.569 E.01314
G1 X117.877 Y114.931 E.88927
G1 X117.458 Y114.931 E.01314
M73 Q0 S228
G1 X117.458 Y86.569 E.88927
G1 X117.039 Y86.569 E.01314
M73 P1 R225
G1 X117.039 Y114.931 E.88927
G1 X116.62 Y114.931 E.01314
M73 Q1 S228
G1 X116.62 Y86.569 E.88927
G1 X116.201 Y86.569 E.01314
G1 X116.201 Y115.1 E.89457
M204 S1000
;WIPE_START
G1 F8640
G1 X116.201 Y111.635 E-.8
;WIPE_END
G1 Z.6 F720
G1 X135.599 Y85.135 F10800
G1 Z.2 F720
G1 E.8 F2100
M204 S800
;TYPE:Perimeter
;WIDTH:0.419999
G1 F1200
G1 X135.674 Y85.189 E.0029
G1 X135.751 Y85.33 E.00504
G1 X135.787 Y85.529 E.00634
G1 X135.787 Y115.971 E.95449
G1 X135.705 Y116.265 E.00957
G1 X135.494 Y116.467 E.00916
G1 X135.221 Y116.537 E.00884
G1 X114.779 Y116.537 E.64094
G1 X114.506 Y116.467 E.00884
G1 X114.295 Y116.265 E.00916
G1 X114.213 Y115.971 E.00957
G1 X114.213 Y85.529 E.95449
G1 X114.249 Y85.33 E.00634
G1 X114.439 Y85.076 E.00995
G1 X114.681 Y84.971 E.00827
G1 X114.779 Y84.963 E.00308
G1 X135.221 Y84.963 E.64094
G1 X135.405 Y84.993 E.00585
G1 X135.551 Y85.1 E.00568
M204 S1000
G1 X135.324 Y85.391 F10800
M204 S800
;TYPE:External perimeter
G1 F1200
G1 X135.372 Y85.415 E.00168
G1 X135.41 Y85.529 E.00377
G1 X135.41 Y115.971 E.95449
G1 X135.341 Y116.117 E.00506
G1 X135.221 Y116.16 E.004
G1 X114.779 Y116.16 E.64094
G1 X114.639 Y116.098 E.0048
G1 X114.59 Y115.971 E.00427
G1 X114.59 Y85.529 E.95449
G1 X114.665 Y85.378 E.00529
G1 X114.779 Y85.34 E.00377
G1 X135.221 Y85.34 E.64094
G1 X135.271 Y85.365 E.00175
M204 S1000
;WIPE_START
G1 F8640
G1 X135.324 Y85.391 E-.01363
G1 X135.372 Y85.415 E-.01239
G1 X135.41 Y85.529 E-.02775
G1 X135.41 Y88.761 E-.74623
;WIPE_END
G1 Z.6 F720
G1 X110.607 Y116.359 F10800
G1 Z.2 F720
G1 E.8 F2100
M204 S800
;TYPE:Perimeter
G1 F1200
G1 X110.705 Y116.265 E.00426
G1 X110.787 Y115.971 E.00957
G1 X110.787 Y85.529 E.95449
G1 X110.751 Y85.33 E.00634
G1 X110.674 Y85.189 E.00504
G1 X110.405 Y84.993 E.01044
G1 X110.221 Y84.963 E.00585
G1 X96.787 Y84.963 E.42121
G1 X96.787 Y41.537 E1.36159
G1 X100.213 Y41.537 E.10742
G1 X100.213 Y80.971 E1.23642
G1 X100.221 Y81.069 E.00308
G1 X100.379 Y81.371 E.01069
G1 X100.554 Y81.491 E.00665
G1 X100.779 Y81.537 E.0072
G1 X149.221 Y81.537 E1.51886
G1 X149.319 Y81.529 E.00308
G1 X149.621 Y81.371 E.01069
G1 X149.741 Y81.196 E.00665
G1 X149.787 Y80.971 E.0072
G1 X149.787 Y41.537 E1.23642
G1 X153.213 Y41.537 E.10742
M73 P1 R224
G1 X153.213 Y43.25 E.05371
G1 X153.213 Y84.963 E1.30788
G1 X139.779 Y84.963 E.42121
G1 X139.681 Y84.971 E.00308
G1 X139.439 Y85.076 E.00827
G1 X139.249 Y85.33 E.00995
G1 X139.213 Y85.529 E.00634
G1 X139.213 Y115.971 E.95449
G1 X139.295 Y116.265 E.00957
G1 X139.506 Y116.467 E.00916
G1 X139.779 Y116.537 E.00884
G1 X144.213 Y116.537 E.13902
G1 X144.213 Y125.529 E.28194
G1 X144.233 Y126.121 E.01857
G1 X144.38 Y126.373 E.00915
G1 X144.601 Y126.508 E.00812
G1 X144.779 Y126.537 E.00565
G1 X146.713 Y126.537 E.06064
G1 X146.713 Y129.963 E.10742
G1 X144.729 Y129.965 E.06221
G1 X144.466 Y130.057 E.00874
G1 X144.273 Y130.274 E.00911
G1 X144.213 Y130.529 E.00821
G1 X144.213 Y165.963 E1.11101
G1 X127.279 Y165.963 E.53095
G1 X127.025 Y166.023 E.00818
G1 X126.807 Y166.216 E.00913
G1 X126.713 Y166.529 E.01025
G1 X126.713 Y168.463 E.06064
G1 X123.287 Y168.463 E.10742
G1 X123.287 Y166.529 E.06064
G1 X123.193 Y166.216 E.01025
G1 X122.975 Y166.023 E.00913
G1 X122.721 Y165.963 E.00818
G1 X105.787 Y165.963 E.53095
G1 X105.787 Y130.529 E1.11101
G1 X105.727 Y130.274 E.00821
G1 X105.534 Y130.057 E.00911
G1 X105.221 Y129.963 E.01025
G1 X103.287 Y129.963 E.06064
G1 X103.287 Y126.537 E.10742
G1 X105.221 Y126.537 E.06064
G1 X105.534 Y126.443 E.01025
G1 X105.727 Y126.226 E.00911
G1 X105.787 Y125.971 E.00821
G1 X105.787 Y116.537 E.2958
G1 X110.221 Y116.537 E.13902
G1 X110.494 Y116.467 E.00884
G1 X110.563 Y116.4 E.00302
M204 S1000
G1 X110.362 Y116.074 F10800
M204 S800
;TYPE:External perimeter
G1 F1200
G1 X110.41 Y115.971 E.00356
G1 X110.41 Y85.529 E.95449
G1 X110.372 Y85.415 E.00377
G1 X110.221 Y85.34 E.00529
G1 X96.41 Y85.34 E.43303
G1 X96.41 Y41.16 E1.38523
G1 X100.59 Y41.16 E.13106
G1 X100.59 Y80.971 E1.24824
G1 X100.645 Y81.105 E.00454
G1 X100.779 Y81.16 E.00454
G1 X149.221 Y81.16 E1.51886
G1 X149.355 Y81.105 E.00454
G1 X149.41 Y80.971 E.00454
G1 X149.41 Y41.16 E1.24824
G1 X153.59 Y41.16 E.13106
G1 X153.59 Y43.25 E.06553
G1 X153.59 Y85.34 E1.3197
G1 X139.779 Y85.34 E.43303
G1 X139.665 Y85.378 E.00377
G1 X139.59 Y85.529 E.00529
G1 X139.59 Y115.971 E.95449
G1 X139.639 Y116.098 E.00427
G1 X139.779 Y116.16 E.0048
G1 X144.59 Y116.16 E.15085
G1 X144.59 Y125.971 E.30762
G1 X144.646 Y126.105 E.00455
G1 X144.779 Y126.16 E.00451
G1 X147.09 Y126.16 E.07246
G1 X147.09 Y130.34 E.13106
G1 X144.779 Y130.34 E.07246
G1 X144.646 Y130.395 E.00451
G1 X144.59 Y130.529 E.00455
G1 X144.59 Y166.34 E1.12283
G1 X127.279 Y166.34 E.54277
M73 Q1 S227
G1 X127.165 Y166.378 E.00377
G1 X127.09 Y166.529 E.00529
G1 X127.09 Y168.84 E.07246
G1 X122.91 Y168.84 E.13106
G1 X122.91 Y166.529 E.07246
G1 X122.855 Y166.396 E.00451
G1 X122.721 Y166.34 E.00455
G1 X105.41 Y166.34 E.54277
G1 X105.41 Y130.529 E1.12283
G1 X105.372 Y130.415 E.00377
G1 X105.221 Y130.34 E.00529
G1 X102.91 Y130.34 E.07246
G1 X102.91 Y126.16 E.13106
G1 X105.221 Y126.16 E.07246
G1 X105.354 Y126.105 E.00451
G1 X105.41 Y125.971 E.00455
G1 X105.41 Y116.16 E.30762
G1 X110.221 Y116.16 E.15085
G1 X110.33 Y116.121 E.00363
M204 S1000
;WIPE_START
G1 F8640
G1 X110.362 Y116.074 E-.01313
G1 X110.41 Y115.971 E-.02624
G1 X110.41 Y112.677 E-.76063
;WIPE_END
G1 Z.6 F720
G1 X153.043 Y42.469 F10800
G1 Z.2 F720
G1 E.8 F2100
M204 S800
;TYPE:Solid infill
;WIDTH:0.42015
G1 F1200
G1 X152.45 Y41.876 E.02631
G1 X151.917 Y41.876 E.01672
G1 X152.874 Y42.833 E.04245
G1 X152.874 Y43.367 E.01675
G1 X151.383 Y41.876 E.06614
G1 X150.85 Y41.876 E.01672
G1 X152.874 Y43.9 E.08978
G1 X152.874 Y44.434 E.01675
G1 X150.316 Y41.876 E.11347
G1 X150.126 Y41.876 E.00596
G1 X150.126 Y42.22 E.01079
G1 X152.874 Y44.967 E.12188
G1 X152.874 Y45.501 E.01675
G1 X150.126 Y42.753 E.1219
G1 X150.126 Y43.287 E.01675
G1 X152.874 Y46.034 E.12188
G1 X152.874 Y46.568 E.01675
G1 X150.126 Y43.82 E.1219
G1 X150.126 Y44.354 E.01675
G1 X152.874 Y47.101 E.12188
G1 X152.874 Y47.635 E.01675
G1 X150.126 Y44.887 E.1219
G1 X150.126 Y45.421 E.01675
G1 X152.874 Y48.168 E.12188
G1 X152.874 Y48.701 E.01672
G1 X150.126 Y45.954 E.12188
G1 X150.126 Y46.488 E.01675
G1 X152.874 Y49.235 E.12188
G1 X152.874 Y49.768 E.01672
G1 X150.126 Y47.021 E.12188
G1 X150.126 Y47.555 E.01675
G1 X152.874 Y50.302 E.12188
G1 X152.874 Y50.835 E.01672
G1 X150.126 Y48.088 E.12188
G1 X150.126 Y48.622 E.01675
