; generated by PrusaSlicer 2.9.2 on 2025-04-11 at 03:25:44 UTC


;
;
; 

; external perimeters extrusion width = 0.45mm
; perimeters extrusion width = 0.45mm
; infill extrusion width = 0.45mm
; solid infill extrusion width = 0.45mm
; top infill extrusion width = 0.40mm
; support material extrusion width = 0.35mm
; first layer extrusion width = 0.42mm

M73 P0 R26
M73 Q0 S26
M201 X1000 Y1000 Z200 E5000 ; sets maximum accelerations, mm/sec^2
M203 X200 Y200 Z12 E120 ; sets maximum feedrates, mm / sec
M204 S1250 T1250 ; sets acceleration (S) and retract acceleration (R), mm/sec^2
M205 X8.00 Y8.00 Z0.40 E4.50 ; sets the jerk limits, mm/sec
M205 S0 T0 ; sets the minimum extruding and travel feed rate, mm/sec

; printing object Servo Lid.STL id:0 copy 0
; stop printing object Servo Lid.STL id:0 copy 0

;TYPE:Custom
M862.3 P "MK3S" ; printer model check
M862.1 P0.4 ; nozzle diameter check
M115 U3.14.1 ; tell printer latest fw version
G90 ; use absolute coordinates
M83 ; extruder relative mode
M104 S215 ; set extruder temp
M140 S60 ; set bed temp
M190 S60 ; wait for bed temp
M109 S215 ; wait for extruder temp
G28 W ; home all without mesh bed level
G80 X100.123 Y75.8729 W49.7542 H58.2542 ; mesh bed levelling

G1 Z0.2 F720
G1 Y-3 F1000 ; go outside print area
G92 E0
G1 X60 E9 F1000 ; intro line
G1 X100 E12.5 F1000 ; intro line

G92 E0
M221 S95

; Don't change E values below. Excessive value can damage the printer.

G21 ; set units to millimeters
G90 ; use absolute coordinates
M83 ; use relative distances for extrusion

M900 K0.05 ; Filament gcode LA 1.5
M900 K30 ; Filament gcode LA 1.0




M107
;LAYER_CHANGE
;Z:0.2
;HEIGHT:0.2
G1 E-.8 F2100
G1 Z.6 F720
G1 X103.293 Y79.38 F10800
G1 Z.2 F720
G1 E.8 F2100
M204 S800
;TYPE:Skirt/Brim
;WIDTH:0.42
G1 F1200
G1 X104.69 Y78.583 E.05043
G1 X122.19 Y76.083 E.55427
G1 X127.81 Y76.083 E.17621
G1 X145.31 Y78.583 E.55427
G1 X146.49 Y79.147 E.04101
G1 X147.183 Y80.598 E.05042
G1 X149.683 Y116.598 E1.13147
G1 X149.689 Y121.75 E.16154
G1 X149.623 Y122.281 E.01678
G1 X147.123 Y132.281 E.32319
G1 X146.441 Y133.397 E.04101
G1 X145 Y133.939 E.04827
G1 X105 Y133.939 E1.25417
G1 X103.752 Y133.548 E.04101
G1 X102.877 Y132.281 E.04828
G1 X100.377 Y122.281 E.32319
G1 X100.311 Y121.75 E.01678
G1 X100.317 Y116.598 E.16154
G1 X102.817 Y80.598 E1.13147
G1 X103.271 Y79.436 E.03912
M73 P1 R26
M73 Q1 S26
M204 S1000
;WIPE_START
G1 F8640
G1 X103.293 Y79.38 E-.01389
G1 X104.69 Y78.583 E-.37137
G1 X106.468 Y78.329 E-.41474
;WIPE_END
G1 Z.6 F720
; printing object Servo Lid.STL id:0 copy 0
G1 X127.173 Y102.547 F10800
G1 Z.2 F720
G1 E.8 F2100
M204 S800
;TYPE:Perimeter
;WIDTH:0.419999
G1 F1200
G1 X127.275 Y102.637 E.00427
G1 X128.016 Y103.711 E.04091
G1 X128.112 Y103.964 E.00848
G1 X128.27 Y105.261 E.04097
G1 X128.237 Y105.529 E.00847
G1 X127.772 Y106.754 E.04108
G1 X127.622 Y106.971 E.00827
G1 X126.699 Y107.797 E.03884
G1 X126.383 Y107.97 E.0113
G1 X125.135 Y108.277 E.0403
G1 X124.839 Y108.271 E.00928
G1 X123.617 Y107.97 E.03946
G1 X123.297 Y107.795 E.01144
G1 X122.379 Y106.975 E.03859
G1 X122.227 Y106.754 E.00841
G1 X121.763 Y105.529 E.04107
G1 X121.726 Y105.333 E.00625
G1 X121.886 Y103.977 E.04281
G1 X121.979 Y103.729 E.0083
G1 X122.658 Y102.721 E.03811
G1 X122.866 Y102.498 E.00956
G1 X124.072 Y101.857 E.04282
G1 X124.38 Y101.782 E.00994
G1 X125.67 Y101.792 E.04045
G1 X125.927 Y101.856 E.0083
G1 X127.072 Y102.457 E.04055
G1 X127.128 Y102.507 E.00235
M204 S1000
G1 X126.925 Y102.83 F10800
M204 S800
;TYPE:External perimeter
G1 F1200
G1 X127.584 Y103.749 E.03546
G1 X127.738 Y104.01 E.0095
G1 X127.895 Y105.306 E.04093
G1 X127.737 Y105.783 E.01576
G1 X127.421 Y106.618 E.02799
G1 X126.735 Y107.259 E.02944
G1 X126.346 Y107.581 E.01583
G1 X125.071 Y107.905 E.04125
G1 X124.929 Y107.905 E.00445
G1 X123.707 Y107.604 E.03946
G1 X123.548 Y107.513 E.00574
G1 X122.631 Y106.694 E.03855
G1 X122.263 Y105.783 E.03081
G1 X122.103 Y105.33 E.01506
G1 X122.26 Y104.023 E.04127
G1 X122.932 Y102.99 E.03864
G1 X123.116 Y102.785 E.00864
G1 X124.247 Y102.191 E.04005
G1 X124.643 Y102.157 E.01246
G1 X125.666 Y102.169 E.03208
G1 X126.886 Y102.786 E.04287
M204 S1000
;WIPE_START
G1 F8640
G1 X126.925 Y102.83 E-.01358
G1 X127.584 Y103.749 E-.26112
G1 X127.738 Y104.01 E-.06997
G1 X127.895 Y105.306 E-.30144
G1 X127.737 Y105.783 E-.11603
G1 X127.679 Y105.936 E-.03786
;WIPE_END
G1 Z.6 F720
G1 X119.138 Y106.971 F10800
G1 Z.2 F720
G1 E.8 F2100
M204 S800
;TYPE:Perimeter
G1 F1200
G1 X119.011 Y107.044 E.00459
G1 X118.146 Y107.276 E.02808
G1 X117.854 Y107.276 E.00916
G1 X116.989 Y107.044 E.02808
G1 X116.735 Y106.898 E.00919
G1 X116.102 Y106.265 E.02807
G1 X115.956 Y106.011 E.00919
G1 X115.724 Y105.146 E.02808
G1 X115.724 Y104.854 E.00916
G1 X115.956 Y103.989 E.02808
G1 X116.102 Y103.735 E.00919
G1 X116.735 Y103.102 E.02807
G1 X116.989 Y102.956 E.00919
G1 X117.854 Y102.724 E.02808
G1 X118.146 Y102.724 E.00916
G1 X119.011 Y102.956 E.02808
G1 X119.265 Y103.102 E.00919
G1 X119.898 Y103.735 E.02807
G1 X120.044 Y103.989 E.00919
G1 X120.276 Y104.854 E.02808
G1 X120.276 Y105.146 E.00916
G1 X120.044 Y106.011 E.02808
G1 X119.898 Y106.265 E.00919
G1 X119.265 Y106.898 E.02807
G1 X119.19 Y106.941 E.00271
M204 S1000
G1 X118.947 Y106.646 F10800
M204 S800
;TYPE:External perimeter
G1 F1200
G1 X118.049 Y106.911 E.02936
G1 X117.087 Y106.68 E.03102
G1 X116.369 Y105.998 E.03105
G1 X116.089 Y105.049 E.03102
G1 X116.32 Y104.087 E.03102
G1 X117.002 Y103.369 E.03105
G1 X117.951 Y103.089 E.03102
G1 X118.913 Y103.32 E.03102
G1 X119.631 Y104.002 E.03105
G1 X119.911 Y104.951 E.03102
G1 X119.787 Y105.513 E.01804
G1 X119.632 Y105.997 E.01593
G1 X119.003 Y106.626 E.02789
M204 S1000
;WIPE_START
G1 F8640
G1 X118.947 Y106.646 E-.01373
G1 X118.049 Y106.911 E-.21619
G1 X117.087 Y106.68 E-.22844
G1 X116.369 Y105.998 E-.22866
G1 X116.23 Y105.529 E-.11298
;WIPE_END
G1 Z.6 F720
G1 X123.861 Y113.972 F10800
G1 Z.2 F720
G1 E.8 F2100
M204 S800
;TYPE:Perimeter
G1 F1200
G1 X123.745 Y113.907 E.00417
G1 X123.102 Y113.265 E.02849
G1 X122.965 Y113.04 E.00826
G1 X122.724 Y112.146 E.02903
G1 X122.724 Y111.854 E.00916
G1 X122.956 Y110.989 E.02808
G1 X123.102 Y110.735 E.00919
G1 X123.735 Y110.102 E.02807
G1 X123.989 Y109.956 E.00919
G1 X124.854 Y109.724 E.02808
G1 X125.146 Y109.724 E.00916
G1 X126.011 Y109.956 E.02808
G1 X126.28 Y110.118 E.00985
G1 X126.898 Y110.735 E.02738
G1 X127.044 Y110.989 E.00919
G1 X127.276 Y111.854 E.02808
G1 X127.276 Y112.146 E.00916
G1 X127.044 Y113.011 E.02808
G1 X126.926 Y113.233 E.00788
G1 X126.265 Y113.898 E.0294
G1 X126.058 Y114.029 E.00768
G1 X125.146 Y114.276 E.02963
G1 X124.901 Y114.286 E.00769
G1 X123.989 Y114.044 E.02958
G1 X123.914 Y114.002 E.0027
M204 S1000
G1 X124.048 Y113.643 F10800
M204 S800
;TYPE:External perimeter
G1 F1200
G1 X123.369 Y112.998 E.02936
G1 X123.089 Y112.049 E.03102
G1 X123.32 Y111.087 E.03102
G1 X123.922 Y110.449 E.0275
G1 X124.087 Y110.32 E.00657
G1 X124.951 Y110.089 E.02804
G1 X125.913 Y110.32 E.03102
G1 X126.013 Y110.384 E.00372
G1 X126.631 Y111.002 E.0274
G1 X126.911 Y111.951 E.03102
G1 X126.68 Y112.912 E.03099
G1 X125.998 Y113.631 E.03107
G1 X125.049 Y113.911 E.03102
G1 X124.094 Y113.681 E.0308
M204 S1000
;WIPE_START
G1 F8640
G1 X124.048 Y113.643 E-.01378
G1 X123.369 Y112.998 E-.21624
G1 X123.089 Y112.049 E-.22847
G1 X123.32 Y111.087 E-.22844
G1 X123.656 Y110.731 E-.11307
;WIPE_END
G1 Z.6 F720
G1 X134.276 Y105 F10800
G1 Z.2 F720
G1 E.8 F2100
M204 S800
;TYPE:Perimeter
G1 F1200
G1 X134.276 Y105.146 E.00458
G1 X134.044 Y106.011 E.02808
G1 X133.898 Y106.265 E.00919
G1 X133.265 Y106.898 E.02807
G1 X133.009 Y107.044 E.00924
G1 X132.146 Y107.276 E.02802
G1 X131.854 Y107.276 E.00916
G1 X130.989 Y107.044 E.02808
G1 X130.735 Y106.898 E.00919
G1 X130.099 Y106.261 E.02822
G1 X129.956 Y106.011 E.00903
G1 X129.724 Y105.146 E.02808
G1 X129.724 Y104.854 E.00916
G1 X129.956 Y103.989 E.02808
G1 X130.102 Y103.735 E.00919
G1 X130.735 Y103.102 E.02807
G1 X130.989 Y102.956 E.00919
G1 X131.854 Y102.724 E.02808
G1 X132.146 Y102.724 E.00916
G1 X133.011 Y102.956 E.02808
G1 X133.265 Y103.102 E.00919
G1 X133.898 Y103.735 E.02807
G1 X134.044 Y103.989 E.00919
G1 X134.276 Y104.854 E.02808
G1 X134.276 Y104.94 E.0027
M204 S1000
G1 X133.899 Y105.003 F10800
M204 S800
;TYPE:External perimeter
G1 F1200
G1 X133.68 Y105.913 E.02935
G1 X132.998 Y106.631 E.03105
G1 X132.049 Y106.911 E.03102
G1 X131.087 Y106.68 E.03102
G1 X130.369 Y105.998 E.03105
G1 X130.213 Y105.513 E.01597
G1 X130.084 Y105.025 E.01583
G1 X130.293 Y104.19 E.02699
G1 X130.369 Y104.002 E.00636
G1 X131.002 Y103.369 E.02807
G1 X131.951 Y103.089 E.03102
G1 X132.913 Y103.32 E.03102
G1 X133.631 Y104.002 E.03105
G1 X133.909 Y104.944 E.0308
M204 S1000
;WIPE_START
G1 F8640
G1 X133.899 Y105.003 E-.01382
G1 X133.68 Y105.913 E-.21612
G1 X132.998 Y106.631 E-.22866
G1 X132.049 Y106.911 E-.22847
G1 X131.573 Y106.797 E-.11293
;WIPE_END
G1 Z.6 F720
G1 X126.138 Y99.971 F10800
G1 Z.2 F720
G1 E.8 F2100
M204 S800
;TYPE:Perimeter
G1 F1200
G1 X126.011 Y100.044 E.00459
G1 X125.092 Y100.287 E.0298
G1 X124.854 Y100.276 E.00747
G1 X123.989 Y100.044 E.02808
G1 X123.735 Y99.898 E.00919
G1 X123.102 Y99.265 E.02807
G1 X122.956 Y99.011 E.00919
G1 X122.724 Y98.146 E.02808
G1 X122.724 Y97.854 E.00916
G1 X122.956 Y96.989 E.02808
G1 X123.073 Y96.767 E.00787
G1 X123.735 Y96.102 E.02942
G1 X123.949 Y95.968 E.00792
G1 X124.853 Y95.725 E.02935
G1 X125.099 Y95.714 E.00772
G1 X125.962 Y95.943 E.028
G1 X126.231 Y96.071 E.00934
G1 X126.898 Y96.735 E.02951
G1 X127.041 Y96.978 E.00884
G1 X127.276 Y97.854 E.02844
G1 X127.276 Y98.146 E.00916
G1 X127.044 Y99.011 E.02808
G1 X126.898 Y99.265 E.00919
G1 X126.265 Y99.898 E.02807
G1 X126.19 Y99.941 E.00271
M204 S1000
G1 X125.948 Y99.646 F10800
M204 S800
;TYPE:External perimeter
G1 F1200
G1 X125.031 Y99.915 E.02996
G1 X124.48 Y99.785 E.01775
G1 X124.002 Y99.631 E.01575
G1 X123.369 Y98.998 E.02807
G1 X123.089 Y98.049 E.03102
G1 X123.32 Y97.087 E.03102
G1 X124.002 Y96.369 E.03105
G1 X124.951 Y96.089 E.03102
G1 X125.864 Y96.307 E.02943
G1 X125.998 Y96.369 E.00463
G1 X126.631 Y97.002 E.02807
G1 X126.911 Y97.951 E.03102
G1 X126.68 Y98.913 E.03102
G1 X126.003 Y99.625 E.03081
M204 S1000
;WIPE_START
G1 F8640
G1 X125.948 Y99.646 E-.01359
G1 X125.031 Y99.915 E-.22066
G1 X124.48 Y99.785 E-.13072
G1 X124.002 Y99.631 E-.11596
G1 X123.369 Y98.998 E-.2067
G1 X123.231 Y98.531 E-.11237
;WIPE_END
G1 Z.6 F720
G1 X124.089 Y79.168 F10800
G1 Z.2 F720
G1 E.8 F2100
M204 S800
;WIDTH:0.486752
G1 F1200
G1 X124.142 Y79.125 E.00252
G1 X124.552 Y79.056 E.01534
;WIDTH:0.452957
G1 X124.961 Y78.987 E.01414
;WIDTH:0.447492
G1 X125.453 Y79.06 E.01673
G1 X125.945 Y79.209 E.01729
;WIDTH:0.424231
G1 X126.542 Y79.803 E.0267
;WIDTH:0.45054
G1 X126.59 Y79.892 E.00343
;WIDTH:0.476849
G1 X126.638 Y79.981 E.00365
G1 X126.7 Y80.346 E.01336
;WIDTH:0.446395
G1 X126.761 Y80.712 E.01245
;WIDTH:0.419999
G1 X126.593 Y81.601 E.02837
G1 X126.473 Y81.765 E.00637
G1 X125.949 Y82.294 E.02335
G1 X125.049 Y82.561 E.02943
G1 X124.137 Y82.343 E.0294
G1 X123.527 Y81.765 E.02635
G1 X123.407 Y81.601 E.00637
G1 X123.261 Y80.897 E.02254
;WIDTH:0.417564
G1 X123.239 Y80.712 E.0058
;WIDTH:0.446395
G1 X123.3 Y80.346 E.01245
;WIDTH:0.476849
G1 X123.366 Y79.964 E.01399
;WIDTH:0.474388
G1 X123.412 Y79.884 E.00331
;WIDTH:0.449304
G1 X123.458 Y79.803 E.00315
;WIDTH:0.440928
G1 X124.043 Y79.206 E.02766
M204 S1000
;WIPE_START
G1 F8640
G1 X124.089 Y79.168 E-.01378
G1 X124.142 Y79.125 E-.01576
G1 X124.552 Y79.056 E-.096
G1 X124.961 Y78.987 E-.09577
G1 X125.453 Y79.06 E-.11485
G1 X125.945 Y79.209 E-.1187
G1 X126.542 Y79.803 E-.19446
G1 X126.59 Y79.892 E-.02335
G1 X126.638 Y79.981 E-.02335
G1 X126.7 Y80.346 E-.08549
G1 X126.713 Y80.425 E-.01849
;WIPE_END
G1 Z.6 F720
G1 X103.418 Y120.161 F10800
G1 Z.2 F720
G1 E.8 F2100
M204 S800
;WIDTH:0.486694
G1 F1200
G1 X103.375 Y120.108 E.00252
G1 X103.306 Y119.698 E.01534
;WIDTH:0.452934
G1 X103.237 Y119.289 E.01414
G1 X103.306 Y118.841 E.01545
;WIDTH:0.486699
G1 X103.375 Y118.392 E.01676
G1 X103.566 Y118.199 E.01002
;WIDTH:0.453349
G1 X103.757 Y118.006 E.00927
;WIDTH:0.464947
G1 X104.145 Y117.636 E.01881
G1 X104.961 Y117.489 E.0291
;WIDTH:0.419999
G1 X105.851 Y117.657 E.0284
G1 X106.015 Y117.777 E.00637
G1 X106.544 Y118.301 E.02335
G1 X106.593 Y118.387 E.0031
G1 X106.811 Y119.201 E.02642
G1 X106.593 Y120.113 E.0294
G1 X106.015 Y120.723 E.02635
G1 X105.851 Y120.843 E.00637
G1 X105.147 Y120.989 E.02254
;WIDTH:0.417564
G1 X104.962 Y121.011 E.0058
;WIDTH:0.446396
G1 X104.596 Y120.95 E.01245
;WIDTH:0.47685
G1 X104.231 Y120.888 E.01336
G1 X104.142 Y120.84 E.00365
;WIDTH:0.450546
G1 X104.053 Y120.792 E.00343
;WIDTH:0.440905
G1 X103.456 Y120.207 E.02766
M204 S1000
;WIPE_START
G1 F8640
G1 X103.418 Y120.161 E-.01378
G1 X103.375 Y120.108 E-.01576
G1 X103.306 Y119.698 E-.096
G1 X103.237 Y119.289 E-.09577
G1 X103.306 Y118.841 E-.10466
G1 X103.375 Y118.392 E-.10489
G1 X103.566 Y118.199 E-.0627
G1 X103.757 Y118.006 E-.0627
G1 X104.145 Y117.636 E-.1238
G1 X104.656 Y117.544 E-.11994
;WIPE_END
G1 Z.6 F720
G1 X144.103 Y120.809 F10800
G1 Z.2 F720
G1 E.8 F2100
M204 S800
;WIDTH:0.419999
G1 F1200
G1 X143.985 Y120.723 E.00458
G1 X143.456 Y120.199 E.02335
G1 X143.413 Y120.131 E.00252
G1 X143.189 Y119.299 E.02702
G1 X143.407 Y118.387 E.0294
G1 X143.984 Y117.779 E.02628
G1 X144.149 Y117.658 E.00642
G1 X144.855 Y117.51 E.02262
;WIDTH:0.41778
G1 X145.038 Y117.488 E.00575
;WIDTH:0.451455
G1 X145.448 Y117.557 E.01412
;WIDTH:0.486465
G1 X145.858 Y117.625 E.01533
G1 X146.05 Y117.816 E.00999
;WIDTH:0.453232
G1 X146.243 Y118.007 E.00926
;WIDTH:0.446967
G1 X146.426 Y118.183 E.00853
;WIDTH:0.473934
G1 X146.608 Y118.359 E.00907
G1 X146.685 Y118.785 E.01551
;WIDTH:0.446553
G1 X146.763 Y119.211 E.01454
;WIDTH:0.452933
G1 X146.694 Y119.659 E.01545
;WIDTH:0.486693
G1 X146.625 Y120.108 E.01676
G1 X146.434 Y120.3 E.00999
;WIDTH:0.453346
G1 X146.243 Y120.493 E.00927
;WIDTH:0.446907
G1 X146.068 Y120.675 E.00848
;WIDTH:0.473814
G1 X145.893 Y120.857 E.00905
G1 X145.466 Y120.934 E.01555
;WIDTH:0.445135
G1 X145.039 Y121.011 E.01451
;WIDTH:0.419999
G1 X144.152 Y120.843 E.02831
M204 S1000
;WIPE_START
G1 F8640
G1 X144.103 Y120.809 E-.01377
G1 X143.985 Y120.723 E-.03371
G1 X143.456 Y120.199 E-.17193
G1 X143.413 Y120.131 E-.01858
G1 X143.189 Y119.299 E-.19895
G1 X143.407 Y118.387 E-.21652
G1 X143.844 Y117.927 E-.14654
;WIPE_END
G1 Z.6 F720
G1 X126.216 Y78.993 F10800
G1 Z.2 F720
G1 E.8 F2100
M204 S800
;TYPE:Perimeter
;WIDTH:0.353215
G1 F1200
G1 X126.748 Y78.998 E.01373
G1 X126.75 Y79.528 E.01367
G1 X126.258 Y79.036 E.01795
M204 S1000
;WIPE_START
G1 F8640
G1 X126.216 Y78.993 E-.01388
G1 X126.748 Y78.998 E-.12285
G1 X126.75 Y79.528 E-.12238
G1 X126.258 Y79.036 E-.16066
;WIPE_END
G1 E-.38023 F2100
M73 Q2 S26
G1 Z.6 F720
G1 X123.779 Y79 F10800
G1 Z.2 F720
G1 E.8 F2100
M204 S800
;WIDTH:0.351795
G1 F1200
G1 X123.249 Y79.53 E.01925
G1 X123.251 Y79.002 E.01356
M73 P2 R26
G1 X123.719 Y79 E.01202
M204 S1000
;WIPE_START
G1 F8640
G1 X123.779 Y79 E-.01385
G1 X123.249 Y79.53 E-.17307
G1 X123.251 Y79.002 E-.12192
G1 X123.719 Y79 E-.10806
;WIPE_END
G1 E-.3831 F2100
G1 Z.6 F720
G1 X103.25 Y120.472 F10800
G1 Z.2 F720
G1 E.8 F2100
M204 S800
;WIDTH:0.351791
G1 F1200
G1 X103.78 Y121.001 E.01923
G1 X103.252 Y120.999 E.01356
G1 X103.25 Y120.532 E.01199
M204 S1000
;WIPE_START
G1 F8640
G1 X103.25 Y120.472 E-.01385
G1 X103.78 Y121.001 E-.17291
G1 X103.252 Y120.999 E-.12192
G1 X103.25 Y120.532 E-.10783
;WIPE_END
G1 E-.38349 F2100
G1 Z.6 F720
G1 X103.25 Y118.028 F10800
G1 Z.2 F720
G1 E.8 F2100
M204 S800
;WIDTH:0.351795
G1 F1200
G1 X103.252 Y117.501 E.01354
G1 X103.78 Y117.499 E.01356
G1 X103.293 Y117.986 E.01769
M204 S1000
;WIPE_START
G1 F8640
G1 X103.25 Y118.028 E-.01388
G1 X103.252 Y117.501 E-.12169
G1 X103.78 Y117.499 E-.12192
G1 X103.293 Y117.986 E-.15903
;WIPE_END
G1 E-.38348 F2100
G1 Z.6 F720
G1 X146.221 Y121 F10800
G1 Z.2 F720
G1 E.8 F2100
M204 S800
;WIDTH:0.351504
G1 F1200
G1 X146.75 Y120.471 E.0192
G1 X146.749 Y120.999 E.01355
G1 X146.281 Y121 E.01201
M204 S1000
;WIPE_START
G1 F8640
G1 X146.221 Y121 E-.01385
G1 X146.75 Y120.471 E-.17274
G1 X146.749 Y120.999 E-.12192
G1 X146.281 Y121 E-.10806
;WIPE_END
G1 E-.38343 F2100
