; generated by PrusaSlicer 2.9.2 on 2025-04-16 at 13:01:23 UTC


;
;
; 

; external perimeters extrusion width = 0.45mm
; perimeters extrusion width = 0.45mm
; infill extrusion width = 0.45mm
; solid infill extrusion width = 0.45mm
; top infill extrusion width = 0.40mm
; support material extrusion width = 0.35mm
; first layer extrusion width = 0.42mm

M73 P0 R35
M73 Q0 S36
M201 X1000 Y1000 Z200 E5000 ; sets maximum accelerations, mm/sec^2
M203 X200 Y200 Z12 E120 ; sets maximum feedrates, mm / sec
M204 S1250 T1250 ; sets acceleration (S) and retract acceleration (R), mm/sec^2
M205 X8.00 Y8.00 Z0.40 E4.50 ; sets the jerk limits, mm/sec
M205 S0 T0 ; sets the minimum extruding and travel feed rate, mm/sec

; printing object L Shoulder Arm.STL id:0 copy 0
; stop printing object L Shoulder Arm.STL id:0 copy 0

;TYPE:Custom
M862.3 P "MK3S" ; printer model check
M862.1 P0.4 ; nozzle diameter check
M115 U3.14.1 ; tell printer latest fw version
G90 ; use absolute coordinates
M83 ; extruder relative mode
M104 S215 ; set extruder temp
M140 S60 ; set bed temp
M190 S60 ; wait for bed temp
M109 S215 ; wait for extruder temp
G28 W ; home all without mesh bed level
G80 X80.1229 Y81.6229 W89.7542 H47.1542 ; mesh bed levelling

G1 Z0.2 F720
G1 Y-3 F1000 ; go outside print area
G92 E0
G1 X60 E9 F1000 ; intro line
G1 X100 E12.5 F1000 ; intro line

G92 E0
M221 S95

; Don't change E values below. Excessive value can damage the printer.

G21 ; set units to millimeters
G90 ; use absolute coordinates
M83 ; use relative distances for extrusion

M900 K0.05 ; Filament gcode LA 1.5
M900 K30 ; Filament gcode LA 1.0




M107
;LAYER_CHANGE
;Z:0.2
;HEIGHT:0.2
G1 E-.8 F2100
G1 Z.6 F720
G1 X80.702 Y82.752 F10800
G1 Z.2 F720
G1 E.8 F2100
M204 S800
;TYPE:Skirt/Brim
;WIDTH:0.42
G1 F1200
G1 X81.735 Y81.949 E.04102
G1 X82.5 Y81.811 E.02437
G1 X167.5 Y81.811 E2.66512
G1 X168.748 Y82.202 E.04101
G1 X169.551 Y83.235 E.04102
G1 X169.689 Y84 E.02437
G1 X169.689 Y94 E.31354
G1 X169.298 Y95.248 E.04101
G1 X168.4 Y95.995 E.03662
G1 X96.544 Y128.395 E2.47144
G1 X95.644 Y128.589 E.02887
M73 Q0 S35
G1 X87.613 Y128.582 E.25181
G1 X82.335 Y128.182 E.16596
G1 X81.119 Y127.698 E.04104
G1 X80.311 Y126 E.05896
G1 X80.311 Y84 E1.31688
G1 X80.684 Y82.809 E.03913
M204 S1000
;WIPE_START
G1 F8640
G1 X80.702 Y82.752 E-.0138
G1 X81.735 Y81.949 E-.30211
G1 X82.5 Y81.811 E-.17949
G1 X83.819 Y81.811 E-.3046
;WIPE_END
G1 Z.6 F720
; printing object L Shoulder Arm.STL id:0 copy 0
G1 X95.644 Y126.4 F10800
G1 Z.2 F720
G1 E.8 F2100
M204 S800
;TYPE:Support material
G1 F1200
G1 X87.779 Y126.4 E.2466
G1 X87.98 Y126.199 E.00891
G1 X87.98 Y113.592 E.39528
G1 X95.644 Y113.592 E.2403
G1 X95.644 Y126.344 E.39983
M73 P1 R35
M73 Q1 S35
M204 S1000
G1 X95.253 Y126.23 F10800
M204 S800
G1 F1200
G1 X95.253 Y113.931 E.38563
G1 X94.834 Y113.931 E.01314
G1 X94.834 Y126.061 E.38033
G1 X94.415 Y126.061 E.01314
G1 X94.415 Y113.931 E.38033
G1 X93.996 Y113.931 E.01314
G1 X93.996 Y126.061 E.38033
G1 X93.577 Y126.061 E.01314
G1 X93.577 Y113.931 E.38033
G1 X93.158 Y113.931 E.01314
G1 X93.158 Y126.061 E.38033
G1 X92.739 Y126.061 E.01314
G1 X92.739 Y113.931 E.38033
G1 X92.32 Y113.931 E.01314
G1 X92.32 Y126.061 E.38033
G1 X91.901 Y126.061 E.01314
G1 X91.901 Y113.931 E.38033
G1 X91.482 Y113.931 E.01314
G1 X91.482 Y126.061 E.38033
G1 X91.063 Y126.061 E.01314
G1 X91.063 Y113.931 E.38033
G1 X90.644 Y113.931 E.01314
G1 X90.644 Y126.061 E.38033
G1 X90.225 Y126.061 E.01314
G1 X90.225 Y113.931 E.38033
G1 X89.806 Y113.931 E.01314
G1 X89.806 Y126.061 E.38033
G1 X89.387 Y126.061 E.01314
G1 X89.387 Y113.931 E.38033
G1 X88.968 Y113.931 E.01314
G1 X88.968 Y126.061 E.38033
G1 X88.549 Y126.061 E.01314
G1 X88.549 Y113.762 E.38563
M204 S1000
;WIPE_START
G1 F8640
G1 X88.549 Y117.227 E-.8
;WIPE_END
G1 Z.6 F720
G1 X146.088 Y87.116 F10800
G1 Z.2 F720
G1 E.8 F2100
M204 S800
;TYPE:Perimeter
;WIDTH:0.419999
G1 F1200
G1 X146.215 Y87.189 E.00459
G1 X146.811 Y87.785 E.02643
G1 X146.957 Y88.039 E.00919
G1 X147.176 Y88.854 E.02646
G1 X147.176 Y89.146 E.00916
G1 X146.957 Y89.961 E.02646
G1 X146.811 Y90.215 E.00919
G1 X146.215 Y90.811 E.02643
G1 X145.961 Y90.957 E.00919
G1 X145.146 Y91.176 E.02646
G1 X144.854 Y91.176 E.00916
G1 X144.039 Y90.957 E.02646
G1 X143.785 Y90.811 E.00919
G1 X143.189 Y90.215 E.02643
G1 X143.043 Y89.961 E.00919
G1 X142.824 Y89.146 E.02646
G1 X142.824 Y88.854 E.00916
G1 X143.043 Y88.039 E.02646
G1 X143.189 Y87.785 E.00919
G1 X143.785 Y87.189 E.02643
G1 X144.039 Y87.043 E.00919
G1 X144.854 Y86.824 E.02646
G1 X145.146 Y86.824 E.00916
G1 X145.961 Y87.043 E.02646
G1 X146.036 Y87.086 E.00271
M204 S1000
G1 X145.902 Y87.443 F10800
M204 S800
;TYPE:External perimeter
G1 F1200
G1 X146.544 Y88.052 E.02775
G1 X146.811 Y88.951 E.0294
G1 X146.593 Y89.863 E.0294
G1 X145.948 Y90.544 E.02941
G1 X145.049 Y90.811 E.0294
G1 X144.137 Y90.593 E.0294
G1 X143.456 Y89.948 E.02941
G1 X143.189 Y89.049 E.0294
G1 X143.407 Y88.137 E.0294
G1 X144.052 Y87.456 E.02941
G1 X144.951 Y87.189 E.0294
G1 X145.856 Y87.405 E.02917
M204 S1000
;WIPE_START
G1 F8640
G1 X145.902 Y87.443 E-.01378
G1 X146.544 Y88.052 E-.20433
G1 X146.811 Y88.951 E-.21654
G1 X146.593 Y89.863 E-.21652
G1 X146.15 Y90.331 E-.14883
;WIPE_END
G1 Z.6 F720
G1 X160 Y91.176 F10800
G1 Z.2 F720
G1 E.8 F2100
M204 S800
;TYPE:Perimeter
G1 F1200
G1 X159.854 Y91.176 E.00458
G1 X159.039 Y90.957 E.02646
G1 X158.785 Y90.811 E.00919
G1 X158.189 Y90.215 E.02643
G1 X158.043 Y89.961 E.00919
G1 X157.824 Y89.146 E.02646
G1 X157.824 Y88.854 E.00916
G1 X158.043 Y88.039 E.02646
G1 X158.189 Y87.785 E.00919
G1 X158.785 Y87.189 E.02643
G1 X159.039 Y87.043 E.00919
G1 X159.854 Y86.824 E.02646
G1 X160.146 Y86.824 E.00916
G1 X160.961 Y87.043 E.02646
G1 X161.215 Y87.189 E.00919
G1 X161.811 Y87.785 E.02643
G1 X161.957 Y88.039 E.00919
G1 X162.176 Y88.854 E.02646
G1 X162.176 Y89.146 E.00916
G1 X161.957 Y89.961 E.02646
G1 X161.811 Y90.215 E.00919
G1 X161.215 Y90.811 E.02643
G1 X160.961 Y90.957 E.00919
G1 X160.146 Y91.176 E.02646
G1 X160.06 Y91.176 E.0027
M204 S1000
G1 X159.998 Y90.799 F10800
M204 S800
;TYPE:External perimeter
G1 F1200
G1 X159.137 Y90.593 E.02776
G1 X158.456 Y89.948 E.02941
G1 X158.189 Y89.049 E.0294
G1 X158.407 Y88.137 E.0294
G1 X159.052 Y87.456 E.02941
G1 X159.951 Y87.189 E.0294
G1 X160.863 Y87.407 E.0294
G1 X161.544 Y88.052 E.02941
G1 X161.811 Y88.951 E.0294
G1 X161.593 Y89.863 E.0294
G1 X160.948 Y90.544 E.02941
G1 X160.056 Y90.809 E.02918
M204 S1000
;WIPE_START
G1 F8640
G1 X159.998 Y90.799 E-.01359
G1 X159.137 Y90.593 E-.20442
G1 X158.456 Y89.948 E-.21658
G1 X158.189 Y89.049 E-.21654
G1 X158.339 Y88.422 E-.14887
;WIPE_END
G1 Z.6 F720
G1 X86.885 Y93.401 F10800
G1 Z.2 F720
G1 E.8 F2100
M204 S800
;TYPE:Perimeter
G1 F1200
G1 X86.743 Y93.595 E.00754
G1 X86.713 Y93.779 E.00585
G1 X86.713 Y125.213 E.98559
G1 X83.287 Y125.213 E.10742
G1 X83.287 Y84.787 E1.26753
G1 X166.713 Y84.787 E2.61576
G1 X166.713 Y87.233 E.07669
M73 P2 R34
M73 Q2 S35
G1 X166.713 Y93.213 E.1875
G1 X87.5 Y93.213 E2.48366
G1 X87.177 Y93.222 E.01013
G1 X86.939 Y93.326 E.00814
G1 X86.92 Y93.352 E.00101
M204 S1000
G1 X87.141 Y93.676 F10800
M204 S800
;TYPE:External perimeter
G1 F1200
G1 X87.09 Y93.779 E.0036
G1 X87.09 Y125.59 E.99741
G1 X82.91 Y125.59 E.13106
G1 X82.91 Y84.41 E1.29117
G1 X167.09 Y84.41 E2.6394
G1 X167.09 Y87.233 E.08851
G1 X167.09 Y93.59 E.19932
G1 X87.279 Y93.59 E2.50241
G1 X87.171 Y93.626 E.00357
M204 S1000
;WIPE_START
G1 F8640
G1 X87.141 Y93.676 E-.01346
G1 X87.09 Y93.779 E-.02654
G1 X87.09 Y97.07 E-.76
;WIPE_END
G1 Z.6 F720
G1 X165.781 Y84.957 F10800
G1 Z.2 F720
G1 E.8 F2100
M204 S800
;TYPE:Solid infill
;WIDTH:0.420191
G1 F1200
G1 X166.374 Y85.55 E.02631
G1 X166.374 Y86.083 E.01672
G1 X165.417 Y85.126 E.04246
G1 X164.883 Y85.126 E.01675
G1 X166.374 Y86.617 E.06615
G1 X166.374 Y87.15 E.01672
M73 Q3 S35
G1 X164.35 Y85.126 E.08979
G1 X163.816 Y85.126 E.01675
M73 P3 R34
G1 X166.374 Y87.684 E.11348
G1 X166.374 Y88.217 E.01672
G1 X163.283 Y85.126 E.13713
G1 X162.749 Y85.126 E.01675
G1 X166.374 Y88.751 E.16082
G1 X166.374 Y89.285 E.01675
G1 X162.215 Y85.126 E.18451
G1 X161.682 Y85.126 E.01672
G1 X166.374 Y89.818 E.20816
G1 X166.374 Y90.352 E.01675
G1 X161.148 Y85.126 E.23185
G1 X160.615 Y85.126 E.01672
G1 X166.374 Y90.885 E.25549
G1 X166.374 Y91.419 E.01675
G1 X160.081 Y85.126 E.27918
G1 X159.548 Y85.126 E.01672
G1 X166.374 Y91.952 E.30283
G1 X166.374 Y92.486 E.01675
G1 X162.448 Y88.561 E.17415
G1 X162.506 Y88.775 E.00696
G1 X162.536 Y89 E.00712
G1 X162.514 Y89.16 E.00507
G1 X166.228 Y92.874 E.16477
G1 X165.694 Y92.874 E.01675
G1 X162.408 Y89.588 E.14578
G1 X162.295 Y90.008 E.01364
G1 X165.161 Y92.874 E.12715
G1 X164.627 Y92.874 E.01675
G1 X162.121 Y90.367 E.1112
G1 X161.863 Y90.643 E.01185
G1 X164.094 Y92.874 E.09898
G1 X163.56 Y92.874 E.01675
G1 X161.596 Y90.909 E.08715
G1 X161.441 Y91.065 E.0069
G1 X161.299 Y91.146 E.00513
G1 X163.027 Y92.874 E.07666
G1 X162.493 Y92.874 E.01675
G1 X160.935 Y91.316 E.06912
G1 X160.514 Y91.428 E.01367
G1 X161.959 Y92.874 E.06413
G1 X161.426 Y92.874 E.01672
G1 X159.904 Y91.352 E.06752
M204 S1000
;WIPE_START
G1 F8640
G1 X161.426 Y92.874 E-.497
G1 X161.959 Y92.874 E-.12307
G1 X161.408 Y92.323 E-.17993
;WIPE_END
G1 Z.6 F720
G1 X160.679 Y86.791 F10800
G1 Z.2 F720
G1 E.8 F2100
M204 S800
G1 F1200
G1 X159.014 Y85.126 E.07387
G1 X158.481 Y85.126 E.01672
G1 X159.835 Y86.481 E.06009
G1 X159.413 Y86.593 E.0137
G1 X157.947 Y85.126 E.06506
G1 X157.414 Y85.126 E.01672
G1 X158.991 Y86.704 E.06998
G1 X158.932 Y86.72 E.00192
G1 X158.641 Y86.888 E.01054
G1 X156.88 Y85.126 E.07815
G1 X156.346 Y85.126 E.01675
G1 X158.357 Y87.137 E.08922
G1 X158.091 Y87.404 E.01182
G1 X155.813 Y85.126 E.10106
G1 X155.279 Y85.126 E.01675
G1 X157.84 Y87.687 E.11362
G1 X157.796 Y87.747 E.00233
G1 X157.684 Y88.065 E.01058
G1 X154.746 Y85.126 E.13036
G1 X154.212 Y85.126 E.01675
G1 X157.572 Y88.486 E.14906
G1 X157.494 Y88.775 E.00939
G1 X157.475 Y88.922 E.00465
G1 X153.679 Y85.126 E.16841
G1 X153.145 Y85.126 E.01675
M73 Q3 S34
G1 X157.586 Y89.567 E.19702
G1 X157.717 Y90.058 E.01594
G1 X157.796 Y90.253 E.0066
G1 X157.942 Y90.447 E.00762
G1 X158.559 Y91.065 E.02739
G1 X158.932 Y91.28 E.01351
G1 X159.433 Y91.414 E.01627
G1 X160.892 Y92.874 E.06475
G1 X160.359 Y92.874 E.01672
G1 X152.612 Y85.126 E.34371
G1 X152.078 Y85.126 E.01675
G1 X159.825 Y92.874 E.34371
G1 X159.292 Y92.874 E.01672
G1 X151.545 Y85.126 E.34371
G1 X151.011 Y85.126 E.01675
G1 X158.758 Y92.874 E.34371
G1 X158.225 Y92.874 E.01672
G1 X150.478 Y85.126 E.34371
G1 X149.944 Y85.126 E.01675
G1 X157.691 Y92.874 E.34371
G1 X157.158 Y92.874 E.01672
G1 X149.41 Y85.126 E.34373
G1 X148.877 Y85.126 E.01672
G1 X156.624 Y92.874 E.34371
G1 X156.09 Y92.874 E.01675
G1 X148.343 Y85.126 E.34371
G1 X147.81 Y85.126 E.01672
G1 X155.557 Y92.874 E.34371
G1 X155.023 Y92.874 E.01675
G1 X147.276 Y85.126 E.34371
G1 X146.743 Y85.126 E.01672
G1 X154.49 Y92.874 E.34371
G1 X153.956 Y92.874 E.01675
G1 X146.209 Y85.126 E.34371
G1 X145.676 Y85.126 E.01672
G1 X153.423 Y92.874 E.34371
G1 X152.889 Y92.874 E.01675
G1 X145.142 Y85.126 E.34371
G1 X144.609 Y85.126 E.01672
G1 X152.356 Y92.874 E.34371
G1 X151.822 Y92.874 E.01675
G1 X147.426 Y88.478 E.19502
G1 X147.506 Y88.775 E.00965
G1 X147.536 Y89 E.00712
G1 X147.522 Y89.107 E.00339
G1 X151.289 Y92.874 E.16712
G1 X150.755 Y92.874 E.01675
G1 X147.421 Y89.54 E.14791
G1 X147.309 Y89.961 E.01367
G1 X150.222 Y92.874 E.12923
G1 X149.688 Y92.874 E.01675
G1 X147.146 Y90.331 E.1128
G1 X147.058 Y90.447 E.00457
G1 X146.893 Y90.612 E.00732
G1 X149.154 Y92.874 E.10033
G1 X148.621 Y92.874 E.01672
G1 X146.626 Y90.879 E.08851
G1 X146.441 Y91.065 E.00823
G1 X146.338 Y91.124 E.00372
G1 X148.087 Y92.874 E.07762
G1 X147.554 Y92.874 E.01672
G1 X145.983 Y91.303 E.0697
G1 X145.562 Y91.416 E.01367
G1 X147.02 Y92.874 E.06468
G1 X146.487 Y92.874 E.01672
G1 X145.131 Y91.518 E.06016
G1 X145 Y91.536 E.00415
G1 X144.775 Y91.506 E.00712
G1 X144.516 Y91.437 E.00841
G1 X146.123 Y93.043 E.07127
M204 S1000
;WIPE_START
G1 F8640
G1 X144.516 Y91.437 E-.5246
G1 X144.775 Y91.506 E-.06189
G1 X145 Y91.536 E-.05241
G1 X145.131 Y91.518 E-.03053
G1 X145.531 Y91.918 E-.13057
;WIPE_END
G1 Z.6 F720
G1 X145.762 Y86.814 F10800
G1 Z.2 F720
G1 E.8 F2100
M204 S800
G1 F1200
G1 X144.075 Y85.126 E.07486
G1 X143.541 Y85.126 E.01675
M73 P4 R34
G1 X144.89 Y86.475 E.05985
G1 X144.461 Y86.58 E.01386
M73 Q4 S34
G1 X143.008 Y85.126 E.06448
G1 X142.474 Y85.126 E.01675
G1 X144.039 Y86.691 E.06943
G1 X143.932 Y86.72 E.00348
G1 X143.68 Y86.866 E.00914
G1 X141.941 Y85.126 E.07717
G1 X141.407 Y85.126 E.01675
G1 X143.388 Y87.107 E.08789
G1 X143.121 Y87.374 E.01185
G1 X140.874 Y85.126 E.09971
G1 X140.34 Y85.126 E.01675
G1 X142.867 Y87.653 E.11211
G1 X142.796 Y87.747 E.0037
G1 X142.697 Y88.017 E.00902
G1 X139.807 Y85.126 E.12823
G1 X139.273 Y85.126 E.01675
G1 X142.584 Y88.438 E.14691
G1 X142.482 Y88.869 E.01389
G1 X138.74 Y85.126 E.16603
G1 X138.206 Y85.126 E.01675
G1 X142.803 Y89.724 E.20396
M204 S1000
;WIPE_START
G1 F8640
G1 X140.353 Y87.274 E-.8
;WIPE_END
G1 Z.6 F720
G1 X145.589 Y93.043 F10800
G1 Z.2 F720
G1 E.8 F2100
M204 S800
G1 F1200
G1 X137.673 Y85.126 E.35121
G1 X137.139 Y85.126 E.01675
G1 X144.886 Y92.874 E.34371
G1 X144.353 Y92.874 E.01672
G1 X136.605 Y85.126 E.34373
G1 X136.072 Y85.126 E.01672
G1 X143.819 Y92.874 E.34371
G1 X143.285 Y92.874 E.01675
G1 X135.538 Y85.126 E.34371
G1 X135.005 Y85.126 E.01672
G1 X142.752 Y92.874 E.34371
G1 X142.218 Y92.874 E.01675
G1 X134.471 Y85.126 E.34371
G1 X133.938 Y85.126 E.01672
G1 X141.685 Y92.874 E.34371
G1 X141.151 Y92.874 E.01675
G1 X133.404 Y85.126 E.34371
G1 X132.871 Y85.126 E.01672
G1 X140.618 Y92.874 E.34371
G1 X140.084 Y92.874 E.01675
G1 X132.337 Y85.126 E.34371
G1 X131.804 Y85.126 E.01672
G1 X139.551 Y92.874 E.34371
G1 X139.017 Y92.874 E.01675
G1 X131.27 Y85.126 E.34371
G1 X130.736 Y85.126 E.01675
G1 X138.484 Y92.874 E.34373
G1 X137.95 Y92.874 E.01675
G1 X130.203 Y85.126 E.34371
G1 X129.669 Y85.126 E.01675
G1 X137.417 Y92.874 E.34373
G1 X136.883 Y92.874 E.01675
G1 X129.136 Y85.126 E.34371
G1 X128.602 Y85.126 E.01675
G1 X136.349 Y92.874 E.34371
G1 X135.816 Y92.874 E.01672
G1 X128.069 Y85.126 E.34371
G1 X127.535 Y85.126 E.01675
G1 X135.282 Y92.874 E.34371
G1 X134.749 Y92.874 E.01672
G1 X127.002 Y85.126 E.34371
G1 X126.468 Y85.126 E.01675
G1 X134.215 Y92.874 E.34371
G1 X133.682 Y92.874 E.01672
G1 X125.935 Y85.126 E.34371
G1 X125.401 Y85.126 E.01675
G1 X133.148 Y92.874 E.34371
G1 X132.615 Y92.874 E.01672
G1 X124.868 Y85.126 E.34371
G1 X124.334 Y85.126 E.01675
G1 X132.081 Y92.874 E.34371
G1 X131.548 Y92.874 E.01672
M73 P4 R33
G1 X123.8 Y85.126 E.34373
G1 X123.267 Y85.126 E.01672
G1 X131.014 Y92.874 E.34371
G1 X130.48 Y92.874 E.01675
G1 X122.733 Y85.126 E.34371
G1 X122.2 Y85.126 E.01672
G1 X129.947 Y92.874 E.34371
G1 X129.413 Y92.874 E.01675
G1 X121.666 Y85.126 E.34371
G1 X121.133 Y85.126 E.01672
G1 X128.88 Y92.874 E.34371
G1 X128.346 Y92.874 E.01675
M73 P5 R33
G1 X120.599 Y85.126 E.34371
G1 X120.066 Y85.126 E.01672
M73 Q5 S34
G1 X127.813 Y92.874 E.34371
G1 X127.279 Y92.874 E.01675
G1 X119.532 Y85.126 E.34371
G1 X118.999 Y85.126 E.01672
G1 X126.746 Y92.874 E.34371
G1 X126.212 Y92.874 E.01675
G1 X118.465 Y85.126 E.34371
G1 X117.931 Y85.126 E.01675
G1 X125.679 Y92.874 E.34373
G1 X125.145 Y92.874 E.01675
G1 X117.398 Y85.126 E.34371
G1 X116.864 Y85.126 E.01675
G1 X124.612 Y92.874 E.34373
G1 X124.078 Y92.874 E.01675
G1 X116.331 Y85.126 E.34371
G1 X115.797 Y85.126 E.01675
G1 X123.544 Y92.874 E.34371
G1 X123.011 Y92.874 E.01672
G1 X115.264 Y85.126 E.34371
G1 X114.73 Y85.126 E.01675
G1 X122.477 Y92.874 E.34371
G1 X121.944 Y92.874 E.01672
G1 X114.197 Y85.126 E.34371
G1 X113.663 Y85.126 E.01675
G1 X121.41 Y92.874 E.34371
G1 X120.877 Y92.874 E.01672
G1 X113.13 Y85.126 E.34371
G1 X112.596 Y85.126 E.01675
G1 X120.343 Y92.874 E.34371
G1 X119.81 Y92.874 E.01672
G1 X112.063 Y85.126 E.34371
G1 X111.529 Y85.126 E.01675
G1 X119.276 Y92.874 E.34371
G1 X118.743 Y92.874 E.01672
G1 X110.995 Y85.126 E.34373
G1 X110.462 Y85.126 E.01672
G1 X118.209 Y92.874 E.34371
G1 X117.675 Y92.874 E.01675
G1 X109.928 Y85.126 E.34371
G1 X109.395 Y85.126 E.01672
G1 X117.142 Y92.874 E.34371
G1 X116.608 Y92.874 E.01675
