; generated by PrusaSlicer 2.9.2 on 2025-04-16 at 13:00:48 UTC


;
;
; 

; external perimeters extrusion width = 0.45mm
; perimeters extrusion width = 0.45mm
; infill extrusion width = 0.45mm
; solid infill extrusion width = 0.45mm
; top infill extrusion width = 0.40mm
; support material extrusion width = 0.35mm
; first layer extrusion width = 0.42mm

M73 P0 R27
M73 Q0 S27
M201 X1000 Y1000 Z200 E5000 ; sets maximum accelerations, mm/sec^2
M203 X200 Y200 Z12 E120 ; sets maximum feedrates, mm / sec
M204 S1250 T1250 ; sets acceleration (S) and retract acceleration (R), mm/sec^2
M205 X8.00 Y8.00 Z0.40 E4.50 ; sets the jerk limits, mm/sec
M205 S0 T0 ; sets the minimum extruding and travel feed rate, mm/sec

; printing object L Thigh Connector.STL id:0 copy 0
; stop printing object L Thigh Connector.STL id:0 copy 0

;TYPE:Custom
M862.3 P "MK3S" ; printer model check
M862.1 P0.4 ; nozzle diameter check
M115 U3.14.1 ; tell printer latest fw version
G90 ; use absolute coordinates
M83 ; extruder relative mode
M104 S215 ; set extruder temp
M140 S60 ; set bed temp
M190 S60 ; wait for bed temp
M109 S215 ; wait for extruder temp
G28 W ; home all without mesh bed level
G80 X92.6229 Y87.6229 W64.7427 H34.7542 ; mesh bed levelling

G1 Z0.2 F720
G1 Y-3 F1000 ; go outside print area
G92 E0
G1 X60 E9 F1000 ; intro line
G1 X100 E12.5 F1000 ; intro line

G92 E0
M221 S95

; Don't change E values below. Excessive value can damage the printer.

G21 ; set units to millimeters
G90 ; use absolute coordinates
M83 ; use relative distances for extrusion

M900 K0.05 ; Filament gcode LA 1.5
M900 K30 ; Filament gcode LA 1.0




M107
;LAYER_CHANGE
;Z:0.2
;HEIGHT:0.2
G1 E-.8 F2100
G1 Z.6 F720
G1 X93.202 Y88.752 F10800
G1 Z.2 F720
M73 P0 R26
G1 E.8 F2100
M204 S800
;TYPE:Skirt/Brim
;WIDTH:0.42
G1 F1200
G1 X94.235 Y87.949 E.04102
G1 X95 Y87.811 E.02437
G1 X140.215 Y87.822 E1.41768
G1 X143.141 Y88.11 E.09219
G1 X146.376 Y89.048 E.10561
G1 X149.365 Y90.598 E.10557
G1 X151.768 Y92.515 E.09638
G1 X152.298 Y93.005 E.02263
G1 X154.402 Y95.635 E.1056
G1 X155.788 Y98.228 E.09219
G1 X156.806 Y101.438 E.10559
G1 X157.178 Y105.215 E.119
G1 X156.806 Y108.562 E.10559
G1 X155.952 Y111.376 E.0922
G1 X154.164 Y114.722 E.11895
G1 X152.298 Y116.995 E.09221
G1 X149.722 Y119.164 E.10559
G1 X146.376 Y120.952 E.11895
G1 X143.141 Y121.89 E.10561
G1 X140 Y122.189 E.09893
G1 X95 Y122.189 E1.41094
G1 X93.752 Y121.798 E.04101
M73 Q0 S26
G1 X92.949 Y120.765 E.04102
G1 X92.811 Y120 E.02437
G1 X92.811 Y90 E.94063
G1 X93.184 Y88.809 E.03913
M73 Q1 S26
M204 S1000
;WIPE_START
G1 F8640
G1 X93.202 Y88.752 E-.0138
G1 X94.235 Y87.949 E-.30211
G1 X95 Y87.811 E-.17949
G1 X96.319 Y87.811 E-.3046
M73 P1 R26
;WIPE_END
G1 Z.6 F720
; printing object L Thigh Connector.STL id:0 copy 0
G1 X111.412 Y96.885 F10800
G1 Z.2 F720
G1 E.8 F2100
M204 S800
;TYPE:Perimeter
;WIDTH:0.419999
G1 F1200
G1 X111.292 Y96.818 E.00431
G1 X110.689 Y96.215 E.02674
G1 X110.543 Y95.961 E.00919
G1 X110.324 Y95.146 E.02646
G1 X110.324 Y94.854 E.00916
G1 X110.543 Y94.039 E.02646
G1 X110.689 Y93.785 E.00919
G1 X111.285 Y93.189 E.02643
G1 X111.539 Y93.043 E.00919
G1 X112.354 Y92.824 E.02646
G1 X112.646 Y92.824 E.00916
G1 X113.461 Y93.043 E.02646
G1 X113.715 Y93.189 E.00919
G1 X114.311 Y93.785 E.02643
G1 X114.457 Y94.039 E.00919
G1 X114.676 Y94.854 E.02646
G1 X114.676 Y95.146 E.00916
G1 X114.457 Y95.961 E.02646
G1 X114.323 Y96.202 E.00865
G1 X113.715 Y96.811 E.02698
G1 X113.506 Y96.943 E.00775
G1 X112.646 Y97.176 E.02794
G1 X112.401 Y97.186 E.00769
G1 X111.539 Y96.957 E.02796
G1 X111.464 Y96.915 E.0027
M204 S1000
G1 X111.598 Y96.557 F10800
M204 S800
;TYPE:External perimeter
G1 F1200
G1 X110.956 Y95.948 E.02775
G1 X110.689 Y95.049 E.0294
G1 X110.907 Y94.137 E.0294
G1 X111.552 Y93.456 E.02941
G1 X112.451 Y93.189 E.0294
G1 X113.363 Y93.407 E.0294
G1 X114.044 Y94.052 E.02941
G1 X114.311 Y94.951 E.0294
G1 X114.093 Y95.863 E.0294
G1 X113.448 Y96.544 E.02941
G1 X112.549 Y96.811 E.0294
G1 X111.644 Y96.595 E.02917
M204 S1000
;WIPE_START
G1 F8640
G1 X111.598 Y96.557 E-.01378
G1 X110.956 Y95.948 E-.20433
G1 X110.689 Y95.049 E-.21654
G1 X110.907 Y94.137 E-.21652
G1 X111.35 Y93.669 E-.14883
;WIPE_END
G1 Z.6 F720
G1 X95.926 Y94.091 F10800
G1 Z.2 F720
G1 E.8 F2100
M204 S800
;WIDTH:0.486653
G1 F1200
G1 X96.213 Y93.799 E.01511
;WIDTH:0.453326
G1 X96.551 Y93.456 E.01643
;WIDTH:0.419999
G1 X97.227 Y93.249 E.02217
G1 X97.549 Y93.189 E.01027
G1 X98.363 Y93.407 E.02642
G1 X99.044 Y94.052 E.02941
G1 X99.311 Y94.951 E.0294
G1 X99.093 Y95.863 E.0294
G1 X98.448 Y96.544 E.02941
G1 X97.549 Y96.811 E.0294
G1 X96.637 Y96.593 E.0294
G1 X96.19 Y96.179 E.0191
G1 X95.908 Y95.851 E.01356
G1 X95.738 Y95.039 E.02601
;WIDTH:0.452477
G1 X95.806 Y94.59 E.01546
;WIDTH:0.486653
G1 X95.875 Y94.142 E.01672
G1 X95.884 Y94.134 E.00044
M204 S1000
;WIPE_START
G1 F8640
G1 X95.926 Y94.091 E-.01388
G1 X96.213 Y93.799 E-.09454
G1 X96.551 Y93.456 E-.11119
G1 X97.227 Y93.249 E-.16324
G1 X97.549 Y93.189 E-.07563
G1 X98.363 Y93.407 E-.19458
G1 X98.825 Y93.845 E-.14694
;WIPE_END
G1 Z.6 F720
G1 X98.402 Y113.443 F10800
G1 Z.2 F720
G1 E.8 F2100
M204 S800
;WIDTH:0.419999
G1 F1200
G1 X99.044 Y114.052 E.02775
G1 X99.311 Y114.951 E.0294
G1 X99.093 Y115.863 E.0294
G1 X98.448 Y116.544 E.02941
G1 X97.549 Y116.811 E.0294
G1 X96.637 Y116.593 E.0294
;WIDTH:0.441336
G1 X95.951 Y115.952 E.0311
;WIDTH:0.475072
G1 X95.891 Y115.892 E.00305
G1 X95.814 Y115.465 E.01559
;WIDTH:0.447121
G1 X95.737 Y115.039 E.01455
;WIDTH:0.44881
G1 X95.809 Y114.549 E.01672
G1 X95.958 Y114.055 E.01741
;WIDTH:0.419999
G1 X96.551 Y113.456 E.02643
G1 X97.451 Y113.189 E.02943
G1 X98.356 Y113.405 E.02917
M204 S1000
;WIPE_START
G1 F8640
G1 X98.402 Y113.443 E-.01378
G1 X99.044 Y114.052 E-.20433
G1 X99.311 Y114.951 E-.21654
G1 X99.093 Y115.863 E-.21652
G1 X98.65 Y116.331 E-.14883
;WIPE_END
G1 Z.6 F720
G1 X110.616 Y113.912 F10800
G1 Z.2 F720
G1 E.8 F2100
M204 S800
;TYPE:Perimeter
G1 F1200
G1 X110.689 Y113.785 E.00459
G1 X111.285 Y113.189 E.02643
G1 X111.503 Y113.053 E.00806
G1 X112.354 Y112.824 E.02763
G1 X112.599 Y112.814 E.00769
G1 X113.461 Y113.043 E.02796
G1 X113.695 Y113.17 E.00835
G1 X114.311 Y113.785 E.02729
G1 X114.439 Y113.982 E.00737
G1 X114.676 Y114.854 E.02833
G1 X114.676 Y115.146 E.00916
G1 X114.457 Y115.961 E.02646
G1 X114.311 Y116.215 E.00919
G1 X113.715 Y116.811 E.02643
G1 X113.461 Y116.957 E.00919
G1 X112.646 Y117.176 E.02646
G1 X112.354 Y117.176 E.00916
G1 X111.539 Y116.957 E.02646
G1 X111.285 Y116.811 E.00919
G1 X110.689 Y116.215 E.02643
G1 X110.543 Y115.961 E.00919
G1 X110.324 Y115.146 E.02646
G1 X110.324 Y114.854 E.00916
G1 X110.543 Y114.039 E.02646
G1 X110.586 Y113.964 E.00271
M204 S1000
G1 X110.943 Y114.098 F10800
M204 S800
;TYPE:External perimeter
G1 F1200
G1 X111.552 Y113.456 E.02775
G1 X112.451 Y113.189 E.0294
G1 X113.363 Y113.407 E.0294
G1 X114.044 Y114.052 E.02941
G1 X114.311 Y114.951 E.0294
G1 X114.093 Y115.863 E.0294
G1 X113.448 Y116.544 E.02941
G1 X112.549 Y116.811 E.0294
G1 X111.637 Y116.593 E.0294
G1 X110.956 Y115.948 E.02941
G1 X110.907 Y115.863 E.00308
G1 X110.689 Y115.049 E.02642
G1 X110.905 Y114.144 E.02917
M204 S1000
;WIPE_START
G1 F8640
G1 X110.943 Y114.098 E-.01378
G1 X111.552 Y113.456 E-.20433
G1 X112.451 Y113.189 E-.21654
G1 X113.363 Y113.407 E-.21652
G1 X113.831 Y113.85 E-.14883
;WIPE_END
G1 Z.6 F720
G1 X95.787 Y119.213 F10800
G1 Z.2 F720
G1 E.8 F2100
M204 S800
;TYPE:Perimeter
G1 F1200
G1 X95.784 Y116.305 E.09118
G1 X96.283 Y116.809 E.02224
G1 X96.539 Y116.957 E.00927
G1 X97.354 Y117.176 E.02646
G1 X97.646 Y117.176 E.00916
G1 X98.461 Y116.957 E.02646
G1 X98.715 Y116.811 E.00919
G1 X99.311 Y116.215 E.02643
G1 X99.457 Y115.961 E.00919
G1 X99.676 Y115.146 E.02646
G1 X99.676 Y114.854 E.00916
G1 X99.457 Y114.039 E.02646
G1 X99.311 Y113.785 E.00919
G1 X98.715 Y113.189 E.02643
G1 X98.461 Y113.043 E.00919
G1 X97.646 Y112.824 E.02646
G1 X97.354 Y112.824 E.00916
G1 X96.539 Y113.043 E.02646
G1 X96.283 Y113.191 E.00927
G1 X95.784 Y113.696 E.02226
G1 X95.784 Y96.304 E.54531
G1 X96.283 Y96.809 E.02226
G1 X96.539 Y96.957 E.00927
G1 X97.354 Y97.176 E.02646
G1 X97.646 Y97.176 E.00916
G1 X98.461 Y96.957 E.02646
G1 X98.715 Y96.811 E.00919
G1 X99.311 Y96.215 E.02643
G1 X99.457 Y95.961 E.00919
G1 X99.676 Y95.146 E.02646
G1 X99.676 Y94.854 E.00916
G1 X99.457 Y94.039 E.02646
G1 X99.311 Y93.785 E.00919
G1 X98.715 Y93.189 E.02643
G1 X98.461 Y93.043 E.00919
G1 X97.646 Y92.824 E.02646
G1 X97.354 Y92.824 E.00916
G1 X96.539 Y93.043 E.02646
G1 X96.283 Y93.191 E.00927
G1 X95.784 Y93.695 E.02224
G1 X95.787 Y90.787 E.09118
G1 X139.961 Y90.787 E1.38504
G1 X142.772 Y91.064 E.08856
G1 X145.438 Y91.872 E.08735
G1 X147.894 Y93.186 E.08733
G1 X150.047 Y94.953 E.08733
G1 X151.814 Y97.106 E.08733
G1 X153.128 Y99.562 E.08733
G1 X153.936 Y102.228 E.08735
G1 X154.209 Y105 E.08733
G1 X154.074 Y106.376 E.04335
G1 X153.94 Y107.734 E.04279
G1 X153.127 Y110.438 E.08853
G1 X151.814 Y112.894 E.08732
G1 X150.047 Y115.047 E.08733
G1 X147.894 Y116.814 E.08733
G1 X145.438 Y118.128 E.08733
G1 X142.772 Y118.936 E.08735
G1 X139.961 Y119.213 E.08856
G1 X95.847 Y119.213 E1.38316
M204 S1000
G1 X95.41 Y119.59 F10800
M204 S800
;TYPE:External perimeter
G1 F1200
G1 X95.408 Y117.015 E.08074
;WIDTH:0.453325
G1 X95.422 Y116.464 E.01881
;WIDTH:0.48665
G1 X95.436 Y115.913 E.02034
G1 X95.402 Y115.412 E.01853
;WIDTH:0.452475
G1 X95.367 Y114.911 E.0171
;WIDTH:0.419999
G1 X95.41 Y113.503 E.04417
G1 X95.404 Y96.178 E.54321
;WIDTH:0.447246
G1 X95.406 Y95.486 E.02327
M73 P2 R26
M73 Q2 S26
G1 X95.365 Y94.914 E.01928
;WIDTH:0.452911
G1 X95.401 Y94.5 E.01417
;WIDTH:0.486653
G1 X95.436 Y94.087 E.01529
G1 X95.417 Y93.828 E.00958
;WIDTH:0.440359
G1 X95.408 Y92.985 E.02786
;WIDTH:0.419999
G1 X95.41 Y90.41 E.08074
G1 X139.98 Y90.41 E1.39746
G1 X142.846 Y90.692 E.0903
G1 X145.583 Y91.522 E.08968
G1 X148.105 Y92.871 E.08968
G1 X150.315 Y94.685 E.08965
G1 X152.129 Y96.895 E.08965
G1 X153.478 Y99.417 E.08968
G1 X154.308 Y102.154 E.08968
G1 X154.588 Y105 E.08967
G1 X154.449 Y106.413 E.04452
G1 X154.312 Y107.807 E.04392
G1 X153.477 Y110.583 E.09089
G1 X152.129 Y113.105 E.08966
G1 X150.315 Y115.315 E.08965
G1 X148.105 Y117.129 E.08965
G1 X145.583 Y118.478 E.08968
G1 X142.846 Y119.308 E.08968
G1 X139.98 Y119.59 E.0903
G1 X95.47 Y119.59 E1.39558
M204 S1000
;WIPE_START
G1 F8640
G1 X95.41 Y119.59 E-.01385
G1 X95.408 Y117.015 E-.59457
G1 X95.422 Y116.464 E-.12727
G1 X95.429 Y116.186 E-.06431
;WIPE_END
G1 Z.6 F720
G1 X152.124 Y98.045 F10800
G1 Z.2 F720
G1 E.8 F2100
M204 S800
;TYPE:Solid infill
;WIDTH:0.420714
G1 F1200
G1 X147.368 Y93.289 E.21129
G1 X146.22 Y92.676 E.04088
G1 X152.324 Y98.78 E.27117
G1 X152.812 Y99.693 E.03252
G1 X152.86 Y99.85 E.00516
G1 X145.15 Y92.14 E.34252
G1 X144.383 Y91.907 E.02518
G1 X153.093 Y100.617 E.38695
G1 X153.325 Y101.384 E.02517
G1 X143.616 Y91.675 E.43133
G1 X142.85 Y91.442 E.02515
G1 X153.558 Y102.15 E.47571
G1 X153.602 Y102.294 E.00473
G1 X153.649 Y102.776 E.01521
G1 X142.224 Y91.351 E.50756
G1 X141.632 Y91.293 E.01869
G1 X153.707 Y103.368 E.53644
G1 X153.766 Y103.961 E.01872
G1 X141.039 Y91.234 E.56541
G1 X140.446 Y91.176 E.01872
G1 X153.824 Y104.554 E.59433
G1 X153.868 Y105 E.01408
G1 X153.856 Y105.12 E.00379
G1 X139.863 Y91.126 E.62167
G1 X139.328 Y91.126 E.01681
M73 P3 R26
M73 Q3 S26
G1 X153.808 Y105.607 E.64331
G1 X153.76 Y106.093 E.01534
G1 X138.794 Y91.126 E.6649
G1 X138.26 Y91.126 E.01677
G1 X153.713 Y106.579 E.68651
G1 X153.665 Y107.066 E.01537
G1 X137.725 Y91.126 E.70815
G1 X137.191 Y91.126 E.01677
G1 X153.617 Y107.552 E.72974
G1 X153.605 Y107.668 E.00366
G1 X153.511 Y107.981 E.01027
G1 X136.657 Y91.126 E.74877
G1 X136.123 Y91.126 E.01677
G1 X153.388 Y108.392 E.76703
G1 X153.264 Y108.803 E.01349
G1 X135.588 Y91.126 E.78529
G1 X135.054 Y91.126 E.01677
G1 X153.141 Y109.213 E.80353
G1 X153.017 Y109.624 E.01349
G1 X134.52 Y91.126 E.82176
G1 X133.985 Y91.126 E.01681
G1 X152.894 Y110.035 E.84005
G1 X152.812 Y110.308 E.00895
G1 X152.75 Y110.425 E.00416
G1 X133.451 Y91.126 E.85737
G1 X132.917 Y91.126 E.01677
G1 X152.563 Y110.773 E.87281
G1 X152.377 Y111.121 E.0124
M73 P4 R26
M73 Q4 S26
G1 X132.383 Y91.126 E.88827
G1 X131.848 Y91.126 E.01681
M73 P4 R25
G1 X152.191 Y111.469 E.90375
G1 X152.005 Y111.818 E.01242
G1 X131.314 Y91.126 E.91923
G1 X130.78 Y91.126 E.01677
G1 X151.819 Y112.166 E.93469
G1 X151.633 Y112.514 E.0124
G1 X130.245 Y91.126 E.95018
G1 X129.711 Y91.126 E.01677
M73 Q4 S25
G1 X151.422 Y112.837 E.96453
G1 X151.181 Y113.131 E.01194
G1 X129.177 Y91.126 E.97756
G1 X128.643 Y91.126 E.01677
G1 X150.94 Y113.424 E.99058
G1 X150.7 Y113.718 E.01192
G1 X128.108 Y91.126 E1.00366
G1 X127.574 Y91.126 E.01677
G1 X150.459 Y114.011 E1.01668
G1 X150.218 Y114.305 E.01194
G1 X127.04 Y91.126 E1.02972
G1 X126.505 Y91.126 E.01681
M73 P5 R25
M73 Q5 S25
G1 X149.977 Y114.598 E1.04276
G1 X149.806 Y114.806 E.00846
G1 X149.721 Y114.876 E.00346
G1 X125.971 Y91.126 E1.05511
G1 X125.437 Y91.126 E.01677
G1 X149.428 Y115.117 E1.06582
G1 X149.134 Y115.358 E.01194
G1 X124.903 Y91.126 E1.0765
G1 X124.368 Y91.126 E.01681
G1 X148.841 Y115.599 E1.08723
G1 X148.547 Y115.84 E.01194
G1 X123.834 Y91.126 E1.09791
G1 X123.3 Y91.126 E.01677
G1 X148.254 Y116.08 E1.1086
G1 X147.96 Y116.321 E.01194
G1 X122.766 Y91.126 E1.11928
G1 X122.231 Y91.126 E.01681
G1 X147.66 Y116.555 E1.1297
G1 X147.312 Y116.741 E.0124
M73 P6 R25
M73 Q6 S25
G1 X121.697 Y91.126 E1.13796
G1 X121.163 Y91.126 E.01677
G1 X146.963 Y116.927 E1.1462
G1 X146.615 Y117.113 E.0124
G1 X120.628 Y91.126 E1.15449
G1 X120.094 Y91.126 E.01677
G1 X146.267 Y117.299 E1.16275
G1 X145.919 Y117.485 E.0124
G1 X119.56 Y91.126 E1.17102
G1 X119.026 Y91.126 E.01677
G1 X145.571 Y117.672 E1.1793
G1 X145.307 Y117.812 E.00939
G1 X145.207 Y117.843 E.00329
G1 X118.491 Y91.126 E1.1869
G1 X117.957 Y91.126 E.01677
G1 X144.798 Y117.967 E1.19243
G1 X144.388 Y118.091 E.01346
G1 X117.423 Y91.126 E1.19794
M73 Q7 S25
G1 X116.888 Y91.126 E.01681
M73 P7 R25
G1 X143.978 Y118.216 E1.20349
G1 X143.568 Y118.34 E.01346
G1 X116.354 Y91.126 E1.209
G1 X115.82 Y91.126 E.01677
G1 X143.158 Y118.464 E1.21451
G1 X142.748 Y118.589 E.01346
G1 X115.286 Y91.126 E1.22004
G1 X114.751 Y91.126 E.01681
G1 X142.269 Y118.645 E1.22253
G1 X141.783 Y118.692 E.01534
G1 X114.217 Y91.126 E1.22464
G1 X113.683 Y91.126 E.01677
M73 P7 R24
G1 X141.297 Y118.74 E1.22677
G1 X140.81 Y118.788 E.01537
G1 X113.148 Y91.126 E1.2289
G1 X112.614 Y91.126 E.01677
M73 P8 R24
M73 Q8 S25
G1 X140.324 Y118.836 E1.23104
G1 X139.827 Y118.874 E.01566
M73 Q8 S24
G1 X112.08 Y91.126 E1.2327
G1 X111.546 Y91.126 E.01677
G1 X112.982 Y92.563 E.06382
G1 X112.725 Y92.494 E.00836
G1 X112.503 Y92.465 E.00703
G1 X112.362 Y92.477 E.00445
G1 X111.011 Y91.126 E.06002
G1 X110.477 Y91.126 E.01677
G1 X111.937 Y92.586 E.06486
G1 X111.514 Y92.698 E.01375
G1 X109.943 Y91.126 E.06981
G1 X109.408 Y91.126 E.01681
G1 X111.159 Y92.877 E.07779
G1 X111.059 Y92.935 E.00363
G1 X110.871 Y93.123 E.00835
G1 X108.874 Y91.126 E.08872
G1 X108.34 Y91.126 E.01677
G1 X110.604 Y93.391 E.1006
G1 X110.442 Y93.553 E.0072
G1 X110.352 Y93.673 E.00471
G1 X107.806 Y91.126 E.11313
G1 X107.271 Y91.126 E.01681
G1 X110.19 Y94.045 E.12968
G1 X110.077 Y94.466 E.01369
G1 X106.737 Y91.126 E.14838
G1 X106.203 Y91.126 E.01677
G1 X109.981 Y94.905 E.16786
G1 X109.966 Y95.066 E.00508
G1 X110.087 Y95.545 E.01552
G1 X105.499 Y90.957 E.20383
M204 S1000
;WIPE_START
G1 F8640
G1 X107.949 Y93.407 E-.8
;WIPE_END
G1 Z.6 F720
G1 X114.697 Y94.278 F10800
G1 Z.2 F720
G1 E.8 F2100
M204 S800
G1 F1200
G1 X139.293 Y118.874 E1.09269
G1 X138.758 Y118.874 E.01681
G1 X115.016 Y95.131 E1.05478
G1 X114.915 Y95.564 E.01397
G1 X138.224 Y118.874 E1.03554
G1 X137.69 Y118.874 E.01677
G1 X114.802 Y95.986 E1.01681
G1 X114.689 Y96.279 E.00987
G1 X114.633 Y96.351 E.00287
G1 X137.156 Y118.874 E1.0006
G1 X136.621 Y118.874 E.01681
M73 P9 R24
M73 Q9 S24
G1 X114.376 Y96.629 E.98825
G1 X114.109 Y96.896 E.01186
G1 X136.087 Y118.874 E.97639
G1 X135.553 Y118.874 E.01677
G1 X113.829 Y97.149 E.96513
G1 X113.747 Y97.207 E.00316
G1 X113.455 Y97.31 E.00973
G1 X135.018 Y118.874 E.95797
G1 X134.484 Y118.874 E.01677
G1 X113.034 Y97.423 E.95295
G1 X112.599 Y97.523 E.01402
