; generated by PrusaSlicer 2.9.2 on 2025-04-17 at 10:27:25 UTC


;
;
; 

; external perimeters extrusion width = 0.45mm
; perimeters extrusion width = 0.45mm
; infill extrusion width = 0.45mm
; solid infill extrusion width = 0.45mm
; top infill extrusion width = 0.40mm
; support material extrusion width = 0.35mm
; first layer extrusion width = 0.42mm

M73 P0 R214
M73 Q0 S218
M201 X1000 Y1000 Z200 E5000 ; sets maximum accelerations, mm/sec^2
M203 X200 Y200 Z12 E120 ; sets maximum feedrates, mm / sec
M204 S1250 T1250 ; sets acceleration (S) and retract acceleration (R), mm/sec^2
M205 X8.00 Y8.00 Z0.40 E4.50 ; sets the jerk limits, mm/sec
M205 S0 T0 ; sets the minimum extruding and travel feed rate, mm/sec

; printing object R Thigh.STL id:0 copy 0
; stop printing object R Thigh.STL id:0 copy 0

;TYPE:Custom
M862.3 P "MK3S" ; printer model check
M862.1 P0.4 ; nozzle diameter check
M115 U3.14.1 ; tell printer latest fw version
G90 ; use absolute coordinates
M83 ; extruder relative mode
M104 S215 ; set extruder temp
M140 S60 ; set bed temp
M190 S60 ; wait for bed temp
M109 S215 ; wait for extruder temp
G28 W ; home all without mesh bed level
G80 X91.9945 Y37.3883 W66.011 H133.662 ; mesh bed levelling

G1 Z0.2 F720
G1 Y-3 F1000 ; go outside print area
G92 E0
G1 X60 E9 F1000 ; intro line
G1 X100 E12.5 F1000 ; intro line

G92 E0
M221 S95

; Don't change E values below. Excessive value can damage the printer.

G21 ; set units to millimeters
G90 ; use absolute coordinates
M83 ; use relative distances for extrusion

M900 K0.05 ; Filament gcode LA 1.5
M900 K30 ; Filament gcode LA 1.0




M107
;LAYER_CHANGE
;Z:0.2
;HEIGHT:0.2
G1 E-.8 F2100
G1 Z.6 F720
G1 X92.995 Y77.285 F10800
G1 Z.2 F720
G1 E.8 F2100
M204 S800
;TYPE:Skirt/Brim
;WIDTH:0.42
G1 F1200
G1 X141.443 Y38.064 E1.95443
G1 X142.82 Y37.577 E.0458
G1 X155.628 Y37.577 E.40159
G1 X156.877 Y37.968 E.04104
G1 X157.679 Y39.001 E.041
G1 X157.817 Y39.765 E.02434
G1 X157.808 Y64.307 E.7695
G1 X148.58 Y165.819 E3.19596
G1 X148.077 Y167.026 E.041
G1 X147.309 Y167.611 E.03027
G1 X143.909 Y169.164 E.1172
G1 X143.187 Y169.354 E.02341
G1 X125.5 Y170.862 E.55658
G1 X118.313 Y170.854 E.22534
G1 X100.813 Y169.354 E.55071
G1 X99.542 Y168.806 E.0434
G1 X95.221 Y164.946 E.18167
G1 X94.492 Y163.397 E.05368
G1 X92.185 Y103.413 E1.88215
G1 X92.183 Y78.986 E.76589
G1 X92.969 Y77.339 E.05722
M204 S1000
;WIPE_START
G1 F8640
M73 Q0 S217
G1 X92.995 Y77.285 E-.01384
G1 X95.641 Y75.143 E-.78616
;WIPE_END
G1 Z.6 F720
; printing object R Thigh.STL id:0 copy 0
G1 X151.424 Y54.244 F10800
G1 Z.2 F720
G1 E.8 F2100
M204 S800
;TYPE:Support material interface
;WIDTH:0.35
G1 F1200
G1 X151.368 Y53.856 E.01001
G1 X151.368 Y49.63 E.10791
G1 X151.875 Y49.63 E.01295
G1 X151.875 Y54.244 E.11781
G1 X152.382 Y54.244 E.01295
G1 X152.382 Y49.63 E.11781
G1 X152.685 Y49.63 E.00774
G1 X152.685 Y54.244 E.11781
G1 X152.536 Y54.244 E.0038
M204 S1000
;WIPE_START
G1 F8640
G1 X152.685 Y54.244 E-.0344
G1 X152.685 Y50.928 E-.7656
;WIPE_END
G1 Z.6 F720
G1 X151.215 Y49.63 F10800
G1 Z.2 F720
G1 E.8 F2100
M204 S800
G1 F1200
G1 X150.861 Y49.63 E.00904
G1 X150.861 Y53.664 E.103
G1 X150.354 Y53.664 E.01295
G1 X150.354 Y49.63 E.103
G1 X149.847 Y49.63 E.01295
G1 X149.847 Y53.664 E.103
G1 X149.34 Y53.664 E.01295
G1 X149.34 Y49.63 E.103
G1 X148.833 Y49.63 E.01295
G1 X148.833 Y53.664 E.103
G1 X148.326 Y53.664 E.01295
G1 X148.326 Y49.63 E.103
G1 X147.819 Y49.63 E.01295
G1 X147.819 Y53.664 E.103
G1 X147.311 Y53.664 E.01297
G1 X147.311 Y49.63 E.103
G1 X146.804 Y49.63 E.01295
G1 X146.804 Y53.664 E.103
G1 X146.297 Y53.664 E.01295
G1 X146.297 Y49.63 E.103
G1 X145.79 Y49.63 E.01295
G1 X145.79 Y53.698 E.10387
M204 S1000
;WIPE_START
G1 F8640
G1 X145.79 Y50.233 E-.8
;WIPE_END
G1 Z.6 F720
G1 X155.628 Y64.109 F10800
G1 Z.2 F720
G1 E.8 F2100
M204 S800
;TYPE:Support material
;WIDTH:0.42
G1 F1200
G1 X151.48 Y64.109 E.13006
G1 X151.48 Y55.279 E.27686
G1 X151.199 Y54.998 E.01246
G1 X145.801 Y54.998 E.16925
G1 X145.52 Y55.279 E.01246
G1 X145.52 Y64.109 E.27686
G1 X142.82 Y64.109 E.08466
G1 X142.82 Y53.608 E.32925
G1 X145.4 Y53.608 E.08089
G1 X145.4 Y54.608 E.03135
G1 X145.94 Y54.608 E.01693
G1 X145.975 Y54.027 E.01825
G1 X151.025 Y54.027 E.15834
G1 X151.06 Y54.608 E.01825
G1 X153.049 Y54.608 E.06236
G1 X153.049 Y49.266 E.16749
G1 X145.4 Y49.266 E.23983
G1 X145.4 Y52.266 E.09406
G1 X142.82 Y52.266 E.08089
G1 X142.82 Y39.765 E.39196
G1 X155.628 Y39.765 E.40159
G1 X155.628 Y64.052 E.7615
M204 S1000
G1 X155.166 Y63.939 F10800
M204 S800
G1 F1200
G1 X155.166 Y40.105 E.7473
G1 X154.747 Y40.105 E.01314
G1 X154.747 Y63.77 E.742
G1 X154.328 Y63.77 E.01314
G1 X154.328 Y40.105 E.742
G1 X153.909 Y40.105 E.01314
G1 X153.909 Y63.77 E.742
G1 X153.49 Y63.77 E.01314
G1 X153.49 Y40.105 E.742
G1 X153.071 Y40.105 E.01314
G1 X153.071 Y48.927 E.27661
G1 X152.652 Y48.927 E.01314
G1 X152.652 Y40.105 E.27661
G1 X152.234 Y40.105 E.01311
G1 X152.234 Y48.927 E.27661
G1 X151.815 Y48.927 E.01314
G1 X151.815 Y40.105 E.27661
G1 X151.396 Y40.105 E.01314
G1 X151.396 Y48.927 E.27661
G1 X150.977 Y48.927 E.01314
G1 X150.977 Y40.105 E.27661
G1 X150.558 Y40.105 E.01314
G1 X150.558 Y48.927 E.27661
G1 X150.139 Y48.927 E.01314
G1 X150.139 Y40.105 E.27661
G1 X149.72 Y40.105 E.01314
G1 X149.72 Y48.927 E.27661
G1 X149.301 Y48.927 E.01314
G1 X149.301 Y40.105 E.27661
G1 X148.882 Y40.105 E.01314
G1 X148.882 Y48.927 E.27661
G1 X148.463 Y48.927 E.01314
G1 X148.463 Y40.105 E.27661
G1 X148.044 Y40.105 E.01314
G1 X148.044 Y48.927 E.27661
G1 X147.625 Y48.927 E.01314
G1 X147.625 Y40.105 E.27661
G1 X147.206 Y40.105 E.01314
G1 X147.206 Y48.927 E.27661
G1 X146.787 Y48.927 E.01314
G1 X146.787 Y40.105 E.27661
G1 X146.368 Y40.105 E.01314
G1 X146.368 Y48.927 E.27661
G1 X145.949 Y48.927 E.01314
G1 X145.949 Y40.105 E.27661
G1 X145.53 Y40.105 E.01314
G1 X145.53 Y48.927 E.27661
G1 X145.111 Y48.927 E.01314
G1 X145.111 Y40.105 E.27661
G1 X144.692 Y40.105 E.01314
G1 X144.692 Y51.927 E.37067
G1 X144.273 Y51.927 E.01314
G1 X144.273 Y40.105 E.37067
G1 X143.854 Y40.105 E.01314
G1 X143.854 Y51.927 E.37067
G1 X143.435 Y51.927 E.01314
G1 X143.435 Y39.935 E.376
M204 S1000
;WIPE_START
G1 F8640
G1 X143.435 Y43.4 E-.8
;WIPE_END
G1 Z.6 F720
G1 X153.071 Y63.939 F10800
G1 Z.2 F720
G1 E.8 F2100
M204 S800
G1 F1200
G1 X153.071 Y54.947 E.28194
G1 X152.652 Y54.947 E.01314
G1 X152.652 Y63.77 E.27664
G1 X152.234 Y63.77 E.01311
M73 P0 R213
G1 X152.234 Y54.947 E.27664
G1 X151.815 Y54.947 E.01314
G1 X151.815 Y63.939 E.28194
M204 S1000
;WIPE_START
G1 F8640
G1 X151.815 Y60.474 E-.8
;WIPE_END
G1 Z.6 F720
G1 X150.558 Y54.828 F10800
G1 Z.2 F720
G1 E.8 F2100
M204 S800
G1 F1200
G1 X150.558 Y54.367 E.01445
G1 X150.139 Y54.367 E.01314
G1 X150.139 Y54.659 E.00916
G1 X149.72 Y54.659 E.01314
G1 X149.72 Y54.367 E.00916
G1 X149.301 Y54.367 E.01314
G1 X149.301 Y54.659 E.00916
G1 X148.882 Y54.659 E.01314
G1 X148.882 Y54.367 E.00916
G1 X148.463 Y54.367 E.01314
G1 X148.463 Y54.659 E.00916
G1 X148.044 Y54.659 E.01314
G1 X148.044 Y54.367 E.00916
G1 X147.625 Y54.367 E.01314
G1 X147.625 Y54.659 E.00916
G1 X147.206 Y54.659 E.01314
G1 X147.206 Y54.367 E.00916
G1 X146.787 Y54.367 E.01314
G1 X146.787 Y54.659 E.00916
G1 X146.368 Y54.659 E.01314
G1 X146.368 Y54.197 E.01449
M204 S1000
;WIPE_START
G1 F8640
G1 X146.368 Y54.659 E-.10668
G1 X146.787 Y54.659 E-.09675
G1 X146.787 Y54.367 E-.06742
G1 X147.206 Y54.367 E-.09675
G1 X147.206 Y54.659 E-.06742
G1 X147.625 Y54.659 E-.09675
G1 X147.625 Y54.367 E-.06742
G1 X148.044 Y54.367 E-.09675
G1 X148.044 Y54.659 E-.06742
G1 X148.203 Y54.659 E-.03664
;WIPE_END
G1 Z.6 F720
G1 X145.111 Y63.939 F10800
G1 Z.2 F720
G1 E.8 F2100
M204 S800
G1 F1200
G1 X145.061 Y53.947 E.3133
G1 X144.692 Y53.947 E.01157
G1 X144.692 Y63.77 E.30799
G1 X144.273 Y63.77 E.01314
G1 X144.273 Y53.947 E.30799
G1 X143.854 Y53.947 E.01314
G1 X143.854 Y63.77 E.30799
G1 X143.435 Y63.77 E.01314
G1 X143.435 Y53.778 E.31329
M204 S1000
;WIPE_START
G1 F8640
G1 X143.435 Y57.243 E-.8
;WIPE_END
G1 Z.6 F720
G1 X101.983 Y80.694 F10800
G1 Z.2 F720
G1 E.8 F2100
M204 S800
G1 F1200
G1 X98.801 Y80.694 E.09977
G1 X98.52 Y80.975 E.01246
G1 X98.52 Y86.372 E.16922
G1 X98.801 Y86.654 E.01248
G1 X105.52 Y86.654 E.21067
G1 X105.52 Y95.694 E.28344
G1 X98.801 Y95.694 E.21067
G1 X98.52 Y95.975 E.01246
G1 X98.52 Y101.372 E.16922
G1 X98.801 Y101.654 E.01248
G1 X105.52 Y101.654 E.21067
G1 X105.52 Y115.694 E.44021
G1 X101.293 Y115.694 E.13253
G1 X101.293 Y103.329 E.3877
G1 X94.372 Y103.329 E.217
G1 X94.372 Y92.828 E.32925
G1 X101.293 Y92.828 E.217
G1 X101.293 Y89.487 E.10475
G1 X94.372 Y89.487 E.217
G1 X94.372 Y78.986 E.32925
G1 X103.691 Y78.986 E.29219
G1 X102.023 Y80.654 E.07396
M204 S1000
;WIPE_START
G1 F8640
G1 X103.691 Y78.986 E-.54468
G1 X102.585 Y78.986 E-.25532
;WIPE_END
G1 Z.6 F720
G1 X104.889 Y115.524 F10800
G1 Z.2 F720
G1 E.8 F2100
M204 S800
G1 F1200
G1 X104.889 Y101.993 E.42426
G1 X104.47 Y101.993 E.01314
G1 X104.47 Y115.354 E.41892
G1 X104.051 Y115.354 E.01314
G1 X104.051 Y101.993 E.41892
G1 X103.632 Y101.993 E.01314
G1 X103.632 Y115.354 E.41892
G1 X103.213 Y115.354 E.01314
G1 X103.213 Y101.993 E.41892
G1 X102.794 Y101.993 E.01314
G1 X102.794 Y115.354 E.41892
G1 X102.375 Y115.354 E.01314
G1 X102.375 Y101.993 E.41892
G1 X101.956 Y101.993 E.01314
G1 X101.956 Y115.354 E.41892
G1 X101.632 Y115.354 E.01016
G1 X101.632 Y102.99 E.38766
G1 X101.537 Y102.99 E.00298
G1 X101.537 Y101.993 E.03126
G1 X101.118 Y101.993 E.01314
G1 X101.118 Y102.99 E.03126
G1 X100.699 Y102.99 E.01314
G1 X100.699 Y101.993 E.03126
G1 X100.28 Y101.993 E.01314
G1 X100.28 Y102.99 E.03126
G1 X99.861 Y102.99 E.01314
G1 X99.861 Y101.993 E.03126
G1 X99.442 Y101.993 E.01314
G1 X99.442 Y102.99 E.03126
G1 X99.023 Y102.99 E.01314
G1 X99.023 Y101.993 E.03126
G1 X98.604 Y101.937 E.01325
G1 X98.604 Y102.99 E.03302
G1 X98.185 Y102.99 E.01314
G1 X98.185 Y93.168 E.30796
G1 X98.604 Y93.168 E.01314
G1 X98.604 Y95.41 E.0703
G1 X99.023 Y95.354 E.01325
G1 X99.023 Y93.168 E.06854
G1 X99.442 Y93.168 E.01314
G1 X99.442 Y95.354 E.06854
G1 X99.861 Y95.354 E.01314
G1 X99.861 Y93.168 E.06854
G1 X100.28 Y93.168 E.01314
G1 X100.28 Y95.354 E.06854
G1 X100.699 Y95.354 E.01314
G1 X100.699 Y93.168 E.06854
G1 X101.118 Y93.168 E.01314
G1 X101.118 Y95.354 E.06854
G1 X101.537 Y95.354 E.01314
G1 X101.537 Y86.993 E.26215
G1 X101.956 Y86.993 E.01314
G1 X101.956 Y95.354 E.26215
G1 X102.375 Y95.354 E.01314
G1 X102.375 Y86.993 E.26215
G1 X102.794 Y86.993 E.01314
G1 X102.794 Y95.354 E.26215
G1 X103.213 Y95.354 E.01314
G1 X103.213 Y86.993 E.26215
G1 X103.632 Y86.993 E.01314
G1 X103.632 Y95.354 E.26215
G1 X104.051 Y95.354 E.01314
G1 X104.051 Y86.993 E.26215
G1 X104.47 Y86.993 E.01314
G1 X104.47 Y95.354 E.26215
G1 X104.889 Y95.354 E.01314
G1 X104.889 Y86.823 E.26748
M204 S1000
;WIPE_START
G1 F8640
G1 X104.889 Y90.288 E-.8
;WIPE_END
G1 Z.6 F720
G1 X102.794 Y79.643 F10800
G1 Z.2 F720
G1 E.8 F2100
M204 S800
G1 F1200
G1 X102.794 Y79.325 E.00997
G1 X102.375 Y79.325 E.01314
G1 X102.375 Y79.822 E.01558
G1 X101.956 Y80.241 E.01858
G1 X101.956 Y79.325 E.02872
G1 X101.537 Y79.325 E.01314
G1 X101.537 Y80.354 E.03226
G1 X101.118 Y80.354 E.01314
G1 X101.118 Y79.325 E.03226
G1 X100.699 Y79.325 E.01314
G1 X100.699 Y80.354 E.03226
G1 X100.28 Y80.354 E.01314
G1 X100.28 Y79.325 E.03226
G1 X99.861 Y79.325 E.01314
G1 X99.861 Y80.354 E.03226
G1 X99.442 Y80.354 E.01314
G1 X99.442 Y79.325 E.03226
G1 X99.023 Y79.325 E.01314
G1 X99.023 Y80.354 E.03226
G1 X98.604 Y80.41 E.01325
G1 X98.604 Y79.325 E.03402
G1 X98.185 Y79.325 E.01314
G1 X98.185 Y89.147 E.30796
G1 X98.604 Y89.147 E.01314
G1 X98.604 Y86.937 E.06929
M73 Q0 S216
G1 X99.023 Y86.993 E.01325
G1 X99.023 Y89.147 E.06754
G1 X99.442 Y89.147 E.01314
G1 X99.442 Y86.993 E.06754
G1 X99.861 Y86.993 E.01314
G1 X99.861 Y89.147 E.06754
G1 X100.28 Y89.147 E.01314
G1 X100.28 Y86.993 E.06754
G1 X100.699 Y86.993 E.01314
G1 X100.699 Y89.147 E.06754
G1 X101.118 Y89.147 E.01314
G1 X101.118 Y86.823 E.07287
M204 S1000
;WIPE_START
G1 F8640
G1 X101.118 Y89.147 E-.53662
G1 X100.699 Y89.147 E-.09675
G1 X100.699 Y88.425 E-.16663
;WIPE_END
G1 Z.6 F720
G1 X97.766 Y103.16 F10800
G1 Z.2 F720
G1 E.8 F2100
M204 S800
G1 F1200
G1 X97.766 Y93.168 E.31329
G1 X97.348 Y93.168 E.01311
G1 X97.348 Y102.99 E.30796
G1 X96.929 Y102.99 E.01314
G1 X96.929 Y93.168 E.30796
G1 X96.51 Y93.168 E.01314
G1 X96.51 Y102.99 E.30796
G1 X96.091 Y102.99 E.01314
G1 X96.091 Y93.168 E.30796
G1 X95.672 Y93.168 E.01314
G1 X95.672 Y102.99 E.30796
G1 X95.253 Y102.99 E.01314
G1 X95.253 Y93.168 E.30796
G1 X94.834 Y93.168 E.01314
G1 X94.834 Y103.16 E.31329
M204 S1000
;WIPE_START
G1 F8640
G1 X94.834 Y99.695 E-.8
;WIPE_END
G1 Z.6 F720
G1 X97.766 Y89.317 F10800
G1 Z.2 F720
G1 E.8 F2100
M204 S800
G1 F1200
G1 X97.766 Y79.325 E.31329
G1 X97.348 Y79.325 E.01311
G1 X97.348 Y89.147 E.30796
G1 X96.929 Y89.147 E.01314
G1 X96.929 Y79.325 E.30796
G1 X96.51 Y79.325 E.01314
G1 X96.51 Y89.147 E.30796
G1 X96.091 Y89.147 E.01314
G1 X96.091 Y79.325 E.30796
G1 X95.672 Y79.325 E.01314
G1 X95.672 Y89.147 E.30796
G1 X95.253 Y89.147 E.01314
G1 X95.253 Y79.325 E.30796
G1 X94.834 Y79.325 E.01314
G1 X94.834 Y89.317 E.31329
M204 S1000
;WIPE_START
G1 F8640
G1 X94.834 Y85.852 E-.8
;WIPE_END
G1 Z.6 F720
G1 X114.101 Y115.694 F10800
G1 Z.2 F720
G1 E.8 F2100
M204 S800
G1 F1200
G1 X111.48 Y115.694 E.08218
G1 X111.48 Y86.654 E.91053
G1 X114.101 Y86.654 E.08218
G1 X114.101 Y115.637 E.90874
M204 S1000
G1 X113.688 Y115.524 F10800
M204 S800
G1 F1200
G1 X113.688 Y86.993 E.89457
G1 X113.269 Y86.993 E.01314
G1 X113.269 Y115.354 E.88924
G1 X112.85 Y115.354 E.01314
G1 X112.85 Y86.993 E.88924
G1 X112.431 Y86.993 E.01314
G1 X112.431 Y115.354 E.88924
G1 X112.012 Y115.354 E.01314
G1 X112.012 Y86.823 E.89457
M204 S1000
;WIPE_START
G1 F8640
G1 X112.012 Y90.288 E-.8
;WIPE_END
G1 Z.6 F720
G1 X132.52 Y115.694 F10800
G1 Z.2 F720
G1 E.8 F2100
M204 S800
G1 F1200
G1 X128.978 Y115.694 E.11106
G1 X128.978 Y86.654 E.91053
G1 X132.52 Y86.654 E.11106
G1 X132.52 Y115.637 E.90874
M204 S1000
G1 X132.123 Y115.524 F10800
M204 S800
G1 F1200
G1 X132.123 Y86.993 E.89457
G1 X131.704 Y86.993 E.01314
G1 X131.704 Y115.354 E.88924
G1 X131.285 Y115.354 E.01314
G1 X131.285 Y86.993 E.88924
G1 X130.866 Y86.993 E.01314
G1 X130.866 Y115.354 E.88924
G1 X130.447 Y115.354 E.01314
G1 X130.447 Y86.993 E.88924
G1 X130.028 Y86.993 E.01314
M73 P0 R212
G1 X130.028 Y115.354 E.88924
G1 X129.609 Y115.354 E.01314
G1 X129.609 Y86.823 E.89457
M204 S1000
;WIPE_START
G1 F8640
G1 X129.609 Y90.288 E-.8
;WIPE_END
G1 Z.6 F720
G1 X141.786 Y115.694 F10800
G1 Z.2 F720
G1 E.8 F2100
M204 S800
G1 F1200
G1 X138.48 Y115.694 E.10366
G1 X138.48 Y86.654 E.91053
G1 X141.786 Y86.654 E.10366
G1 X141.786 Y115.637 E.90874
M204 S1000
G1 X141.34 Y115.524 F10800
M204 S800
G1 F1200
G1 X141.34 Y86.993 E.89457
G1 X140.921 Y86.993 E.01314
G1 X140.921 Y115.354 E.88924
G1 X140.502 Y115.354 E.01314
G1 X140.502 Y86.993 E.88924
G1 X140.083 Y86.993 E.01314
G1 X140.083 Y115.354 E.88924
G1 X139.664 Y115.354 E.01314
M73 P1 R212
G1 X139.664 Y86.993 E.88924
G1 X139.245 Y86.993 E.01314
M73 Q1 S216
G1 X139.245 Y115.354 E.88924
G1 X138.826 Y115.354 E.01314
G1 X138.826 Y86.823 E.89457
M204 S1000
;WIPE_START
G1 F8640
G1 X138.826 Y90.288 E-.8
;WIPE_END
G1 Z.6 F720
G1 X146.4 Y165.62 F10800
G1 Z.2 F720
G1 E.8 F2100
M204 S800
G1 F1200
G1 X143.48 Y165.62 E.09155
G1 X143.48 Y141.277 E.76326
G1 X146.4 Y141.277 E.09155
G1 X146.4 Y165.564 E.7615
M204 S1000
G1 X145.949 Y165.451 F10800
M204 S800
G1 F1200
G1 X145.949 Y141.616 E.74733
G1 X145.53 Y141.616 E.01314
G1 X145.53 Y165.281 E.742
G1 X145.111 Y165.281 E.01314
G1 X145.111 Y141.616 E.742
G1 X144.692 Y141.616 E.01314
G1 X144.692 Y165.281 E.742
G1 X144.273 Y165.281 E.01314
G1 X144.273 Y141.616 E.742
G1 X143.854 Y141.616 E.01314
M73 Q1 S215
G1 X143.854 Y165.451 E.74733
M204 S1000
;WIPE_START
G1 F8640
G1 X143.854 Y161.986 E-.8
;WIPE_END
G1 Z.6 F720
G1 X100.52 Y163.313 F10800
G1 Z.2 F720
G1 E.8 F2100
M204 S800
G1 F1200
G1 X96.679 Y163.313 E.12043
G1 X96.679 Y143.584 E.61859
G1 X100.52 Y143.584 E.12043
G1 X100.52 Y163.257 E.61683
M204 S1000
G1 X99.861 Y163.144 F10800
M204 S800
G1 F1200
G1 X99.861 Y143.923 E.60266
G1 X99.442 Y143.923 E.01314
G1 X99.442 Y162.974 E.59733
