; generated by PrusaSlicer 2.9.2 on 2025-04-15 at 23:12:46 UTC


;
;
; 

; external perimeters extrusion width = 0.45mm
; perimeters extrusion width = 0.45mm
; infill extrusion width = 0.45mm
; solid infill extrusion width = 0.45mm
; top infill extrusion width = 0.40mm
; support material extrusion width = 0.35mm
; first layer extrusion width = 0.42mm

M73 P0 R27
M73 Q0 S27
M201 X1000 Y1000 Z200 E5000 ; sets maximum accelerations, mm/sec^2
M203 X200 Y200 Z12 E120 ; sets maximum feedrates, mm / sec
M204 S1250 T1250 ; sets acceleration (S) and retract acceleration (R), mm/sec^2
M205 X8.00 Y8.00 Z0.40 E4.50 ; sets the jerk limits, mm/sec
M205 S0 T0 ; sets the minimum extruding and travel feed rate, mm/sec

; printing object R Thigh Connector.STL id:0 copy 0
; stop printing object R Thigh Connector.STL id:0 copy 0

;TYPE:Custom
M862.3 P "MK3S" ; printer model check
M862.1 P0.4 ; nozzle diameter check
M115 U3.14.1 ; tell printer latest fw version
G90 ; use absolute coordinates
M83 ; extruder relative mode
M104 S215 ; set extruder temp
M140 S60 ; set bed temp
M190 S60 ; wait for bed temp
M109 S215 ; wait for extruder temp
G28 W ; home all without mesh bed level
G80 X92.6344 Y87.6229 W64.7427 H34.7542 ; mesh bed levelling

G1 Z0.2 F720
G1 Y-3 F1000 ; go outside print area
G92 E0
G1 X60 E9 F1000 ; intro line
M73 P0 R26
G1 X100 E12.5 F1000 ; intro line

G92 E0
M221 S95

; Don't change E values below. Excessive value can damage the printer.

G21 ; set units to millimeters
G90 ; use absolute coordinates
M83 ; use relative distances for extrusion

M900 K0.05 ; Filament gcode LA 1.5
M900 K30 ; Filament gcode LA 1.0




M107
;LAYER_CHANGE
;Z:0.2
;HEIGHT:0.2
G1 E-.8 F2100
G1 Z.6 F720
G1 X98.005 Y92.702 F10800
G1 Z.2 F720
M73 Q0 S26
G1 E.8 F2100
M204 S800
;TYPE:Skirt/Brim
;WIDTH:0.42
G1 F1200
G1 X100.635 Y90.598 E.1056
G1 X103.624 Y89.048 E.10557
G1 X106.859 Y88.11 E.10561
G1 X110 Y87.811 E.09893
G1 X155 Y87.811 E1.41094
G1 X156.248 Y88.202 E.04101
G1 X157.051 Y89.235 E.04102
G1 X157.189 Y90 E.02437
G1 X157.189 Y120 E.94063
G1 X156.798 Y121.248 E.04101
G1 X155.765 Y122.051 E.04102
G1 X155 Y122.189 E.02437
G1 X110 Y122.189 E1.41094
G1 X106.859 Y121.89 E.09893
G1 X103.228 Y120.788 E.11898
G1 X100.635 Y119.402 E.09219
G1 X98.232 Y117.485 E.09638
G1 X97.702 Y116.995 E.02263
G1 X95.836 Y114.722 E.09221
G1 X94.048 Y111.376 E.11895
G1 X93.11 Y108.141 E.10561
G1 X92.822 Y104.785 E.10561
G1 X93.194 Y101.438 E.10559
G1 X94.212 Y98.228 E.10559
G1 X95.836 Y95.278 E.10558
G1 X97.966 Y92.748 E.1037
M73 Q1 S26
M204 S1000
;WIPE_START
G1 F8640
M73 P1 R26
G1 X98.005 Y92.702 E-.01393
G1 X100.635 Y90.598 E-.77769
G1 X100.667 Y90.581 E-.00838
;WIPE_END
G1 Z.6 F720
; printing object R Thigh Connector.STL id:0 copy 0
G1 X137.5 Y112.818 F10800
G1 Z.2 F720
G1 E.8 F2100
M204 S800
;TYPE:Perimeter
;WIDTH:0.419999
G1 F1200
G1 X137.599 Y112.814 E.00311
G1 X138.461 Y113.043 E.02796
G1 X138.708 Y113.182 E.00889
G1 X139.311 Y113.785 E.02674
G1 X139.457 Y114.039 E.00919
G1 X139.676 Y114.854 E.02646
G1 X139.676 Y115.146 E.00916
G1 X139.457 Y115.961 E.02646
G1 X139.311 Y116.215 E.00919
G1 X138.715 Y116.811 E.02643
G1 X138.461 Y116.957 E.00919
G1 X137.646 Y117.176 E.02646
G1 X137.354 Y117.176 E.00916
G1 X136.539 Y116.957 E.02646
G1 X136.285 Y116.811 E.00919
G1 X135.689 Y116.215 E.02643
G1 X135.543 Y115.961 E.00919
G1 X135.324 Y115.146 E.02646
G1 X135.324 Y114.854 E.00916
G1 X135.543 Y114.039 E.02646
G1 X135.677 Y113.798 E.00865
G1 X136.285 Y113.189 E.02698
G1 X136.494 Y113.057 E.00775
G1 X137.353 Y112.824 E.02791
G1 X137.44 Y112.821 E.00273
M204 S1000
G1 X137.502 Y113.201 F10800
M204 S800
;TYPE:External perimeter
G1 F1200
G1 X138.363 Y113.407 E.02776
G1 X139.044 Y114.052 E.02941
G1 X139.311 Y114.951 E.0294
G1 X139.093 Y115.863 E.0294
G1 X138.448 Y116.544 E.02941
G1 X137.549 Y116.811 E.0294
G1 X136.637 Y116.593 E.0294
G1 X135.956 Y115.948 E.02941
G1 X135.689 Y115.049 E.0294
G1 X135.907 Y114.137 E.0294
G1 X135.952 Y114.056 E.00291
G1 X136.552 Y113.456 E.0266
G1 X137.444 Y113.191 E.02918
M204 S1000
;WIPE_START
G1 F8640
G1 X137.502 Y113.201 E-.01359
G1 X138.363 Y113.407 E-.20442
G1 X139.044 Y114.052 E-.21658
G1 X139.311 Y114.951 E-.21654
G1 X139.161 Y115.578 E-.14887
;WIPE_END
G1 Z.6 F720
G1 X139.384 Y96.088 F10800
G1 Z.2 F720
G1 E.8 F2100
M204 S800
;TYPE:Perimeter
G1 F1200
G1 X139.311 Y96.215 E.00459
G1 X138.715 Y96.811 E.02643
G1 X138.497 Y96.947 E.00806
G1 X137.599 Y97.186 E.02914
G1 X137.354 Y97.176 E.00769
G1 X136.539 Y96.957 E.02646
G1 X136.305 Y96.83 E.00835
G1 X135.689 Y96.215 E.02729
G1 X135.561 Y96.018 E.00737
G1 X135.324 Y95.146 E.02833
G1 X135.324 Y94.854 E.00916
G1 X135.543 Y94.039 E.02646
G1 X135.689 Y93.785 E.00919
G1 X136.285 Y93.189 E.02643
G1 X136.539 Y93.043 E.00919
G1 X137.354 Y92.824 E.02646
G1 X137.646 Y92.824 E.00916
G1 X138.461 Y93.043 E.02646
G1 X138.715 Y93.189 E.00919
G1 X139.311 Y93.785 E.02643
G1 X139.457 Y94.039 E.00919
G1 X139.676 Y94.854 E.02646
G1 X139.676 Y95.146 E.00916
G1 X139.457 Y95.961 E.02646
G1 X139.414 Y96.036 E.00271
M204 S1000
G1 X139.057 Y95.902 F10800
M204 S800
;TYPE:External perimeter
G1 F1200
G1 X138.448 Y96.544 E.02775
G1 X137.533 Y96.815 E.02992
G1 X136.637 Y96.593 E.02894
G1 X135.956 Y95.948 E.02941
G1 X135.689 Y95.049 E.0294
G1 X135.907 Y94.137 E.0294
G1 X136.552 Y93.456 E.02941
G1 X137.451 Y93.189 E.0294
G1 X138.363 Y93.407 E.0294
G1 X139.044 Y94.052 E.02941
G1 X139.311 Y94.951 E.0294
G1 X139.095 Y95.856 E.02917
M204 S1000
;WIPE_START
G1 F8640
G1 X139.057 Y95.902 E-.01378
G1 X138.448 Y96.544 E-.20433
G1 X137.533 Y96.815 E-.22035
G1 X136.637 Y96.593 E-.21314
G1 X136.17 Y96.151 E-.1484
;WIPE_END
G1 Z.6 F720
G1 X153.397 Y96.559 F10800
G1 Z.2 F720
G1 E.8 F2100
M204 S800
G1 F1200
G1 X152.549 Y96.811 E.02774
G1 X151.637 Y96.593 E.0294
G1 X151.554 Y96.546 E.00299
G1 X150.956 Y95.948 E.02652
G1 X150.689 Y95.049 E.0294
G1 X150.907 Y94.137 E.0294
G1 X151.552 Y93.456 E.02941
G1 X152.451 Y93.189 E.0294
G1 X153.363 Y93.407 E.0294
;WIDTH:0.440358
G1 X154.049 Y94.048 E.03103
;WIDTH:0.48665
G1 X154.125 Y94.142 E.00446
G1 X154.194 Y94.552 E.01534
;WIDTH:0.452909
G1 X154.263 Y94.961 E.01414
;WIDTH:0.447686
G1 X154.191 Y95.45 E.01664
G1 X154.042 Y95.945 E.0174
;WIDTH:0.419999
G1 X153.453 Y96.539 E.02623
M204 S1000
;WIPE_START
G1 F8640
G1 X153.397 Y96.559 E-.01373
G1 X152.549 Y96.811 E-.20427
G1 X151.637 Y96.593 E-.21652
G1 X151.554 Y96.546 E-.02202
G1 X150.956 Y95.948 E-.19527
G1 X150.773 Y95.333 E-.14819
;WIPE_END
G1 Z.6 F720
G1 X154.054 Y114.105 F10800
G1 Z.2 F720
G1 E.8 F2100
M204 S800
G1 F1200
G1 X154.092 Y114.149 E.00182
;WIDTH:0.44881
G1 X154.191 Y114.549 E.01391
G1 X154.263 Y115.039 E.01672
;WIDTH:0.452909
G1 X154.194 Y115.448 E.01414
;WIDTH:0.486649
G1 X154.125 Y115.858 E.01534
G1 X153.787 Y116.201 E.01777
;WIDTH:0.453324
G1 X153.449 Y116.544 E.01643
;WIDTH:0.419999
G1 X152.773 Y116.751 E.02217
G1 X152.451 Y116.811 E.01027
G1 X151.637 Y116.593 E.02642
G1 X150.956 Y115.948 E.02941
G1 X150.689 Y115.049 E.0294
G1 X150.907 Y114.137 E.0294
G1 X151.552 Y113.456 E.02941
G1 X152.451 Y113.189 E.0294
G1 X153.363 Y113.407 E.0294
G1 X153.81 Y113.821 E.0191
G1 X154.015 Y114.059 E.00985
M204 S1000
;WIPE_START
G1 F8640
G1 X154.054 Y114.105 E-.01393
G1 X154.092 Y114.149 E-.01342
G1 X154.191 Y114.549 E-.09515
G1 X154.263 Y115.039 E-.11436
G1 X154.194 Y115.448 E-.09577
G1 X154.125 Y115.858 E-.096
G1 X153.787 Y116.201 E-.11119
G1 X153.449 Y116.544 E-.11119
G1 X152.832 Y116.733 E-.14899
;WIPE_END
G1 Z.6 F720
G1 X154.213 Y119.213 F10800
G1 Z.2 F720
G1 E.8 F2100
M204 S800
;TYPE:Perimeter
G1 F1200
G1 X110.039 Y119.213 E1.38504
G1 X107.228 Y118.936 E.08856
G1 X104.562 Y118.128 E.08735
G1 X102.106 Y116.814 E.08733
G1 X99.953 Y115.047 E.08733
G1 X98.186 Y112.894 E.08733
G1 X96.872 Y110.438 E.08733
G1 X96.064 Y107.772 E.08735
G1 X95.791 Y105 E.08733
G1 X96.064 Y102.228 E.08733
G1 X96.872 Y99.562 E.08735
G1 X98.186 Y97.106 E.08733
G1 X99.953 Y94.953 E.08733
G1 X102.106 Y93.186 E.08733
G1 X104.562 Y91.872 E.08733
G1 X107.228 Y91.064 E.08735
G1 X110.039 Y90.787 E.08856
G1 X154.213 Y90.787 E1.38504
G1 X154.216 Y93.695 E.09118
G1 X153.717 Y93.191 E.02224
G1 X153.461 Y93.043 E.00927
G1 X152.646 Y92.824 E.02646
G1 X152.354 Y92.824 E.00916
G1 X151.539 Y93.043 E.02646
G1 X151.285 Y93.189 E.00919
G1 X150.689 Y93.785 E.02643
G1 X150.543 Y94.039 E.00919
G1 X150.324 Y94.854 E.02646
G1 X150.324 Y95.146 E.00916
G1 X150.543 Y95.961 E.02646
G1 X150.689 Y96.215 E.00919
G1 X151.285 Y96.811 E.02643
G1 X151.539 Y96.957 E.00919
G1 X152.354 Y97.176 E.02646
G1 X152.646 Y97.176 E.00916
G1 X153.461 Y96.957 E.02646
G1 X153.717 Y96.809 E.00927
G1 X154.216 Y96.304 E.02226
G1 X154.216 Y113.696 E.54531
G1 X153.717 Y113.191 E.02226
G1 X153.461 Y113.043 E.00927
G1 X152.646 Y112.824 E.02646
G1 X152.354 Y112.824 E.00916
G1 X151.539 Y113.043 E.02646
G1 X151.285 Y113.189 E.00919
G1 X150.689 Y113.785 E.02643
G1 X150.543 Y114.039 E.00919
G1 X150.324 Y114.854 E.02646
G1 X150.324 Y115.146 E.00916
G1 X150.543 Y115.961 E.02646
G1 X150.689 Y116.215 E.00919
G1 X151.285 Y116.811 E.02643
G1 X151.539 Y116.957 E.00919
G1 X152.354 Y117.176 E.02646
G1 X152.646 Y117.176 E.00916
G1 X153.461 Y116.957 E.02646
G1 X153.717 Y116.809 E.00927
G1 X154.216 Y116.305 E.02224
G1 X154.213 Y119.153 E.0893
M204 S1000
G1 X154.59 Y119.59 F10800
M204 S800
;TYPE:External perimeter
G1 F1200
G1 X110.02 Y119.59 E1.39746
G1 X107.154 Y119.308 E.0903
M73 P2 R26
M73 Q2 S26
G1 X104.417 Y118.478 E.08968
G1 X101.895 Y117.129 E.08968
G1 X99.685 Y115.315 E.08965
G1 X97.871 Y113.105 E.08965
G1 X96.522 Y110.583 E.08968
G1 X95.692 Y107.846 E.08968
G1 X95.412 Y105 E.08967
G1 X95.692 Y102.154 E.08967
G1 X96.522 Y99.417 E.08968
G1 X97.871 Y96.895 E.08968
G1 X99.685 Y94.685 E.08965
G1 X101.895 Y92.871 E.08965
G1 X104.417 Y91.522 E.08968
G1 X107.154 Y90.692 E.08968
G1 X110.02 Y90.41 E.0903
G1 X154.59 Y90.41 E1.39746
G1 X154.592 Y92.985 E.08074
;WIDTH:0.453325
G1 X154.578 Y93.536 E.01881
;WIDTH:0.48665
G1 X154.564 Y94.087 E.02034
G1 X154.598 Y94.588 E.01853
;WIDTH:0.452475
G1 X154.633 Y95.089 E.0171
;WIDTH:0.419999
G1 X154.59 Y96.497 E.04417
G1 X154.59 Y113.5 E.53312
G1 X154.633 Y114.911 E.04426
;WIDTH:0.419168
G1 X154.635 Y115.086 E.00548
;WIDTH:0.452909
G1 X154.599 Y115.5 E.01417
;WIDTH:0.486649
G1 X154.564 Y115.913 E.01529
G1 X154.582 Y116.172 E.00958
;WIDTH:0.441335
G1 X154.592 Y117.015 E.02793
;WIDTH:0.419999
G1 X154.59 Y119.53 E.07886
M204 S1000
;WIPE_START
G1 F8640
G1 X154.59 Y119.59 E-.01385
G1 X151.185 Y119.59 E-.78615
;WIPE_END
G1 Z.6 F720
G1 X153.28 Y90.957 F10800
G1 Z.2 F720
G1 E.8 F2100
M204 S800
;TYPE:Solid infill
;WIDTH:0.420714
G1 F1200
G1 X153.875 Y91.551 E.02641
G1 X153.875 Y92.086 E.01681
G1 X152.915 Y91.126 E.04265
G1 X152.381 Y91.126 E.01677
G1 X153.876 Y92.621 E.06642
G1 X153.876 Y92.899 E.00873
G1 X153.568 Y92.72 E.01119
G1 X153.394 Y92.673 E.00566
G1 X151.847 Y91.126 E.06873
G1 X151.313 Y91.126 E.01677
G1 X152.673 Y92.487 E.06044
G1 X152.503 Y92.465 E.00538
G1 X152.344 Y92.479 E.00501
G1 X152.175 Y92.523 E.00549
G1 X150.778 Y91.126 E.06206
G1 X150.244 Y91.126 E.01677
G1 X151.753 Y92.635 E.06704
G1 X151.432 Y92.72 E.01043
G1 X151.35 Y92.767 E.00297
G1 X149.71 Y91.126 E.07288
G1 X149.175 Y91.126 E.01681
G1 X151.022 Y92.973 E.08205
G1 X150.755 Y93.24 E.01186
G1 X148.641 Y91.126 E.09392
G1 X148.107 Y91.126 E.01677
G1 X150.488 Y93.507 E.10578
G1 X150.296 Y93.747 E.00965
G1 X150.266 Y93.82 E.00248
G1 X147.573 Y91.126 E.11966
G1 X147.038 Y91.126 E.01681
G1 X150.141 Y94.229 E.13785
G1 X150.028 Y94.65 E.01369
G1 X146.504 Y91.126 E.15656
G1 X145.97 Y91.126 E.01677
G1 X150.219 Y95.376 E.18879
M204 S1000
;WIPE_START
G1 F8640
G1 X147.769 Y92.926 E-.8
;WIPE_END
G1 Z.6 F720
G1 X153.544 Y97.098 F10800
G1 Z.2 F720
G1 E.8 F2100
M204 S800
G1 F1200
G1 X153.874 Y97.428 E.01466
G1 X153.874 Y97.962 E.01677
G1 X153.271 Y97.359 E.02679
G1 X152.85 Y97.472 E.01369
G1 X153.874 Y98.496 E.04549
G1 X153.874 Y99.03 E.01677
G1 X152.134 Y97.29 E.0773
M204 S1000
;WIPE_START
G1 F8640
G1 X153.874 Y99.03 E-.56819
G1 X153.874 Y98.496 E-.1233
G1 X153.542 Y98.164 E-.10851
;WIPE_END
G1 Z.6 F720
G1 X154.044 Y99.734 F10800
G1 Z.2 F720
G1 E.8 F2100
M204 S800
G1 F1200
G1 X151.637 Y97.328 E.10691
G1 X151.308 Y97.236 E.01073
G1 X151.064 Y97.07 E.00927
G1 X150.443 Y96.449 E.02759
G1 X150.322 Y96.297 E.0061
G1 X150.217 Y96.059 E.00817
G1 X150.166 Y95.857 E.00654
G1 X145.436 Y91.126 E.21016
G1 X144.901 Y91.126 E.01681
G1 X153.874 Y100.099 E.39863
G1 X153.874 Y100.633 E.01677
G1 X144.367 Y91.126 E.42235
G1 X143.833 Y91.126 E.01677
G1 X153.874 Y101.168 E.4461
G1 X153.874 Y101.702 E.01677
G1 X143.298 Y91.126 E.46985
G1 X142.764 Y91.126 E.01677
G1 X153.874 Y102.236 E.49357
G1 X153.874 Y102.77 E.01677
M73 P3 R26
M73 Q3 S26
G1 X142.23 Y91.126 E.51729
G1 X141.696 Y91.126 E.01677
G1 X153.874 Y103.305 E.54104
G1 X153.874 Y103.839 E.01677
G1 X141.161 Y91.126 E.56478
G1 X140.627 Y91.126 E.01677
G1 X153.874 Y104.373 E.58851
G1 X153.874 Y104.908 E.01681
G1 X140.093 Y91.126 E.61225
G1 X139.558 Y91.126 E.01681
G1 X153.874 Y105.442 E.636
G1 X153.874 Y105.976 E.01677
G1 X139.024 Y91.126 E.65972
G1 X138.49 Y91.126 E.01677
G1 X153.874 Y106.51 E.68344
G1 X153.874 Y107.045 E.01681
G1 X137.956 Y91.126 E.70719
G1 X137.421 Y91.126 E.01681
G1 X153.874 Y107.579 E.73094
G1 X153.874 Y108.113 E.01677
G1 X139.81 Y94.05 E.62478
G1 X139.704 Y93.747 E.01008
M73 P3 R25
G1 X139.558 Y93.553 E.00763
G1 X138.941 Y92.935 E.02743
G1 X138.568 Y92.72 E.01352
G1 X138.449 Y92.688 E.00387
G1 X136.887 Y91.126 E.06939
G1 X136.353 Y91.126 E.01677
G1 X137.72 Y92.493 E.06073
G1 X137.503 Y92.465 E.00687
G1 X137.344 Y92.479 E.00501
G1 X137.207 Y92.515 E.00445
G1 X135.818 Y91.126 E.06171
G1 X135.284 Y91.126 E.01677
G1 X136.784 Y92.627 E.06666
G1 X136.432 Y92.72 E.01144
G1 X136.376 Y92.752 E.00203
G1 X134.75 Y91.126 E.07224
G1 X134.216 Y91.126 E.01677
G1 X136.042 Y92.953 E.08114
G1 X135.775 Y93.22 E.01186
G1 X133.681 Y91.126 E.09303
G1 X133.147 Y91.126 E.01677
G1 X135.508 Y93.487 E.10489
G1 X135.442 Y93.553 E.00293
G1 X135.278 Y93.792 E.00911
G1 X132.613 Y91.126 E.11842
G1 X132.078 Y91.126 E.01681
G1 X135.149 Y94.197 E.13643
G1 X135.036 Y94.618 E.01369
G1 X131.544 Y91.126 E.15513
G1 X131.01 Y91.126 E.01677
G1 X135.192 Y95.309 E.18581
M204 S1000
;WIPE_START
G1 F8640
G1 X132.742 Y92.859 E-.8
;WIPE_END
G1 Z.6 F720
G1 X139.758 Y94.532 F10800
G1 Z.2 F720
G1 E.8 F2100
M204 S800
G1 F1200
G1 X153.874 Y108.648 E.62711
G1 X153.874 Y109.182 E.01677
G1 X139.986 Y95.294 E.61698
G1 X139.874 Y95.716 E.01372
M73 P4 R25
M73 Q4 S26
G1 X153.874 Y109.716 E.62196
G1 X153.874 Y110.25 E.01677
M73 Q4 S25
G1 X139.752 Y96.129 E.62736
G1 X139.678 Y96.297 E.00577
G1 X139.547 Y96.458 E.00652
G1 X153.874 Y110.785 E.63649
G1 X153.874 Y111.319 E.01677
G1 X139.28 Y96.725 E.64835
G1 X139.013 Y96.992 E.01186
G1 X153.874 Y111.853 E.66021
G1 X153.874 Y112.388 E.01681
G1 X138.708 Y97.222 E.67376
G1 X138.303 Y97.351 E.01335
G1 X153.816 Y112.864 E.68918
G1 X153.568 Y112.72 E.00901
G1 X152.98 Y112.563 E.01912
G1 X137.882 Y97.464 E.67076
G1 X137.5 Y97.536 E.01221
G1 X137.407 Y97.523 E.00295
G1 X152.364 Y112.481 E.6645
G1 X151.937 Y112.588 E.01383
G1 X136.701 Y97.352 E.67687
G1 X136.443 Y97.283 E.00839
G1 X136.253 Y97.207 E.00643
G1 X136.081 Y97.085 E.00662
G1 X135.443 Y96.448 E.02832
G1 X135.311 Y96.279 E.00674
G1 X135.218 Y96.059 E.0075
G1 X135.148 Y95.799 E.00846
G1 X130.476 Y91.126 E.20758
G1 X129.941 Y91.126 E.01681
G1 X151.52 Y112.705 E.95866
G1 X151.308 Y112.764 E.00691
G1 X151.152 Y112.871 E.00594
G1 X129.407 Y91.126 E.96604
G1 X128.873 Y91.126 E.01677
G1 X150.87 Y113.124 E.97725
G1 X150.603 Y113.391 E.01186
M73 P5 R25
M73 Q5 S25
G1 X128.339 Y91.126 E.98912
G1 X127.804 Y91.126 E.01681
G1 X150.348 Y113.67 E1.00153
G1 X150.217 Y113.941 E.00946
G1 X150.191 Y114.047 E.00343
G1 X127.27 Y91.126 E1.01828
G1 X126.736 Y91.126 E.01677
G1 X150.083 Y114.473 E1.03721
G1 X149.975 Y114.9 E.01384
G1 X126.201 Y91.126 E1.05618
G1 X125.667 Y91.126 E.01677
G1 X150.318 Y115.777 E1.09514
M204 S1000
;WIPE_START
G1 F8640
G1 X147.868 Y113.327 E-.8
;WIPE_END
G1 Z.6 F720
G1 X153.69 Y117.013 F10800
G1 Z.2 F720
G1 E.8 F2100
M204 S800
G1 F1200
