; generated by PrusaSlicer 2.9.2 on 2025-04-12 at 04:52:50 UTC


;
;
; 

; external perimeters extrusion width = 0.45mm
; perimeters extrusion width = 0.45mm
; infill extrusion width = 0.45mm
; solid infill extrusion width = 0.45mm
; top infill extrusion width = 0.40mm
; support material extrusion width = 0.35mm
; first layer extrusion width = 0.42mm

M73 P0 R27
M73 Q0 S27
M201 X1000 Y1000 Z200 E5000 ; sets maximum accelerations, mm/sec^2
M203 X200 Y200 Z12 E120 ; sets maximum feedrates, mm / sec
M204 S1250 T1250 ; sets acceleration (S) and retract acceleration (R), mm/sec^2
M205 X8.00 Y8.00 Z0.40 E4.50 ; sets the jerk limits, mm/sec
M205 S0 T0 ; sets the minimum extruding and travel feed rate, mm/sec

; printing object Servo Lid.STL id:0 copy 0
; stop printing object Servo Lid.STL id:0 copy 0

;TYPE:Custom
M862.3 P "MK3S" ; printer model check
M862.1 P0.4 ; nozzle diameter check
M115 U3.14.1 ; tell printer latest fw version
G90 ; use absolute coordinates
M83 ; extruder relative mode
M104 S215 ; set extruder temp
M140 S60 ; set bed temp
M190 S60 ; wait for bed temp
M109 S215 ; wait for extruder temp
G28 W ; home all without mesh bed level
G80 X100.123 Y76.3729 W49.7542 H57.2542 ; mesh bed levelling

G1 Z0.2 F720
G1 Y-3 F1000 ; go outside print area
G92 E0
G1 X60 E9 F1000 ; intro line
G1 X100 E12.5 F1000 ; intro line

G92 E0
M221 S95

; Don't change E values below. Excessive value can damage the printer.

G21 ; set units to millimeters
G90 ; use absolute coordinates
M83 ; use relative distances for extrusion

M900 K0.05 ; Filament gcode LA 1.5
M900 K30 ; Filament gcode LA 1.0




M107
;LAYER_CHANGE
;Z:0.2
;HEIGHT:0.2
G1 E-.8 F2100
G1 Z.6 F720
G1 X102.259 Y78.924 F10800
G1 Z.2 F720
G1 E.8 F2100
M204 S800
;TYPE:Skirt/Brim
;WIDTH:0.42
G1 F1200
G1 X103.813 Y78.069 E.05561
G1 X121.313 Y76.569 E.55071
G1 X128.687 Y76.569 E.23121
G1 X146.187 Y78.069 E.55071
G1 X147.397 Y78.565 E.041
G1 X148.186 Y80.154 E.05563
G1 X149.686 Y114.154 E1.06708
G1 X149.689 Y121.25 E.22249
G1 X148.164 Y131.575 E.32725
G1 X147.593 Y132.751 E.04099
G1 X146 Y133.439 E.05441
G1 X104 Y133.439 E1.31688
G1 X102.752 Y133.048 E.04101
G1 X101.836 Y131.575 E.05439
G1 X100.311 Y121.25 E.32725
G1 X100.314 Y114.154 E.22249
G1 X101.814 Y80.154 E1.06708
G1 X102.239 Y78.98 E.03915
M73 P1 R27
M73 Q1 S27
M204 S1000
;WIPE_START
G1 F8640
G1 X102.259 Y78.924 E-.01373
G1 X103.813 Y78.069 E-.40955
G1 X105.439 Y77.93 E-.37672
;WIPE_END
G1 Z.6 F720
; printing object Servo Lid.STL id:0 copy 0
G1 X127.173 Y102.547 F10800
G1 Z.2 F720
G1 E.8 F2100
M204 S800
;TYPE:Perimeter
;WIDTH:0.419999
G1 F1200
G1 X127.275 Y102.637 E.00427
G1 X128.016 Y103.711 E.04091
G1 X128.112 Y103.964 E.00848
G1 X128.27 Y105.261 E.04097
G1 X128.237 Y105.529 E.00847
G1 X127.772 Y106.754 E.04108
G1 X127.622 Y106.971 E.00827
G1 X126.699 Y107.797 E.03884
G1 X126.383 Y107.97 E.0113
G1 X125.135 Y108.277 E.0403
G1 X124.839 Y108.271 E.00928
G1 X123.617 Y107.97 E.03946
G1 X123.297 Y107.795 E.01144
G1 X122.379 Y106.975 E.03859
G1 X122.227 Y106.754 E.00841
G1 X121.763 Y105.529 E.04107
G1 X121.732 Y105.243 E.00902
G1 X121.886 Y103.977 E.03999
G1 X121.979 Y103.729 E.0083
G1 X122.658 Y102.721 E.03811
G1 X122.866 Y102.498 E.00956
G1 X123.382 Y102.219 E.01839
G1 X124.072 Y101.857 E.02443
G1 X124.38 Y101.782 E.00994
G1 X125.67 Y101.792 E.04045
G1 X125.927 Y101.856 E.0083
G1 X127.072 Y102.457 E.04055
G1 X127.128 Y102.507 E.00235
M204 S1000
G1 X126.925 Y102.831 F10800
M204 S800
;TYPE:External perimeter
G1 F1200
G1 X127.706 Y103.926 E.04217
G1 X127.895 Y105.306 E.04367
G1 X127.737 Y105.783 E.01576
G1 X127.421 Y106.618 E.02799
G1 X126.735 Y107.259 E.02944
G1 X126.346 Y107.581 E.01583
G1 X125.071 Y107.905 E.04125
G1 X124.929 Y107.905 E.00445
G1 X123.707 Y107.604 E.03946
G1 X123.548 Y107.513 E.00574
G1 X122.631 Y106.694 E.03855
G1 X122.263 Y105.783 E.03081
G1 X122.105 Y105.306 E.01576
G1 X122.26 Y104.023 E.04052
G1 X122.932 Y102.99 E.03864
G1 X123.116 Y102.785 E.00864
G1 X124.247 Y102.191 E.04005
G1 X124.643 Y102.157 E.01246
G1 X125.666 Y102.169 E.03208
G1 X126.886 Y102.786 E.04287
M204 S1000
;WIPE_START
G1 F8640
G1 X126.925 Y102.831 E-.01375
G1 X127.706 Y103.926 E-.31056
G1 X127.895 Y105.306 E-.32162
G1 X127.737 Y105.783 E-.11603
G1 X127.679 Y105.937 E-.03804
;WIPE_END
G1 Z.6 F720
G1 X133.979 Y106.142 F10800
G1 Z.2 F720
G1 E.8 F2100
M204 S800
;TYPE:Perimeter
G1 F1200
G1 X133.944 Y106.212 E.00245
G1 X133.406 Y106.756 E.02399
G1 X133.105 Y107.01 E.01235
G1 X132.146 Y107.276 E.0312
G1 X131.854 Y107.276 E.00916
G1 X130.989 Y107.044 E.02808
G1 X130.735 Y106.898 E.00919
G1 X130.099 Y106.261 E.02822
G1 X129.956 Y106.011 E.00903
G1 X129.724 Y105.146 E.02808
G1 X129.724 Y104.854 E.00916
G1 X129.956 Y103.989 E.02808
G1 X130.102 Y103.735 E.00919
G1 X130.735 Y103.102 E.02807
G1 X130.989 Y102.956 E.00919
G1 X131.854 Y102.724 E.02808
G1 X132.146 Y102.724 E.00916
G1 X133.011 Y102.956 E.02808
G1 X133.265 Y103.102 E.00919
G1 X133.898 Y103.735 E.02807
G1 X134.044 Y103.989 E.00919
G1 X134.276 Y104.854 E.02808
G1 X134.276 Y105.146 E.00916
G1 X134.044 Y106.011 E.02808
G1 X134.005 Y106.089 E.00273
M204 S1000
G1 X133.658 Y105.957 F10800
M204 S800
;TYPE:External perimeter
G1 F1200
G1 X133.646 Y105.981 E.00084
G1 X133.139 Y106.489 E.0225
G1 X132.913 Y106.68 E.00928
G1 X132.049 Y106.911 E.02804
G1 X131.087 Y106.68 E.03102
G1 X130.369 Y105.998 E.03105
G1 X130.213 Y105.513 E.01597
G1 X130.084 Y105.025 E.01583
G1 X130.293 Y104.19 E.02699
G1 X130.369 Y104.002 E.00636
G1 X131.002 Y103.369 E.02807
G1 X131.951 Y103.089 E.03102
G1 X132.913 Y103.32 E.03102
G1 X133.631 Y104.002 E.03105
G1 X133.911 Y104.951 E.03102
G1 X133.682 Y105.902 E.03067
M204 S1000
;WIPE_START
G1 F8640
G1 X133.658 Y105.957 E-.01386
G1 X133.646 Y105.981 E-.0062
G1 X133.139 Y106.489 E-.16572
G1 X132.913 Y106.68 E-.06832
G1 X132.049 Y106.911 E-.20651
G1 X131.087 Y106.68 E-.22844
G1 X130.739 Y106.349 E-.11095
;WIPE_END
G1 Z.6 F720
G1 X125 Y114.282 F10800
G1 Z.2 F720
G1 E.8 F2100
M204 S800
;TYPE:Perimeter
G1 F1200
G1 X124.901 Y114.286 E.00311
G1 X123.989 Y114.044 E.02958
G1 X123.769 Y113.929 E.00778
G1 X123.39 Y113.552 E.01676
G1 X123.023 Y113.165 E.01672
G1 X122.956 Y113.011 E.00527
G1 X122.724 Y112.146 E.02808
G1 X122.724 Y111.854 E.00916
G1 X122.956 Y110.989 E.02808
G1 X123.102 Y110.735 E.00919
G1 X123.735 Y110.102 E.02807
G1 X123.989 Y109.956 E.00919
G1 X124.854 Y109.724 E.02808
G1 X125.146 Y109.724 E.00916
G1 X126.011 Y109.956 E.02808
G1 X126.265 Y110.102 E.00919
G1 X126.898 Y110.735 E.02807
G1 X127.044 Y110.989 E.00919
G1 X127.276 Y111.854 E.02808
G1 X127.276 Y112.146 E.00916
G1 X127.044 Y113.011 E.02808
G1 X126.925 Y113.235 E.00795
G1 X126.457 Y113.705 E.0208
G1 X126.108 Y114.008 E.01449
G1 X125.146 Y114.276 E.03131
G1 X125.06 Y114.279 E.0027
M204 S1000
G1 X124.997 Y113.899 F10800
M204 S800
;TYPE:External perimeter
G1 F1200
G1 X124.087 Y113.68 E.02935
G1 X123.656 Y113.285 E.01833
G1 X123.32 Y112.913 E.01572
G1 X123.089 Y112.049 E.02804
G1 X123.32 Y111.087 E.03102
G1 X123.922 Y110.449 E.0275
G1 X124.087 Y110.32 E.00657
G1 X124.951 Y110.089 E.02804
G1 X125.913 Y110.32 E.03102
G1 X126.358 Y110.729 E.01895
G1 X126.68 Y111.087 E.0151
G1 X126.911 Y111.951 E.02804
G1 X126.713 Y112.789 E.027
G1 X126.631 Y112.998 E.00704
G1 X125.998 Y113.631 E.02807
G1 X125.056 Y113.909 E.0308
M204 S1000
;WIPE_START
G1 F8640
G1 X124.997 Y113.899 E-.01382
G1 X124.087 Y113.68 E-.21612
G1 X123.656 Y113.285 E-.13499
G1 X123.32 Y112.913 E-.11575
G1 X123.089 Y112.049 E-.20651
G1 X123.203 Y111.574 E-.11281
;WIPE_END
G1 Z.6 F720
G1 X116.029 Y103.862 F10800
G1 Z.2 F720
G1 E.8 F2100
M204 S800
;TYPE:Perimeter
G1 F1200
G1 X116.102 Y103.735 E.00459
G1 X116.735 Y103.102 E.02807
G1 X116.989 Y102.956 E.00919
G1 X117.854 Y102.724 E.02808
G1 X118.146 Y102.724 E.00916
G1 X119.011 Y102.956 E.02808
G1 X119.265 Y103.102 E.00919
G1 X119.898 Y103.735 E.02807
G1 X120.044 Y103.989 E.00919
G1 X120.276 Y104.854 E.02808
G1 X120.276 Y105.146 E.00916
G1 X120.044 Y106.011 E.02808
G1 X119.898 Y106.265 E.00919
G1 X119.265 Y106.898 E.02807
G1 X119.011 Y107.044 E.00919
G1 X118.146 Y107.276 E.02808
G1 X117.854 Y107.276 E.00916
G1 X116.989 Y107.044 E.02808
G1 X116.766 Y106.926 E.00791
G1 X116.102 Y106.265 E.02938
G1 X115.956 Y106.011 E.00919
G1 X115.724 Y105.146 E.02808
G1 X115.724 Y104.854 E.00916
G1 X115.956 Y103.989 E.02808
G1 X115.999 Y103.914 E.00271
M204 S1000
G1 X116.357 Y104.048 F10800
M204 S800
;TYPE:External perimeter
G1 F1200
G1 X117.002 Y103.369 E.02936
G1 X117.951 Y103.089 E.03102
G1 X118.913 Y103.32 E.03102
G1 X119.631 Y104.002 E.03105
G1 X119.911 Y104.951 E.03102
G1 X119.787 Y105.513 E.01804
G1 X119.632 Y105.997 E.01593
G1 X118.998 Y106.631 E.02811
G1 X118.049 Y106.911 E.03102
G1 X117.211 Y106.713 E.027
G1 X117.002 Y106.631 E.00704
G1 X116.369 Y105.998 E.02807
G1 X116.089 Y105.049 E.03102
G1 X116.319 Y104.094 E.0308
M204 S1000
;WIPE_START
G1 F8640
G1 X116.357 Y104.048 E-.01378
G1 X117.002 Y103.369 E-.21624
G1 X117.951 Y103.089 E-.22847
G1 X118.913 Y103.32 E-.22844
G1 X119.268 Y103.657 E-.11307
;WIPE_END
G1 Z.6 F720
G1 X126.138 Y96.028 F10800
G1 Z.2 F720
G1 E.8 F2100
M204 S800
;TYPE:Perimeter
G1 F1200
G1 X126.233 Y96.073 E.0033
G1 X126.898 Y96.735 E.02942
G1 X127.04 Y96.975 E.00874
G1 X127.276 Y97.854 E.02854
G1 X127.276 Y98.146 E.00916
G1 X127.044 Y99.011 E.02808
G1 X126.898 Y99.265 E.00919
M73 P1 R26
G1 X126.265 Y99.898 E.02807
G1 X126.011 Y100.044 E.00919
G1 X125.146 Y100.276 E.02808
G1 X124.854 Y100.276 E.00916
G1 X123.989 Y100.044 E.02808
G1 X123.735 Y99.898 E.00919
G1 X123.102 Y99.265 E.02807
G1 X122.956 Y99.011 E.00919
G1 X122.724 Y98.146 E.02808
G1 X122.724 Y97.854 E.00916
G1 X122.956 Y96.989 E.02808
G1 X123.068 Y96.773 E.00763
G1 X123.735 Y96.102 E.02966
G1 X123.932 Y95.974 E.00737
G1 X124.854 Y95.724 E.02995
G1 X125.099 Y95.714 E.00769
G1 X125.961 Y95.943 E.02796
G1 X126.084 Y96.002 E.00428
M204 S1000
G1 X125.953 Y96.348 F10800
M204 S800
;TYPE:External perimeter
G1 F1200
G1 X125.998 Y96.369 E.00156
G1 X126.631 Y97.002 E.02807
G1 X126.911 Y97.951 E.03102
G1 X126.68 Y98.913 E.03102
G1 X125.998 Y99.631 E.03105
G1 X125.371 Y99.825 E.02058
G1 X124.951 Y99.911 E.01344
G1 X124.087 Y99.68 E.02804
G1 X123.649 Y99.278 E.01864
G1 X123.32 Y98.913 E.01541
G1 X123.089 Y98.049 E.02804
G1 X123.32 Y97.087 E.03102
G1 X124.002 Y96.369 E.03105
G1 X124.951 Y96.089 E.03102
G1 X125.863 Y96.307 E.0294
G1 X125.899 Y96.323 E.00124
M204 S1000
;WIPE_START
G1 F8640
G1 X125.953 Y96.348 E-.01374
G1 X125.998 Y96.369 E-.01147
G1 X126.631 Y97.002 E-.2067
G1 X126.911 Y97.951 E-.22847
G1 X126.68 Y98.913 E-.22844
G1 X126.348 Y99.262 E-.11118
;WIPE_END
G1 Z.6 F720
G1 X126.803 Y80.811 F10800
G1 Z.2 F720
G1 E.8 F2100
M204 S800
G1 F1200
G1 X126.811 Y80.861 E.00159
G1 X126.593 Y81.676 E.02645
G1 X125.948 Y82.357 E.02941
G1 X125.049 Y82.624 E.0294
G1 X124.137 Y82.406 E.0294
G1 X123.456 Y81.76 E.02943
G1 X123.189 Y80.861 E.0294
G1 X123.219 Y80.663 E.00628
G1 X123.431 Y79.955 E.02317
G1 X123.624 Y79.76 E.0086
;WIDTH:0.424268
G1 X124.182 Y79.391 E.02121
G1 X124.564 Y79.318 E.01233
;WIDTH:0.388621
G1 X124.945 Y79.245 E.01115
;WIDTH:0.386043
G1 X125.287 Y79.294 E.00986
;WIDTH:0.419112
G1 X125.628 Y79.344 E.01078
;WIDTH:0.421886
G1 X125.817 Y79.392 E.00614
G1 X126.337 Y79.73 E.01954
;WIDTH:0.419999
G1 X126.564 Y79.939 E.00967
G1 X126.781 Y80.663 E.0237
G1 X126.794 Y80.752 E.00282
M204 S1000
;WIPE_START
G1 F8640
G1 X126.803 Y80.811 E-.01378
G1 X126.811 Y80.861 E-.01169
G1 X126.593 Y81.676 E-.1948
G1 X125.948 Y82.357 E-.21658
G1 X125.049 Y82.624 E-.21654
G1 X124.431 Y82.476 E-.14661
;WIPE_END
G1 Z.6 F720
G1 X143.187 Y117.747 F10800
G1 Z.2 F720
G1 E.8 F2100
M204 S800
G1 F1200
G1 X143.313 Y117.237 E.01647
G1 X143.456 Y116.802 E.01436
G1 X144.052 Y116.206 E.02643
G1 X144.951 Y115.939 E.0294
G1 X145.514 Y116.063 E.01808
G1 X145.949 Y116.206 E.01436
;WIDTH:0.440361
G1 X146.549 Y116.798 E.02786
;WIDTH:0.486648
G1 X146.625 Y116.892 E.00446
G1 X146.694 Y117.302 E.01534
;WIDTH:0.452909
G1 X146.763 Y117.711 E.01414
G1 X146.694 Y118.159 E.01545
;WIDTH:0.486648
G1 X146.625 Y118.608 E.01676
G1 X146.287 Y118.951 E.01777
;WIDTH:0.453324
G1 X145.949 Y119.294 E.01643
;WIDTH:0.419999
G1 X145.363 Y119.477 E.01925
G1 X144.951 Y119.561 E.01318
G1 X144.137 Y119.343 E.02642
G1 X143.517 Y118.76 E.02668
G1 X143.407 Y118.613 E.00576
G1 X143.194 Y117.805 E.0262
M204 S1000
;WIPE_START
G1 F8640
G1 X143.187 Y117.747 E-.01349
G1 X143.313 Y117.237 E-.1213
G1 X143.456 Y116.802 E-.10573
G1 X144.052 Y116.206 E-.19462
G1 X144.951 Y115.939 E-.21654
G1 X145.514 Y116.063 E-.13311
G1 X145.577 Y116.084 E-.01521
;WIPE_END
G1 Z.6 F720
G1 X105.902 Y116.193 F10800
G1 Z.2 F720
G1 E.8 F2100
M204 S800
G1 F1200
G1 X106.569 Y116.832 E.02896
G1 X106.72 Y117.361 E.01725
G1 X106.811 Y117.799 E.01403
G1 X106.593 Y118.613 E.02642
G1 X105.948 Y119.294 E.02941
G1 X105.049 Y119.561 E.0294
G1 X104.486 Y119.437 E.01808
G1 X104.051 Y119.294 E.01436
;WIDTH:0.44134
G1 X103.451 Y118.702 E.02792
;WIDTH:0.48665
G1 X103.375 Y118.608 E.00446
G1 X103.306 Y118.198 E.01534
;WIDTH:0.45291
G1 X103.237 Y117.789 E.01414
G1 X103.306 Y117.341 E.01545
;WIDTH:0.48665
G1 X103.375 Y116.892 E.01676
G1 X103.713 Y116.549 E.01777
;WIDTH:0.453325
G1 X104.051 Y116.206 E.01643
;WIDTH:0.419999
G1 X104.637 Y116.023 E.01925
G1 X105.049 Y115.939 E.01318
G1 X105.856 Y116.155 E.02619
M204 S1000
;WIPE_START
G1 F8640
G1 X105.902 Y116.193 E-.01378
G1 X106.569 Y116.832 E-.21328
G1 X106.72 Y117.361 E-.12703
G1 X106.811 Y117.799 E-.1033
G1 X106.593 Y118.613 E-.19458
G1 X106.152 Y119.079 E-.14803
;WIPE_END
G1 Z.6 F720
G1 X145.385 Y114.868 F10800
G1 Z.2 F720
G1 E.8 F2100
M204 S800
;TYPE:Perimeter
;WIDTH:0.467714
G1 F1200
G1 X145.424 Y114.906 E.00192
;WIDTH:0.515429
G1 X145.519 Y114.997 E.00517
;WIDTH:0.563144
G1 X145.614 Y115.087 E.00566
;WIDTH:0.569944
G1 X145.722 Y115.11 E.00484
G1 X145.835 Y115.088 E.00504
;WIDTH:0.524318
G1 X145.948 Y115.066 E.00461
;WIDTH:0.478692
G1 X146.061 Y115.044 E.00417
;WIDTH:0.433065
G1 X146.714 Y115.037 E.02118
;WIDTH:0.419999
G1 X146.716 Y116.445 E.04415
G1 X146.083 Y115.841 E.02743
;WIDTH:0.469981
G1 X145.932 Y115.77 E.00593
;WIDTH:0.519963
G1 X145.782 Y115.698 E.0066
;WIDTH:0.569944
G1 X145.631 Y115.627 E.00731
G1 X145.47 Y115.605 E.00712
;WIDTH:0.528756
G1 X145.31 Y115.583 E.00652
;WIDTH:0.487568
G1 X145.15 Y115.562 E.00597
;WIDTH:0.446379
G1 X144.854 Y115.574 E.00994
;WIDTH:0.419999
G1 X144.039 Y115.793 E.02646
G1 X143.785 Y115.939 E.00919
G1 X143.116 Y116.626 E.03007
G1 X142.949 Y117.139 E.01692
G1 X142.807 Y117.701 E.01817
G1 X142.88 Y118.106 E.0129
G1 X143.055 Y118.752 E.02098
G1 X143.189 Y118.965 E.00789
G1 X143.785 Y119.561 E.02643
G1 X144.039 Y119.707 E.00919
G1 X144.854 Y119.926 E.02646
;WIDTH:0.463059
G1 X145.006 Y119.946 E.00536
;WIDTH:0.506119
G1 X145.158 Y119.967 E.00591
;WIDTH:0.542414
G1 X145.433 Y119.912 E.01165
;WIDTH:0.578708
G1 X145.709 Y119.857 E.01254
G1 X145.836 Y119.782 E.00657
;WIDTH:0.539031
G1 X145.963 Y119.708 E.00606
;WIDTH:0.499354
G1 X146.09 Y119.633 E.0056
;WIDTH:0.459677
G1 X146.217 Y119.559 E.00509
;WIDTH:0.419999
G1 X146.716 Y119.055 E.02224
G1 X146.714 Y120.463 E.04415
G1 X146.287 Y120.463 E.01339
;WIDTH:0.459677
G1 X146.16 Y120.443 E.00446
;WIDTH:0.499354
G1 X146.033 Y120.423 E.00488
;WIDTH:0.539031
G1 X145.906 Y120.403 E.0053
;WIDTH:0.578708
G1 X145.779 Y120.384 E.00572
G1 X145.508 Y120.448 E.01241
;WIDTH:0.569943
G1 X145.427 Y120.563 E.00616
;WIDTH:0.519962
G1 X145.345 Y120.679 E.00563
;WIDTH:0.469981
G1 X145.264 Y120.794 E.00499
;WIDTH:0.419999
G1 X145.213 Y121.029 E.00754
G1 X145.213 Y130.463 E.2958
G1 X104.787 Y130.463 E1.26753
M73 P2 R26
M73 Q2 S27
G1 X104.787 Y121.237 E.28927
M73 Q2 S26
G1 X104.736 Y120.794 E.01398
G1 X104.67 Y120.684 E.00402
;WIDTH:0.467714
G1 X104.576 Y120.594 E.0046
;WIDTH:0.515429
G1 X104.481 Y120.503 E.00517
;WIDTH:0.563144
G1 X104.386 Y120.413 E.00566
;WIDTH:0.569943
G1 X104.278 Y120.39 E.00484
G1 X104.165 Y120.412 E.00504
;WIDTH:0.524316
G1 X104.052 Y120.434 E.00461
;WIDTH:0.478689
G1 X103.939 Y120.456 E.00417
;WIDTH:0.433061
G1 X103.286 Y120.463 E.02118
;WIDTH:0.419999
G1 X103.284 Y119.055 E.04415
G1 X103.917 Y119.659 E.02743
;WIDTH:0.469981
