; generated by PrusaSlicer 2.2.0+win64 on 2022-12-28 at 20:51:58 UTC

; 

; external perimeters extrusion width = 0.45mm
; perimeters extrusion width = 0.45mm
; infill extrusion width = 0.45mm
; solid infill extrusion width = 0.45mm
; top infill extrusion width = 0.40mm
; support material extrusion width = 0.35mm
; first layer extrusion width = 0.42mm

M73 P0 R123
M73 Q0 S125
M201 X1000 Y1000 Z200 E5000 ; sets maximum accelerations, mm/sec^2
M203 X200 Y200 Z12 E120 ; sets maximum feedrates, mm/sec
M204 P1250 R1250 T1250 ; sets acceleration (P, T) and retract acceleration (R), mm/sec^2
M205 X8.00 Y8.00 Z0.40 E4.50 ; sets the jerk limits, mm/sec
M205 S0 T0 ; sets the minimum extruding and travel feed rate, mm/sec
M107
M862.3 P "MK3S" ; printer model check
M862.1 P0.4 ; nozzle diameter check
M115 U3.11.0 ; tell printer latest fw version
G90 ; use absolute coordinates
M83 ; extruder relative mode
M104 S220 ; set extruder temp
M140 S80 ; set bed temp
M190 S80 ; wait for bed temp
M109 S220 ; wait for extruder temp
G28 W ; home all without mesh bed level
G80 ; mesh bed leveling
G1 Y-3.0 F1000.0 ; go outside print area
G92 E0.0
G1 X60.0 E9.0 F1000.0 ; intro line
M73 Q0 S125
M73 P0 R123
G1 X100.0 E12.5 F1000.0 ; intro line
G92 E0.0
M221 S95

; Don't change E values below. Excessive value can damage the printer.
M907 E430 ; set extruder motor current
G21 ; set units to millimeters
G90 ; use absolute coordinates
M83 ; use relative distances for extrusion
M900 K0.05 ; Filament gcode LA 1.5
M900 K30 ; Filament gcode LA 1.0
;BEFORE_LAYER_CHANGE
G92 E0.0
;0.2


G1 E-0.80000 F2100.00000
G1 Z0.400 F10800.000
;AFTER_LAYER_CHANGE
;0.2
G1 X116.735 Y36.835
G1 Z0.200
G1 E0.80000 F2100.00000
M204 S1000
G1 F1200.000
G1 X117.039 Y36.214 E0.02166
G1 X117.508 Y35.707 E0.02166
G1 X118.103 Y35.356 E0.02166
G1 X118.774 Y35.191 E0.02166
G1 X134.004 Y35.181 E0.47753
G1 X134.814 Y35.324 E0.02579
G1 X135.526 Y35.735 E0.02579
G1 X136.056 Y36.364 E0.02579
G1 X136.339 Y37.132 E0.02567
G1 X148.862 Y117.235 E2.54206
G1 X148.865 Y167.736 E1.58343
G1 X148.584 Y168.643 E0.02977
G1 X147.971 Y169.368 E0.02977
G1 X133.936 Y179.600 E0.54459
G1 X133.462 Y179.866 E0.01704
G1 X132.572 Y180.051 E0.02849
G1 X119.485 Y180.040 E0.41034
G1 X118.918 Y179.912 E0.01823
G1 X118.399 Y179.650 E0.01823
G1 X102.145 Y168.453 E0.61884
G1 X101.665 Y168.011 E0.02048
G1 X101.323 Y167.454 E0.02048
G1 X101.123 Y166.515 E0.03013
G1 X101.135 Y138.264 E0.88577
G1 X104.151 Y117.137 E0.66913
G1 X116.726 Y36.894 E2.54668
; printing object knee bottom.STL id:0 copy 0
G1 F8640.000
G1 X117.039 Y36.214 E-0.17279
G1 X117.508 Y35.707 E-0.15950
G1 X118.103 Y35.356 E-0.15950
G1 X118.774 Y35.191 E-0.15950
G1 X119.245 Y35.191 E-0.10870
G1 E-0.04000 F2100.00000
G1 Z0.600 F10800.000
G1 X132.542 Y177.674
G1 Z0.200
G1 E0.80000 F2100.00000
G1 F1200.000
G1 X132.542 Y167.914 E0.30604
G1 X131.787 Y167.914 E0.02365
G1 X131.787 Y177.505 E0.30072
G1 X131.033 Y177.505 E0.02365
G1 X131.033 Y167.914 E0.30072
G1 X130.279 Y167.914 E0.02365
G1 X130.279 Y177.505 E0.30072
G1 X129.525 Y177.505 E0.02365
G1 X129.525 Y167.914 E0.30072
G1 X128.771 Y167.914 E0.02365
G1 X128.771 Y177.505 E0.30072
G1 X128.017 Y177.505 E0.02365
G1 X128.017 Y167.914 E0.30072
G1 X127.262 Y167.914 E0.02365
G1 X127.262 Y177.505 E0.30072
G1 X126.508 Y177.505 E0.02365
G1 X126.508 Y167.914 E0.30072
G1 X125.754 Y167.914 E0.02365
G1 X125.754 Y177.505 E0.30072
G1 X125.000 Y177.505 E0.02365
G1 X125.000 Y167.914 E0.30072
G1 X124.246 Y167.914 E0.02365
G1 X124.246 Y177.505 E0.30072
G1 X123.492 Y177.505 E0.02365
G1 X123.492 Y167.914 E0.30072
G1 X122.738 Y167.914 E0.02365
G1 X122.738 Y177.505 E0.30072
G1 X121.983 Y177.505 E0.02365
G1 X121.983 Y167.914 E0.30072
G1 X121.229 Y167.914 E0.02365
G1 X121.229 Y177.505 E0.30072
G1 X120.475 Y177.505 E0.02365
G1 X120.475 Y167.914 E0.30072
G1 X119.721 Y167.914 E0.02365
G1 X119.721 Y177.674 E0.30604
G1 F8640.000
G1 X119.721 Y174.383 E-0.76000
G1 E-0.04000 F2100.00000
G1 Z0.600 F10800.000
G1 X133.213 Y118.287
G1 Z0.200
G1 E0.80000 F2100.00000
G1 F1200.000
G1 X145.713 Y118.287 E0.39193
G1 X145.713 Y166.713 E1.51836
G1 X107.287 Y166.713 E1.20482
G1 X107.287 Y165.713 E0.03135
G1 X104.287 Y165.713 E0.09406
G1 X104.287 Y139.287 E0.82856
G1 X107.287 Y139.287 E0.09406
G1 X107.287 Y118.287 E0.65844
G1 X119.787 Y118.287 E0.39193
G1 X119.787 Y38.345 E2.50653
G1 X133.213 Y38.345 E0.42096
G1 X133.213 Y118.227 E2.50465
G1 X133.590 Y117.910 F10800.000
G1 F1200.000
G1 X146.090 Y117.910 E0.39193
G1 X146.090 Y167.090 E1.54200
G1 X106.910 Y167.090 E1.22846
G1 X106.910 Y166.090 E0.03135
G1 X103.910 Y166.090 E0.09406
G1 X103.910 Y138.910 E0.85221
G1 X106.910 Y138.910 E0.09406
G1 X106.910 Y117.910 E0.65844
G1 X119.410 Y117.910 E0.39193
G1 X119.410 Y37.968 E2.50653
M73 Q0 S124
M73 P0 R122
G1 X133.590 Y37.968 E0.44460
G1 X133.590 Y117.850 E2.50465
G1 X133.613 Y118.309 F10800.000
G1 F8640.000
G1 X136.881 Y117.866 E-0.76000
G1 E-0.04000 F2100.00000
G1 Z0.600 F10800.000
G1 X145.000 Y118.400
G1 Z0.200
G1 E0.80000 F2100.00000
G1 F1200.000
G1 X145.430 Y118.831 E0.01912
G1 X145.430 Y119.365 E0.01676
G1 X144.635 Y118.570 E0.03529
G1 X144.101 Y118.570 E0.01676
G1 X145.430 Y119.899 E0.05900
G1 X145.430 Y120.433 E0.01676
G1 X143.567 Y118.570 E0.08270
G1 X143.033 Y118.570 E0.01676
G1 X145.430 Y120.967 E0.10641
G1 X145.430 Y121.501 E0.01676
G1 X142.499 Y118.570 E0.13012
G1 X141.965 Y118.570 E0.01676
G1 X145.430 Y122.035 E0.15383
G1 X145.430 Y122.568 E0.01676
G1 X141.432 Y118.570 E0.17753
G1 X140.898 Y118.570 E0.01676
G1 X145.430 Y123.102 E0.20124
G1 X145.430 Y123.636 E0.01676
G1 X140.364 Y118.570 E0.22495
G1 X139.830 Y118.570 E0.01676
G1 X145.430 Y124.170 E0.24866
G1 X145.430 Y124.704 E0.01676
G1 X139.296 Y118.570 E0.27236
G1 X138.762 Y118.570 E0.01676
G1 X145.430 Y125.238 E0.29607
G1 X145.430 Y125.772 E0.01676
G1 X138.228 Y118.570 E0.31978
G1 X137.694 Y118.570 E0.01676
G1 X145.430 Y126.306 E0.34349
G1 X145.430 Y126.840 E0.01676
G1 X137.160 Y118.570 E0.36719
G1 X136.626 Y118.570 E0.01676
G1 X145.430 Y127.374 E0.39090
G1 X145.430 Y127.908 E0.01676
G1 X136.092 Y118.570 E0.41461
G1 X135.558 Y118.570 E0.01676
G1 X145.430 Y128.442 E0.43832
G1 X145.430 Y128.976 E0.01676
G1 X135.024 Y118.570 E0.46202
G1 X134.490 Y118.570 E0.01676
G1 X145.430 Y129.510 E0.48573
G1 X145.430 Y130.044 E0.01676
G1 X133.956 Y118.570 E0.50944
G1 X133.422 Y118.570 E0.01676
G1 X145.430 Y130.578 E0.53315
G1 X145.430 Y131.112 E0.01676
G1 X120.070 Y105.752 E1.12597
G1 X120.070 Y105.218 E0.01676
G1 X132.930 Y118.078 E0.57098
G1 X132.930 Y117.544 E0.01676
G1 X120.070 Y104.684 E0.57098
G1 X120.070 Y104.150 E0.01676
G1 X132.930 Y117.010 E0.57098
G1 X132.930 Y116.476 E0.01676
G1 X120.070 Y103.616 E0.57098
G1 X120.070 Y103.082 E0.01676
G1 X132.930 Y115.942 E0.57098
G1 X132.930 Y115.408 E0.01676
G1 X120.070 Y102.548 E0.57098
G1 X120.070 Y102.014 E0.01676
G1 X132.930 Y114.874 E0.57098
G1 X132.930 Y114.340 E0.01676
G1 X120.070 Y101.480 E0.57098
G1 X120.070 Y100.946 E0.01676
G1 X132.930 Y113.806 E0.57098
G1 X132.930 Y113.272 E0.01676
G1 X120.070 Y100.412 E0.57098
G1 X120.070 Y99.878 E0.01676
G1 X132.930 Y112.738 E0.57098
G1 X132.930 Y112.204 E0.01676
G1 X120.070 Y99.344 E0.57098
G1 X120.070 Y98.810 E0.01676
G1 X132.930 Y111.670 E0.57098
G1 X132.930 Y111.136 E0.01676
G1 X120.070 Y98.276 E0.57098
G1 X120.070 Y97.742 E0.01676
G1 X132.930 Y110.602 E0.57098
G1 X132.930 Y110.068 E0.01676
G1 X120.070 Y97.208 E0.57098
G1 X120.070 Y96.674 E0.01676
G1 X132.930 Y109.535 E0.57098
G1 X132.930 Y109.001 E0.01676
G1 X120.070 Y96.140 E0.57098
G1 X120.070 Y95.606 E0.01676
G1 X132.930 Y108.467 E0.57098
G1 X132.930 Y107.933 E0.01676
G1 X120.070 Y95.072 E0.57098
G1 X120.070 Y94.538 E0.01676
G1 X132.930 Y107.399 E0.57098
G1 X132.930 Y106.865 E0.01676
G1 X120.070 Y94.004 E0.57098
G1 X120.070 Y93.470 E0.01676
G1 X132.930 Y106.331 E0.57098
G1 X132.930 Y105.797 E0.01676
G1 X120.070 Y92.937 E0.57098
G1 X120.070 Y92.403 E0.01676
G1 X132.930 Y105.263 E0.57098
G1 X132.930 Y104.729 E0.01676
G1 X120.070 Y91.869 E0.57098
G1 X120.070 Y91.335 E0.01676
G1 X132.930 Y104.195 E0.57098
G1 X132.930 Y103.661 E0.01676
G1 X120.070 Y90.801 E0.57098
G1 X120.070 Y90.267 E0.01676
G1 X132.930 Y103.127 E0.57098
G1 X132.930 Y102.593 E0.01676
G1 X120.070 Y89.733 E0.57098
G1 X120.070 Y89.199 E0.01676
G1 X132.930 Y102.059 E0.57098
G1 X132.930 Y101.525 E0.01676
G1 X120.070 Y88.665 E0.57098
G1 X120.070 Y88.131 E0.01676
G1 X132.930 Y100.991 E0.57098
G1 X132.930 Y100.457 E0.01676
G1 X120.070 Y87.597 E0.57098
G1 X120.070 Y87.063 E0.01676
G1 X132.930 Y99.923 E0.57098
G1 X132.930 Y99.389 E0.01676
G1 X120.070 Y86.529 E0.57098
G1 X120.070 Y85.995 E0.01676
G1 X132.930 Y98.855 E0.57098
G1 X132.930 Y98.321 E0.01676
G1 X120.070 Y85.461 E0.57098
G1 X120.070 Y84.927 E0.01676
G1 X132.930 Y97.787 E0.57098
G1 X132.930 Y97.253 E0.01676
G1 X120.070 Y84.393 E0.57098
G1 X120.070 Y83.859 E0.01676
G1 X132.930 Y96.719 E0.57098
G1 X132.930 Y96.185 E0.01676
G1 X120.070 Y83.325 E0.57098
G1 X120.070 Y82.791 E0.01676
G1 X132.930 Y95.651 E0.57098
G1 X132.930 Y95.118 E0.01676
G1 X120.070 Y82.257 E0.57098
G1 X120.070 Y81.723 E0.01676
G1 X132.930 Y94.584 E0.57098
M73 Q1 S123
M73 P1 R121
G1 X132.930 Y94.050 E0.01676
G1 X120.070 Y81.189 E0.57098
G1 X120.070 Y80.655 E0.01676
G1 X132.930 Y93.516 E0.57098
G1 X132.930 Y92.982 E0.01676
G1 X120.070 Y80.121 E0.57098
G1 X120.070 Y79.587 E0.01676
G1 X132.930 Y92.448 E0.57098
G1 X132.930 Y91.914 E0.01676
G1 X120.070 Y79.054 E0.57098
G1 X120.070 Y78.520 E0.01676
G1 X132.930 Y91.380 E0.57098
G1 X132.930 Y90.846 E0.01676
G1 X120.070 Y77.986 E0.57098
G1 X120.070 Y77.452 E0.01676
G1 X132.930 Y90.312 E0.57098
G1 X132.930 Y89.778 E0.01676
G1 X120.070 Y76.918 E0.57098
G1 X120.070 Y76.384 E0.01676
G1 X132.930 Y89.244 E0.57098
G1 X132.930 Y88.710 E0.01676
G1 X120.070 Y75.850 E0.57098
G1 X120.070 Y75.316 E0.01676
G1 X132.930 Y88.176 E0.57098
G1 X132.930 Y87.642 E0.01676
G1 X120.070 Y74.782 E0.57098
G1 X120.070 Y74.248 E0.01676
G1 X132.930 Y87.108 E0.57098
G1 X132.930 Y86.574 E0.01676
G1 X120.070 Y73.714 E0.57098
G1 X120.070 Y73.180 E0.01676
G1 X132.930 Y86.040 E0.57098
G1 X132.930 Y85.506 E0.01676
G1 X120.070 Y72.646 E0.57098
G1 X120.070 Y72.112 E0.01676
G1 X132.930 Y84.972 E0.57098
G1 X132.930 Y84.438 E0.01676
G1 X120.070 Y71.578 E0.57098
G1 X120.070 Y71.044 E0.01676
G1 X132.930 Y83.904 E0.57098
G1 X132.930 Y83.370 E0.01676
G1 X120.070 Y70.510 E0.57098
G1 X120.070 Y69.976 E0.01676
G1 X132.930 Y82.836 E0.57098
G1 X132.930 Y82.302 E0.01676
G1 X120.070 Y69.442 E0.57098
G1 X120.070 Y68.908 E0.01676
G1 X132.930 Y81.768 E0.57098
G1 X132.930 Y81.235 E0.01676
G1 X120.070 Y68.374 E0.57098
G1 X120.070 Y67.840 E0.01676
G1 X132.930 Y80.701 E0.57098
G1 X132.930 Y80.167 E0.01676
G1 X120.070 Y67.306 E0.57098
G1 X120.070 Y66.772 E0.01676
G1 X132.930 Y79.633 E0.57098
G1 X132.930 Y79.099 E0.01676
G1 X120.070 Y66.238 E0.57098
G1 X120.070 Y65.704 E0.01676
G1 X132.930 Y78.565 E0.57098
G1 X132.930 Y78.031 E0.01676
G1 X120.070 Y65.171 E0.57098
G1 X120.070 Y64.637 E0.01676
G1 X132.930 Y77.497 E0.57098
G1 X132.930 Y76.963 E0.01676
G1 X120.070 Y64.103 E0.57098
G1 X120.070 Y63.569 E0.01676
G1 X132.930 Y76.429 E0.57098
G1 X132.930 Y75.895 E0.01676
G1 X120.070 Y63.035 E0.57098
G1 X120.070 Y62.501 E0.01676
G1 X132.930 Y75.361 E0.57098
G1 X132.930 Y74.827 E0.01676
G1 X120.070 Y61.967 E0.57098
G1 X120.070 Y61.433 E0.01676
G1 X132.930 Y74.293 E0.57098
G1 X132.930 Y73.759 E0.01676
G1 X120.070 Y60.899 E0.57098
G1 X120.070 Y60.365 E0.01676
G1 X132.930 Y73.225 E0.57098
G1 X132.930 Y72.691 E0.01676
G1 X120.070 Y59.831 E0.57098
G1 X120.070 Y59.297 E0.01676
G1 X132.930 Y72.157 E0.57098
G1 X132.930 Y71.623 E0.01676
G1 X120.070 Y58.763 E0.57098
G1 X120.070 Y58.229 E0.01676
G1 X132.930 Y71.089 E0.57098
G1 X132.930 Y70.555 E0.01676
G1 X120.070 Y57.695 E0.57098
G1 X120.070 Y57.161 E0.01676
G1 X132.930 Y70.021 E0.57098
G1 X132.930 Y69.487 E0.01676
G1 X120.070 Y56.627 E0.57098
G1 X120.070 Y56.093 E0.01676
G1 X132.930 Y68.953 E0.57098
G1 X132.930 Y68.419 E0.01676
G1 X120.070 Y55.559 E0.57098
G1 X120.070 Y55.025 E0.01676
G1 X132.930 Y67.885 E0.57098
G1 X132.930 Y67.352 E0.01676
G1 X120.070 Y54.491 E0.57098
G1 X120.070 Y53.957 E0.01676
G1 X132.930 Y66.818 E0.57098
G1 X132.930 Y66.284 E0.01676
G1 X120.070 Y53.423 E0.57098
G1 X120.070 Y52.889 E0.01676
G1 X132.930 Y65.750 E0.57098
G1 X132.930 Y65.216 E0.01676
G1 X120.070 Y52.355 E0.57098
G1 X120.070 Y51.821 E0.01676
G1 X132.930 Y64.682 E0.57098
G1 X132.930 Y64.148 E0.01676
G1 X120.070 Y51.288 E0.57098
G1 X120.070 Y50.754 E0.01676
G1 X132.930 Y63.614 E0.57098
G1 X132.930 Y63.080 E0.01676
G1 X120.070 Y50.220 E0.57098
G1 X120.070 Y49.686 E0.01676
G1 X132.930 Y62.546 E0.57098
G1 X132.930 Y62.012 E0.01676
G1 X120.070 Y49.152 E0.57098
G1 X120.070 Y48.618 E0.01676
G1 X132.930 Y61.478 E0.57098
G1 X132.930 Y60.944 E0.01676
G1 X120.070 Y48.084 E0.57098
G1 X120.070 Y47.550 E0.01676
G1 X132.930 Y60.410 E0.57098
M73 Q2 S122
M73 P2 R120
G1 X132.930 Y59.876 E0.01676
G1 X120.070 Y47.016 E0.57098
G1 X120.070 Y46.482 E0.01676
G1 X132.930 Y59.342 E0.57098
G1 X132.930 Y58.808 E0.01676
G1 X120.070 Y45.948 E0.57098
G1 X120.070 Y45.414 E0.01676
G1 X132.930 Y58.274 E0.57098
G1 X132.930 Y57.740 E0.01676
G1 X120.070 Y44.880 E0.57098
G1 X120.070 Y44.346 E0.01676
G1 X132.930 Y57.206 E0.57098
G1 X132.930 Y56.672 E0.01676
G1 X120.070 Y43.812 E0.57098
G1 X120.070 Y43.278 E0.01676
G1 X132.930 Y56.138 E0.57098
G1 X132.930 Y55.604 E0.01676
G1 X120.070 Y42.744 E0.57098
G1 X120.070 Y42.210 E0.01676
G1 X132.930 Y55.070 E0.57098
G1 X132.930 Y54.536 E0.01676
G1 X120.070 Y41.676 E0.57098
G1 X120.070 Y41.142 E0.01676
G1 X132.930 Y54.002 E0.57098
G1 X132.930 Y53.469 E0.01676
G1 X120.070 Y40.608 E0.57098
G1 X120.070 Y40.074 E0.01676
G1 X132.930 Y52.935 E0.57098
G1 X132.930 Y52.401 E0.01676
G1 X120.070 Y39.540 E0.57098
G1 X120.070 Y39.006 E0.01676
G1 X132.930 Y51.867 E0.57098
G1 X132.930 Y51.333 E0.01676
G1 X120.225 Y38.628 E0.56409
G1 X120.759 Y38.628 E0.01676
G1 X132.930 Y50.799 E0.54039
G1 X132.930 Y50.265 E0.01676
G1 X121.293 Y38.628 E0.51668
G1 X121.827 Y38.628 E0.01676
G1 X132.930 Y49.731 E0.49297
G1 X132.930 Y49.197 E0.01676
G1 X122.361 Y38.628 E0.46926
G1 X122.895 Y38.628 E0.01676
G1 X132.930 Y48.663 E0.44556
G1 X132.930 Y48.129 E0.01676
G1 X123.429 Y38.628 E0.42185
G1 X123.963 Y38.628 E0.01676
G1 X132.930 Y47.595 E0.39814
G1 X132.930 Y47.061 E0.01676
G1 X124.497 Y38.628 E0.37443
G1 X125.031 Y38.628 E0.01676
G1 X132.930 Y46.527 E0.35073
G1 X132.930 Y45.993 E0.01676
G1 X125.565 Y38.628 E0.32702
G1 X126.099 Y38.628 E0.01676
G1 X132.930 Y45.459 E0.30331
G1 X132.930 Y44.925 E0.01676
G1 X126.633 Y38.628 E0.27960
G1 X127.167 Y38.628 E0.01676
G1 X132.930 Y44.391 E0.25590
G1 X132.930 Y43.857 E0.01676
G1 X127.701 Y38.628 E0.23219
G1 X128.234 Y38.628 E0.01676
G1 X132.930 Y43.323 E0.20848
G1 X132.930 Y42.789 E0.01676
G1 X128.768 Y38.628 E0.18477
G1 X129.302 Y38.628 E0.01676
G1 X132.930 Y42.255 E0.16107
G1 X132.930 Y41.721 E0.01676
G1 X129.836 Y38.628 E0.13736
G1 X130.370 Y38.628 E0.01676
G1 X132.930 Y41.187 E0.11365
G1 X132.930 Y40.653 E0.01676
G1 X130.904 Y38.628 E0.08994
G1 X131.438 Y38.628 E0.01676
G1 X132.930 Y40.119 E0.06624
G1 X132.930 Y39.586 E0.01676
G1 X131.972 Y38.628 E0.04253
G1 X132.506 Y38.628 E0.01676
G1 X133.100 Y39.221 E0.02636
G1 F8640.000
G1 X132.506 Y38.628 E-0.19384
G1 X131.972 Y38.628 E-0.12329
G1 X132.930 Y39.586 E-0.31280
G1 X132.930 Y40.119 E-0.12329
G1 X132.909 Y40.099 E-0.00677
G1 E-0.04000 F2100.00000
G1 Z0.600 F10800.000
G1 X145.600 Y131.815
G1 Z0.200
G1 E0.80000 F2100.00000
G1 F1200.000
G1 X120.070 Y106.286 E1.13351
G1 X120.070 Y106.820 E0.01676
G1 X145.430 Y132.180 E1.12597
G1 X145.430 Y132.714 E0.01676
G1 X120.070 Y107.353 E1.12597
G1 X120.070 Y107.887 E0.01676
G1 X145.430 Y133.248 E1.12597
G1 X145.430 Y133.782 E0.01676
G1 X120.070 Y108.421 E1.12597
G1 X120.070 Y108.955 E0.01676
G1 X145.430 Y134.316 E1.12597
G1 X145.430 Y134.850 E0.01676
G1 X120.070 Y109.489 E1.12597
G1 X120.070 Y110.023 E0.01676
G1 X145.430 Y135.384 E1.12597
G1 X145.430 Y135.918 E0.01676
G1 X120.070 Y110.557 E1.12597
G1 X120.070 Y111.091 E0.01676
G1 X145.430 Y136.451 E1.12597
