; generated by PrusaSlicer 2.2.0+win64 on 2022-12-28 at 20:50:07 UTC

; 

; external perimeters extrusion width = 0.45mm
; perimeters extrusion width = 0.45mm
; infill extrusion width = 0.45mm
; solid infill extrusion width = 0.45mm
; top infill extrusion width = 0.40mm
; support material extrusion width = 0.35mm
; first layer extrusion width = 0.42mm

M73 P0 R178
M73 Q0 S180
M201 X1000 Y1000 Z200 E5000 ; sets maximum accelerations, mm/sec^2
M203 X200 Y200 Z12 E120 ; sets maximum feedrates, mm/sec
M204 P1250 R1250 T1250 ; sets acceleration (P, T) and retract acceleration (R), mm/sec^2
M205 X8.00 Y8.00 Z0.40 E4.50 ; sets the jerk limits, mm/sec
M205 S0 T0 ; sets the minimum extruding and travel feed rate, mm/sec
M107
M862.3 P "MK3S" ; printer model check
M862.1 P0.4 ; nozzle diameter check
M115 U3.11.0 ; tell printer latest fw version
G90 ; use absolute coordinates
M83 ; extruder relative mode
M104 S220 ; set extruder temp
M140 S80 ; set bed temp
M190 S80 ; wait for bed temp
M109 S220 ; wait for extruder temp
G28 W ; home all without mesh bed level
G80 ; mesh bed leveling
G1 Y-3.0 F1000.0 ; go outside print area
G92 E0.0
G1 X60.0 E9.0 F1000.0 ; intro line
M73 Q0 S180
M73 P0 R177
G1 X100.0 E12.5 F1000.0 ; intro line
G92 E0.0
M221 S95

; Don't change E values below. Excessive value can damage the printer.
M907 E430 ; set extruder motor current
G21 ; set units to millimeters
G90 ; use absolute coordinates
M83 ; use relative distances for extrusion
M900 K0.05 ; Filament gcode LA 1.5
M900 K30 ; Filament gcode LA 1.0
;BEFORE_LAYER_CHANGE
G92 E0.0
;0.2


G1 E-0.80000 F2100.00000
G1 Z0.400 F10800.000
;AFTER_LAYER_CHANGE
;0.2
G1 X85.931 Y39.798
G1 Z0.200
G1 E0.80000 F2100.00000
M204 S1000
G1 F1200.000
G1 X86.495 Y39.517 E0.01977
G1 X91.762 Y37.740 E0.17427
G1 X92.257 Y37.635 E0.01585
G1 X157.504 Y37.623 E2.04578
G1 X158.176 Y37.721 E0.02130
G1 X158.790 Y38.003 E0.02119
G1 X168.580 Y44.444 E0.36743
G1 X168.992 Y44.804 E0.01716
G1 X169.313 Y45.252 E0.01728
G1 X169.528 Y45.784 E0.01799
G1 X169.609 Y46.352 E0.01799
G1 X169.608 Y59.554 E0.41392
G1 X152.792 Y164.629 E3.33648
G1 X152.467 Y165.335 E0.02437
G1 X151.931 Y165.898 E0.02437
G1 X136.191 Y177.287 E0.60915
G1 X135.649 Y177.578 E0.01929
G1 X134.792 Y177.733 E0.02731
G1 X119.683 Y177.564 E0.47378
G1 X119.092 Y177.479 E0.01870
G1 X118.632 Y177.300 E0.01550
G1 X118.221 Y177.031 E0.01538
G1 X105.961 Y166.811 E0.50047
G1 X105.505 Y166.292 E0.02166
G1 X105.219 Y165.668 E0.02154
G1 X80.439 Y59.775 E3.40989
G1 X80.390 Y46.225 E0.42484
G1 X80.475 Y45.604 E0.01965
G1 X80.694 Y45.070 E0.01811
G1 X81.035 Y44.604 E0.01811
G1 X85.888 Y39.840 E0.21323
; printing object shoulder servo joint bottom.STL id:0 copy 0
G1 F8640.000
G1 X86.495 Y39.517 E-0.15880
G1 X88.963 Y38.685 E-0.60120
G1 E-0.04000 F2100.00000
G1 Z0.600 F10800.000
G1 X82.767 Y46.233
G1 Z0.200
G1 E0.80000 F2100.00000
G1 F1200.000
G1 X82.767 Y59.296 E0.40960
G1 X83.521 Y59.296 E0.02365
G1 X83.521 Y46.402 E0.40428
G1 X84.275 Y46.402 E0.02365
G1 X84.275 Y59.296 E0.40428
G1 X85.030 Y59.296 E0.02365
G1 X85.030 Y46.402 E0.40428
G1 X85.784 Y46.402 E0.02365
G1 X85.784 Y59.296 E0.40428
G1 X86.538 Y59.296 E0.02365
G1 X86.538 Y46.402 E0.40428
G1 X87.263 Y46.402 E0.02272
G1 X87.263 Y41.767 E0.14535
G1 X87.292 Y41.767 E0.00092
G1 X87.292 Y59.296 E0.54963
G1 X88.046 Y59.296 E0.02365
G1 X88.046 Y41.767 E0.54963
G1 X88.800 Y41.767 E0.02365
G1 X88.800 Y59.296 E0.54963
G1 X89.555 Y59.296 E0.02365
G1 X89.555 Y41.767 E0.54963
G1 X90.309 Y41.767 E0.02365
G1 X90.309 Y59.296 E0.54963
G1 X91.063 Y59.296 E0.02365
G1 X91.063 Y41.767 E0.54963
G1 X91.817 Y41.767 E0.02365
G1 X91.817 Y59.466 E0.55495
G1 F8640.000
G1 X91.817 Y56.175 E-0.76000
G1 E-0.04000 F2100.00000
G1 Z0.600 F10800.000
G1 X98.604 Y59.466
G1 Z0.200
G1 E0.80000 F2100.00000
G1 F1200.000
G1 X98.604 Y41.767 E0.55495
G1 X99.359 Y41.767 E0.02365
G1 X99.359 Y59.296 E0.54963
G1 X100.113 Y59.296 E0.02365
G1 X100.113 Y41.767 E0.54963
G1 X100.867 Y41.767 E0.02365
G1 X100.867 Y59.296 E0.54963
G1 X101.621 Y59.296 E0.02365
G1 X101.621 Y41.767 E0.54963
G1 X102.375 Y41.767 E0.02365
G1 X102.375 Y59.466 E0.55495
G1 F8640.000
G1 X102.375 Y56.175 E-0.76000
G1 E-0.04000 F2100.00000
G1 Z0.600 F10800.000
G1 X103.884 Y85.244
G1 Z0.200
G1 E0.80000 F2100.00000
G1 F1200.000
G1 X103.884 Y119.559 E1.07594
G1 X104.638 Y119.559 E0.02365
G1 X104.638 Y85.414 E1.07062
G1 X105.392 Y85.414 E0.02365
G1 X105.392 Y119.559 E1.07062
G1 X106.146 Y119.559 E0.02365
G1 X106.146 Y85.414 E1.07062
G1 X106.900 Y85.414 E0.02365
G1 X106.900 Y119.559 E1.07062
G1 X107.086 Y119.559 E0.00584
G1 X107.086 Y114.829 E0.14833
G1 X107.329 Y114.586 E0.01074
G1 X107.654 Y114.586 E0.01021
G1 X107.654 Y85.414 E0.91470
G1 X108.409 Y85.414 E0.02365
G1 X108.409 Y114.586 E0.91470
G1 X109.163 Y114.586 E0.02365
G1 X109.163 Y85.414 E0.91470
G1 X109.917 Y85.414 E0.02365
G1 X109.917 Y114.586 E0.91470
G1 X110.671 Y114.586 E0.02365
G1 X110.671 Y85.414 E0.91470
G1 X111.425 Y85.414 E0.02365
G1 X111.425 Y114.586 E0.91470
G1 X112.179 Y114.586 E0.02365
G1 X112.179 Y85.414 E0.91470
M73 Q0 S179
M73 P0 R176
G1 X112.933 Y85.414 E0.02365
G1 X112.933 Y114.586 E0.91470
G1 X113.688 Y114.586 E0.02365
G1 X113.688 Y85.414 E0.91470
G1 X114.442 Y85.414 E0.02365
G1 X114.442 Y114.586 E0.91470
G1 X115.196 Y114.586 E0.02365
G1 X115.196 Y85.414 E0.91470
G1 X115.950 Y85.414 E0.02365
G1 X115.950 Y114.756 E0.92002
G1 F8640.000
G1 X115.950 Y111.465 E-0.76000
G1 E-0.04000 F2100.00000
G1 Z0.600 F10800.000
G1 X150.641 Y119.729
G1 Z0.200
G1 E0.80000 F2100.00000
G1 F1200.000
G1 X150.641 Y85.414 E1.07594
G1 X149.887 Y85.414 E0.02365
G1 X149.887 Y119.559 E1.07062
G1 X149.133 Y119.559 E0.02365
G1 X149.133 Y85.414 E1.07062
G1 X148.379 Y85.414 E0.02365
G1 X148.379 Y119.559 E1.07062
G1 X147.914 Y119.559 E0.01459
G1 X147.914 Y114.829 E0.14833
G1 X147.671 Y114.586 E0.01074
G1 X147.625 Y114.586 E0.00146
G1 X147.625 Y85.414 E0.91470
G1 X146.871 Y85.414 E0.02365
G1 X146.871 Y114.586 E0.91470
G1 X146.116 Y114.586 E0.02365
G1 X146.116 Y85.414 E0.91470
G1 X145.362 Y85.414 E0.02365
G1 X145.362 Y114.586 E0.91470
G1 X144.608 Y114.586 E0.02365
G1 X144.608 Y85.414 E0.91470
G1 X143.854 Y85.414 E0.02365
G1 X143.854 Y114.586 E0.91470
G1 X143.100 Y114.586 E0.02365
G1 X143.100 Y85.414 E0.91470
G1 X142.346 Y85.414 E0.02365
G1 X142.346 Y114.586 E0.91470
G1 X141.591 Y114.586 E0.02365
G1 X141.591 Y85.414 E0.91470
G1 X140.837 Y85.414 E0.02365
G1 X140.837 Y114.586 E0.91470
G1 X140.083 Y114.586 E0.02365
G1 X140.083 Y85.414 E0.91470
G1 X139.329 Y85.414 E0.02365
G1 X139.329 Y114.586 E0.91470
G1 X138.575 Y114.586 E0.02365
G1 X138.575 Y85.244 E0.92002
G1 F8640.000
G1 X138.575 Y88.535 E-0.76000
G1 E-0.04000 F2100.00000
G1 Z0.600 F10800.000
G1 X138.575 Y57.148
G1 Z0.200
G1 E0.80000 F2100.00000
G1 F1200.000
G1 X138.575 Y44.084 E0.40960
G1 X139.329 Y44.084 E0.02365
G1 X139.329 Y56.978 E0.40428
G1 X140.083 Y56.978 E0.02365
G1 X140.083 Y44.084 E0.40428
G1 X140.837 Y44.084 E0.02365
G1 X140.837 Y56.978 E0.40428
G1 X141.592 Y56.978 E0.02365
G1 X141.592 Y44.084 E0.40428
G1 X142.346 Y44.084 E0.02365
G1 X142.346 Y56.978 E0.40428
G1 X143.100 Y56.978 E0.02365
G1 X143.100 Y44.084 E0.40428
G1 X143.854 Y44.084 E0.02365
G1 X143.854 Y56.978 E0.40428
G1 X144.608 Y56.978 E0.02365
G1 X144.608 Y44.084 E0.40428
G1 X145.362 Y44.084 E0.02365
G1 X145.362 Y56.978 E0.40428
G1 X146.116 Y56.978 E0.02365
G1 X146.116 Y44.084 E0.40428
G1 X146.871 Y44.084 E0.02365
G1 X146.871 Y56.978 E0.40428
G1 X147.625 Y56.978 E0.02365
G1 X147.625 Y44.084 E0.40428
G1 X148.379 Y44.084 E0.02365
G1 X148.379 Y56.978 E0.40428
G1 X149.133 Y56.978 E0.02365
G1 X149.133 Y44.084 E0.40428
G1 X149.887 Y44.084 E0.02365
G1 X149.887 Y56.978 E0.40428
G1 X150.641 Y56.978 E0.02365
G1 X150.641 Y44.084 E0.40428
G1 X151.396 Y44.084 E0.02365
G1 X151.396 Y57.148 E0.40960
G1 F8640.000
G1 X151.396 Y53.857 E-0.76000
G1 E-0.04000 F2100.00000
G1 Z0.600 F10800.000
G1 X158.183 Y46.233
G1 Z0.200
G1 E0.80000 F2100.00000
G1 F1200.000
G1 X158.183 Y59.296 E0.40960
G1 X158.937 Y59.296 E0.02365
G1 X158.937 Y46.402 E0.40428
G1 X159.691 Y46.402 E0.02365
G1 X159.691 Y59.296 E0.40428
G1 X160.445 Y59.296 E0.02365
G1 X160.445 Y46.402 E0.40428
G1 X161.200 Y46.402 E0.02365
G1 X161.200 Y59.296 E0.40428
G1 X161.954 Y59.296 E0.02365
G1 X161.954 Y46.402 E0.40428
G1 X162.708 Y46.402 E0.02365
G1 X162.708 Y59.296 E0.40428
G1 X163.462 Y59.296 E0.02365
G1 X163.462 Y46.402 E0.40428
G1 X164.216 Y46.402 E0.02365
G1 X164.216 Y59.296 E0.40428
G1 X164.970 Y59.296 E0.02365
G1 X164.970 Y46.402 E0.40428
G1 X165.725 Y46.402 E0.02365
G1 X165.725 Y59.296 E0.40428
G1 X166.479 Y59.296 E0.02365
G1 X166.479 Y46.402 E0.40428
G1 X167.233 Y46.402 E0.02365
G1 X167.233 Y59.466 E0.40960
G1 F8640.000
G1 X167.233 Y56.175 E-0.76000
G1 E-0.04000 F2100.00000
G1 Z0.600 F10800.000
G1 X119.721 Y165.244
G1 Z0.200
G1 E0.80000 F2100.00000
G1 F1200.000
G1 X119.721 Y175.187 E0.31175
G1 X120.475 Y175.187 E0.02365
M73 Q1 S178
G1 X120.475 Y165.414 E0.30643
G1 X121.229 Y165.414 E0.02365
M73 P1 R175
G1 X121.229 Y175.187 E0.30643
G1 X121.983 Y175.187 E0.02365
G1 X121.983 Y165.414 E0.30643
G1 X122.738 Y165.414 E0.02365
G1 X122.738 Y175.187 E0.30643
G1 X123.492 Y175.187 E0.02365
G1 X123.492 Y165.414 E0.30643
G1 X124.246 Y165.414 E0.02365
G1 X124.246 Y175.187 E0.30643
G1 X125.000 Y175.187 E0.02365
G1 X125.000 Y165.414 E0.30643
G1 X125.754 Y165.414 E0.02365
G1 X125.754 Y175.187 E0.30643
G1 X126.508 Y175.187 E0.02365
G1 X126.508 Y165.414 E0.30643
G1 X127.262 Y165.414 E0.02365
G1 X127.262 Y175.187 E0.30643
G1 X128.017 Y175.187 E0.02365
G1 X128.017 Y165.414 E0.30643
G1 X128.771 Y165.414 E0.02365
G1 X128.771 Y175.187 E0.30643
G1 X129.525 Y175.187 E0.02365
G1 X129.525 Y165.414 E0.30643
G1 X130.279 Y165.414 E0.02365
G1 X130.279 Y175.187 E0.30643
G1 X131.033 Y175.187 E0.02365
G1 X131.033 Y165.414 E0.30643
G1 X131.787 Y165.414 E0.02365
G1 X131.787 Y175.187 E0.30643
G1 X132.542 Y175.187 E0.02365
G1 X132.542 Y165.414 E0.30643
G1 X133.296 Y165.414 E0.02365
G1 X133.296 Y175.187 E0.30643
G1 X134.050 Y175.187 E0.02365
G1 X134.050 Y165.414 E0.30643
G1 X134.804 Y165.414 E0.02365
G1 X134.804 Y175.356 E0.31175
G1 F8640.000
G1 X134.804 Y172.065 E-0.76000
G1 E-0.04000 F2100.00000
G1 Z0.600 F10800.000
G1 X96.713 Y80.787
G1 Z0.200
G1 E0.80000 F2100.00000
G1 F1200.000
G1 X153.287 Y80.787 E1.77384
G1 X153.287 Y40.787 E1.25417
G1 X156.713 Y40.787 E0.10741
G1 X156.713 Y84.213 E1.36159
G1 X131.713 Y84.213 E0.78386
G1 X131.713 Y115.787 E0.98999
G1 X146.713 Y115.787 E0.47031
G1 X146.713 Y136.787 E0.65844
G1 X149.713 Y136.787 E0.09406
G1 X149.713 Y163.213 E0.82856
G1 X146.713 Y163.213 E0.09406
G1 X146.713 Y164.213 E0.03135
G1 X108.287 Y164.213 E1.20482
G1 X108.287 Y115.787 E1.51836
G1 X123.287 Y115.787 E0.47031
G1 X123.287 Y84.213 E0.98999
G1 X93.287 Y84.213 E0.94063
G1 X93.287 Y40.787 E1.36159
G1 X96.713 Y40.787 E0.10741
G1 X96.713 Y80.727 E1.25229
G1 X97.090 Y80.410 F10800.000
G1 F1200.000
G1 X152.910 Y80.410 E1.75020
G1 X152.910 Y40.410 E1.25417
G1 X157.090 Y40.410 E0.13106
G1 X157.090 Y84.590 E1.38523
G1 X132.090 Y84.590 E0.78386
G1 X132.090 Y115.410 E0.96634
G1 X147.090 Y115.410 E0.47031
G1 X147.090 Y136.410 E0.65844
G1 X150.090 Y136.410 E0.09406
G1 X150.090 Y163.590 E0.85221
G1 X147.090 Y163.590 E0.09406
G1 X147.090 Y164.590 E0.03135
G1 X107.910 Y164.590 E1.22846
G1 X107.910 Y115.410 E1.54200
G1 X122.910 Y115.410 E0.47031
G1 X122.910 Y84.590 E0.96634
G1 X92.910 Y84.590 E0.94063
M73 Q1 S177
G1 X92.910 Y40.410 E1.38523
M73 P1 R174
G1 X97.090 Y40.410 E0.13106
G1 X97.090 Y80.350 E1.25229
G1 X97.104 Y80.810 F10800.000
G1 X96.600 Y80.489
G1 F1200.000
G1 X93.570 Y77.459 E0.13458
G1 X93.570 Y76.925 E0.01678
G1 X96.430 Y79.785 E0.12705
G1 X96.430 Y79.251 E0.01678
G1 X93.570 Y76.390 E0.12705
G1 X93.570 Y75.856 E0.01678
G1 X96.430 Y78.716 E0.12705
G1 X96.430 Y78.182 E0.01678
G1 X93.570 Y75.322 E0.12705
G1 X93.570 Y74.788 E0.01678
G1 X96.430 Y77.648 E0.12705
G1 X96.430 Y77.114 E0.01678
G1 X93.570 Y74.254 E0.12705
G1 X93.570 Y73.719 E0.01678
G1 X96.430 Y76.580 E0.12705
G1 X96.430 Y76.045 E0.01678
G1 X93.570 Y73.185 E0.12705
G1 X93.570 Y72.651 E0.01678
G1 X96.430 Y75.511 E0.12705
G1 X96.430 Y74.977 E0.01678
G1 X93.570 Y72.117 E0.12705
G1 X93.570 Y71.583 E0.01678
G1 X96.430 Y74.443 E0.12705
G1 X96.430 Y73.909 E0.01678
G1 X93.570 Y71.048 E0.12705
G1 X93.570 Y70.514 E0.01678
G1 X96.430 Y73.374 E0.12705
G1 X96.430 Y72.840 E0.01678
G1 X93.570 Y69.980 E0.12705
G1 X93.570 Y69.446 E0.01678
G1 X96.430 Y72.306 E0.12705
G1 X96.430 Y71.772 E0.01678
G1 X93.570 Y68.912 E0.12705
G1 X93.570 Y68.377 E0.01678
G1 X96.430 Y71.238 E0.12705
G1 X96.430 Y70.704 E0.01678
G1 X93.570 Y67.843 E0.12705
G1 X93.570 Y67.309 E0.01678
G1 X96.430 Y70.169 E0.12705
G1 X96.430 Y69.635 E0.01678
G1 X93.570 Y66.775 E0.12705
G1 X93.570 Y66.241 E0.01678
G1 X96.430 Y69.101 E0.12705
G1 X96.430 Y68.567 E0.01678
G1 X93.570 Y65.707 E0.12705
G1 X93.570 Y65.172 E0.01678
G1 X96.430 Y68.033 E0.12705
G1 X96.430 Y67.498 E0.01678
G1 X93.570 Y64.638 E0.12705
G1 X93.570 Y64.104 E0.01678
G1 X96.430 Y66.964 E0.12705
G1 X96.430 Y66.430 E0.01678
G1 X93.570 Y63.570 E0.12705
G1 X93.570 Y63.036 E0.01678
G1 X96.430 Y65.896 E0.12705
G1 X96.430 Y65.362 E0.01678
G1 X93.570 Y62.501 E0.12705
G1 X93.570 Y61.967 E0.01678
G1 X96.430 Y64.827 E0.12705
G1 X96.430 Y64.293 E0.01678
G1 X93.570 Y61.433 E0.12705
G1 X93.570 Y60.899 E0.01678
G1 X96.430 Y63.759 E0.12705
G1 X96.430 Y63.225 E0.01678
G1 X93.570 Y60.365 E0.12705
G1 X93.570 Y59.830 E0.01678
G1 X96.430 Y62.691 E0.12705
G1 X96.430 Y62.157 E0.01678
G1 X93.570 Y59.296 E0.12705
G1 X93.570 Y58.762 E0.01678
G1 X96.430 Y61.622 E0.12705
G1 X96.430 Y61.088 E0.01678
G1 X93.570 Y58.228 E0.12705
G1 X93.570 Y57.694 E0.01678
G1 X96.430 Y60.554 E0.12705
G1 X96.430 Y60.020 E0.01678
G1 X93.570 Y57.160 E0.12705
G1 X93.570 Y56.625 E0.01678
G1 X96.430 Y59.486 E0.12705
G1 X96.430 Y58.951 E0.01678
G1 X93.570 Y56.091 E0.12705
G1 X93.570 Y55.557 E0.01678
G1 X96.430 Y58.417 E0.12705
G1 X96.430 Y57.883 E0.01678
G1 X93.570 Y55.023 E0.12705
G1 X93.570 Y54.489 E0.01678
G1 X96.430 Y57.349 E0.12705
G1 X96.430 Y56.815 E0.01678
G1 X93.570 Y53.954 E0.12705
G1 X93.570 Y53.420 E0.01678
G1 X96.430 Y56.280 E0.12705
G1 X96.430 Y55.746 E0.01678
G1 X93.570 Y52.886 E0.12705
G1 X93.570 Y52.352 E0.01678
G1 X96.430 Y55.212 E0.12705
G1 X96.430 Y54.678 E0.01678
G1 X93.570 Y51.818 E0.12705
G1 X93.570 Y51.283 E0.01678
G1 X96.430 Y54.144 E0.12705
G1 X96.430 Y53.610 E0.01678
G1 X93.570 Y50.749 E0.12705
G1 X93.570 Y50.215 E0.01678
G1 X96.430 Y53.075 E0.12705
G1 X96.430 Y52.541 E0.01678
G1 X93.570 Y49.681 E0.12705
G1 X93.570 Y49.147 E0.01678
G1 X96.430 Y52.007 E0.12705
G1 X96.430 Y51.473 E0.01678
G1 X93.570 Y48.613 E0.12705
G1 X93.570 Y48.078 E0.01678
G1 X96.430 Y50.939 E0.12705
G1 X96.430 Y50.404 E0.01678
G1 X93.570 Y47.544 E0.12705
G1 X93.570 Y47.010 E0.01678
G1 X96.430 Y49.870 E0.12705
G1 X96.430 Y49.336 E0.01678
G1 X93.570 Y46.476 E0.12705
G1 X93.570 Y45.942 E0.01678
G1 X96.430 Y48.802 E0.12705
G1 X96.430 Y48.268 E0.01678
G1 X93.570 Y45.407 E0.12705
G1 X93.570 Y44.873 E0.01678
G1 X96.430 Y47.733 E0.12705
G1 X96.430 Y47.199 E0.01678
G1 X93.570 Y44.339 E0.12705
G1 X93.570 Y43.805 E0.01678
G1 X96.430 Y46.665 E0.12705
G1 X96.430 Y46.131 E0.01678
G1 X93.570 Y43.271 E0.12705
G1 X93.570 Y42.736 E0.01678
G1 X96.430 Y45.597 E0.12705
G1 X96.430 Y45.063 E0.01678
G1 X93.570 Y42.202 E0.12705
G1 X93.570 Y41.668 E0.01678
G1 X96.430 Y44.528 E0.12705
G1 X96.430 Y43.994 E0.01678
G1 X93.570 Y41.134 E0.12705
G1 X93.570 Y41.070 E0.00201
G1 X94.040 Y41.070 E0.01477
G1 X96.430 Y43.460 E0.10616
G1 X96.430 Y42.926 E0.01678
G1 X94.574 Y41.070 E0.08244
G1 X95.108 Y41.070 E0.01678
G1 X96.430 Y42.392 E0.05871
G1 X96.430 Y41.857 E0.01678
G1 X95.643 Y41.070 E0.03498
G1 X96.177 Y41.070 E0.01678
G1 X96.600 Y41.493 E0.01879
G1 F8640.000
G1 X96.177 Y41.070 E-0.13814
G1 X95.643 Y41.070 E-0.12335
G1 X96.430 Y41.857 E-0.25716
G1 X96.430 Y42.392 E-0.12335
G1 X96.069 Y42.030 E-0.11801
G1 E-0.04000 F2100.00000
G1 Z0.600 F10800.000
G1 X93.801 Y84.100
G1 Z0.200
G1 E0.80000 F2100.00000
G1 F1200.000
G1 X93.570 Y83.869 E0.01025
G1 X93.570 Y83.335 E0.01678
G1 X94.165 Y83.930 E0.02644
