; generated by PrusaSlicer 2.2.0+win64 on 2022-12-28 at 20:50:34 UTC

; 

; external perimeters extrusion width = 0.45mm
; perimeters extrusion width = 0.45mm
; infill extrusion width = 0.45mm
; solid infill extrusion width = 0.45mm
; top infill extrusion width = 0.40mm
; support material extrusion width = 0.35mm
; first layer extrusion width = 0.42mm

M73 P0 R170
M73 Q0 S172
M201 X1000 Y1000 Z200 E5000 ; sets maximum accelerations, mm/sec^2
M203 X200 Y200 Z12 E120 ; sets maximum feedrates, mm/sec
M204 P1250 R1250 T1250 ; sets acceleration (P, T) and retract acceleration (R), mm/sec^2
M205 X8.00 Y8.00 Z0.40 E4.50 ; sets the jerk limits, mm/sec
M205 S0 T0 ; sets the minimum extruding and travel feed rate, mm/sec
M107
M862.3 P "MK3S" ; printer model check
M862.1 P0.4 ; nozzle diameter check
M115 U3.11.0 ; tell printer latest fw version
G90 ; use absolute coordinates
M83 ; extruder relative mode
M104 S220 ; set extruder temp
M140 S80 ; set bed temp
M190 S80 ; wait for bed temp
M109 S220 ; wait for extruder temp
G28 W ; home all without mesh bed level
G80 ; mesh bed leveling
G1 Y-3.0 F1000.0 ; go outside print area
G92 E0.0
G1 X60.0 E9.0 F1000.0 ; intro line
M73 Q0 S172
M73 P0 R170
G1 X100.0 E12.5 F1000.0 ; intro line
G92 E0.0
M221 S95

; Don't change E values below. Excessive value can damage the printer.
M907 E430 ; set extruder motor current
G21 ; set units to millimeters
G90 ; use absolute coordinates
M83 ; use relative distances for extrusion
M900 K0.05 ; Filament gcode LA 1.5
M900 K30 ; Filament gcode LA 1.0
;BEFORE_LAYER_CHANGE
G92 E0.0
;0.2


G1 E-0.80000 F2100.00000
G1 Z0.400 F10800.000
;AFTER_LAYER_CHANGE
;0.2
G1 X80.857 Y44.817
G1 Z0.200
G1 E0.80000 F2100.00000
M204 S1000
G1 F1200.000
G1 X81.441 Y44.260 E0.02532
G1 X91.257 Y37.974 E0.36546
G1 X91.739 Y37.748 E0.01668
G1 X92.255 Y37.636 E0.01657
G1 X157.504 Y37.623 E2.04583
G1 X158.245 Y37.743 E0.02355
G1 X163.497 Y39.524 E0.17388
G1 X163.998 Y39.770 E0.01752
G1 X164.394 Y40.091 E0.01597
G1 X168.939 Y44.747 E0.20402
G1 X169.318 Y45.261 E0.02000
G1 X169.530 Y45.790 E0.01787
G1 X169.610 Y46.354 E0.01787
G1 X169.598 Y59.702 E0.41850
G1 X144.773 Y165.697 E3.41334
G1 X144.493 Y166.295 E0.02071
G1 X144.060 Y166.794 E0.02071
G1 X131.801 Y177.182 E0.50380
G1 X131.142 Y177.572 E0.02402
G1 X130.263 Y177.733 E0.02802
G1 X115.154 Y177.563 E0.47376
G1 X114.498 Y177.459 E0.02083
G1 X113.827 Y177.130 E0.02343
G1 X98.080 Y165.907 E0.60630
G1 X97.526 Y165.325 E0.02520
G1 X97.199 Y164.595 E0.02508
G1 X80.413 Y59.626 E3.33303
G1 X80.390 Y46.217 E0.42043
G1 X80.495 Y45.535 E0.02166
G1 X80.830 Y44.871 E0.02332
; printing object shoulder servo joint top.STL id:0 copy 0
G1 F8640.000
G1 X81.441 Y44.260 E-0.19954
G1 X83.485 Y42.951 E-0.56046
G1 E-0.04000 F2100.00000
G1 Z0.600 F10800.000
G1 X82.767 Y46.233
G1 Z0.200
G1 E0.80000 F2100.00000
G1 F1200.000
G1 X82.767 Y59.296 E0.40960
G1 X83.521 Y59.296 E0.02365
G1 X83.521 Y46.402 E0.40428
G1 X84.275 Y46.402 E0.02365
G1 X84.275 Y59.296 E0.40428
G1 X85.030 Y59.296 E0.02365
G1 X85.030 Y46.402 E0.40428
G1 X85.784 Y46.402 E0.02365
G1 X85.784 Y59.296 E0.40428
G1 X86.538 Y59.296 E0.02365
G1 X86.538 Y46.402 E0.40428
G1 X87.292 Y46.402 E0.02365
G1 X87.292 Y59.296 E0.40428
G1 X88.046 Y59.296 E0.02365
G1 X88.046 Y46.402 E0.40428
G1 X88.800 Y46.402 E0.02365
G1 X88.800 Y59.296 E0.40428
G1 X89.555 Y59.296 E0.02365
G1 X89.555 Y46.402 E0.40428
G1 X90.309 Y46.402 E0.02365
G1 X90.309 Y59.296 E0.40428
G1 X91.063 Y59.296 E0.02365
G1 X91.063 Y46.402 E0.40428
G1 X91.817 Y46.402 E0.02365
G1 X91.817 Y59.466 E0.40960
G1 F8640.000
G1 X91.817 Y56.175 E-0.76000
G1 E-0.04000 F2100.00000
G1 Z0.600 F10800.000
G1 X98.604 Y57.148
G1 Z0.200
G1 E0.80000 F2100.00000
G1 F1200.000
G1 X98.604 Y44.084 E0.40960
G1 X99.359 Y44.084 E0.02365
G1 X99.359 Y56.978 E0.40428
G1 X100.113 Y56.978 E0.02365
G1 X100.113 Y44.084 E0.40428
G1 X100.867 Y44.084 E0.02365
G1 X100.867 Y56.978 E0.40428
G1 X101.621 Y56.978 E0.02365
G1 X101.621 Y44.084 E0.40428
G1 X102.375 Y44.084 E0.02365
G1 X102.375 Y56.978 E0.40428
G1 X103.129 Y56.978 E0.02365
G1 X103.129 Y44.084 E0.40428
G1 X103.884 Y44.084 E0.02365
G1 X103.884 Y56.978 E0.40428
G1 X104.638 Y56.978 E0.02365
G1 X104.638 Y44.084 E0.40428
G1 X105.392 Y44.084 E0.02365
G1 X105.392 Y56.978 E0.40428
G1 X106.146 Y56.978 E0.02365
G1 X106.146 Y44.084 E0.40428
G1 X106.900 Y44.084 E0.02365
G1 X106.900 Y56.978 E0.40428
G1 X107.654 Y56.978 E0.02365
G1 X107.654 Y44.084 E0.40428
G1 X108.409 Y44.084 E0.02365
G1 X108.409 Y56.978 E0.40428
G1 X109.163 Y56.978 E0.02365
G1 X109.163 Y44.084 E0.40428
G1 X109.917 Y44.084 E0.02365
G1 X109.917 Y56.978 E0.40428
G1 X110.671 Y56.978 E0.02365
G1 X110.671 Y44.084 E0.40428
G1 X111.425 Y44.084 E0.02365
G1 X111.425 Y57.148 E0.40960
G1 F8640.000
G1 X111.425 Y53.857 E-0.76000
G1 E-0.04000 F2100.00000
G1 Z0.600 F10800.000
G1 X99.359 Y85.244
G1 Z0.200
G1 E0.80000 F2100.00000
G1 F1200.000
G1 X99.359 Y119.559 E1.07594
G1 X100.113 Y119.559 E0.02365
G1 X100.113 Y85.414 E1.07062
G1 X100.867 Y85.414 E0.02365
G1 X100.867 Y119.559 E1.07062
G1 X101.621 Y119.559 E0.02365
G1 X101.621 Y85.414 E1.07062
G1 X102.375 Y85.414 E0.02365
G1 X102.375 Y114.586 E0.91470
G1 X103.129 Y114.586 E0.02365
G1 X103.129 Y85.414 E0.91470
G1 X103.884 Y85.414 E0.02365
G1 X103.884 Y114.586 E0.91470
G1 X104.638 Y114.586 E0.02365
G1 X104.638 Y85.414 E0.91470
G1 X105.392 Y85.414 E0.02365
G1 X105.392 Y114.586 E0.91470
M73 Q0 S171
M73 P0 R169
G1 X106.146 Y114.586 E0.02365
G1 X106.146 Y85.414 E0.91470
G1 X106.900 Y85.414 E0.02365
G1 X106.900 Y114.586 E0.91470
G1 X107.654 Y114.586 E0.02365
G1 X107.654 Y85.414 E0.91470
G1 X108.409 Y85.414 E0.02365
G1 X108.409 Y114.586 E0.91470
G1 X109.163 Y114.586 E0.02365
G1 X109.163 Y85.414 E0.91470
G1 X109.917 Y85.414 E0.02365
G1 X109.917 Y114.586 E0.91470
G1 X110.671 Y114.586 E0.02365
G1 X110.671 Y85.414 E0.91470
G1 X111.425 Y85.414 E0.02365
G1 X111.425 Y114.756 E0.92002
G1 F8640.000
G1 X111.425 Y111.465 E-0.76000
G1 E-0.04000 F2100.00000
G1 Z0.600 F10800.000
G1 X146.116 Y119.729
G1 Z0.200
G1 E0.80000 F2100.00000
G1 F1200.000
G1 X146.116 Y85.414 E1.07594
G1 X145.362 Y85.414 E0.02365
G1 X145.362 Y119.559 E1.07062
G1 X144.608 Y119.559 E0.02365
G1 X144.608 Y85.414 E1.07062
G1 X143.854 Y85.414 E0.02365
G1 X143.854 Y119.559 E1.07062
G1 X143.100 Y119.559 E0.02365
G1 X143.100 Y85.414 E1.07062
G1 X142.346 Y85.414 E0.02365
G1 X142.346 Y114.586 E0.91470
G1 X141.591 Y114.586 E0.02365
G1 X141.591 Y85.414 E0.91470
G1 X140.837 Y85.414 E0.02365
G1 X140.837 Y114.586 E0.91470
G1 X140.083 Y114.586 E0.02365
G1 X140.083 Y85.414 E0.91470
G1 X139.329 Y85.414 E0.02365
G1 X139.329 Y114.586 E0.91470
G1 X138.575 Y114.586 E0.02365
G1 X138.575 Y85.414 E0.91470
G1 X137.821 Y85.414 E0.02365
G1 X137.821 Y114.586 E0.91470
G1 X137.067 Y114.586 E0.02365
G1 X137.067 Y85.414 E0.91470
G1 X136.312 Y85.414 E0.02365
G1 X136.312 Y114.586 E0.91470
G1 X135.558 Y114.586 E0.02365
G1 X135.558 Y85.414 E0.91470
G1 X134.804 Y85.414 E0.02365
G1 X134.804 Y114.586 E0.91470
G1 X134.050 Y114.586 E0.02365
G1 X134.050 Y85.244 E0.92002
G1 F8640.000
G1 X134.050 Y88.535 E-0.76000
G1 E-0.04000 F2100.00000
G1 Z0.600 F10800.000
G1 X147.625 Y59.466
G1 Z0.200
G1 E0.80000 F2100.00000
G1 F1200.000
G1 X147.625 Y41.767 E0.55495
G1 X148.379 Y41.767 E0.02365
G1 X148.379 Y59.296 E0.54963
G1 X149.133 Y59.296 E0.02365
G1 X149.133 Y41.767 E0.54963
G1 X149.887 Y41.767 E0.02365
G1 X149.887 Y59.296 E0.54963
G1 X150.641 Y59.296 E0.02365
G1 X150.641 Y41.767 E0.54963
G1 X151.396 Y41.767 E0.02365
G1 X151.396 Y59.466 E0.55495
G1 F8640.000
G1 X151.396 Y56.175 E-0.76000
G1 E-0.04000 F2100.00000
G1 Z0.600 F10800.000
G1 X167.233 Y59.466
G1 Z0.200
G1 E0.80000 F2100.00000
G1 F1200.000
G1 X167.233 Y46.402 E0.40960
G1 X166.479 Y46.402 E0.02365
G1 X166.479 Y59.296 E0.40428
G1 X165.725 Y59.296 E0.02365
G1 X165.725 Y46.402 E0.40428
G1 X164.970 Y46.402 E0.02365
G1 X164.970 Y59.296 E0.40428
G1 X164.216 Y59.296 E0.02365
G1 X164.216 Y46.402 E0.40428
G1 X163.462 Y46.402 E0.02365
G1 X163.462 Y59.296 E0.40428
G1 X162.708 Y59.296 E0.02365
G1 X162.708 Y41.767 E0.54963
G1 X161.954 Y41.767 E0.02365
G1 X161.954 Y59.296 E0.54963
G1 X161.200 Y59.296 E0.02365
G1 X161.200 Y41.767 E0.54963
G1 X160.445 Y41.767 E0.02365
G1 X160.445 Y59.296 E0.54963
G1 X159.691 Y59.296 E0.02365
G1 X159.691 Y41.767 E0.54963
G1 X158.937 Y41.767 E0.02365
G1 X158.937 Y59.296 E0.54963
G1 X158.183 Y59.296 E0.02365
G1 X158.183 Y41.597 E0.55495
G1 F8640.000
G1 X158.183 Y44.888 E-0.76000
G1 E-0.04000 F2100.00000
G1 Z0.600 F10800.000
G1 X115.196 Y165.244
G1 Z0.200
G1 E0.80000 F2100.00000
G1 F1200.000
G1 X115.196 Y175.187 E0.31175
G1 X115.950 Y175.187 E0.02365
G1 X115.950 Y165.414 E0.30643
G1 X116.704 Y165.414 E0.02365
G1 X116.704 Y175.187 E0.30643
M73 Q1 S170
G1 X117.458 Y175.187 E0.02365
G1 X117.458 Y165.414 E0.30643
M73 P1 R168
G1 X118.213 Y165.414 E0.02365
G1 X118.213 Y175.187 E0.30643
G1 X118.967 Y175.187 E0.02365
G1 X118.967 Y165.414 E0.30643
G1 X119.721 Y165.414 E0.02365
G1 X119.721 Y175.187 E0.30643
G1 X120.475 Y175.187 E0.02365
G1 X120.475 Y165.414 E0.30643
G1 X121.229 Y165.414 E0.02365
G1 X121.229 Y175.187 E0.30643
G1 X121.983 Y175.187 E0.02365
G1 X121.983 Y165.414 E0.30643
G1 X122.738 Y165.414 E0.02365
G1 X122.738 Y175.187 E0.30643
G1 X123.492 Y175.187 E0.02365
G1 X123.492 Y165.414 E0.30643
G1 X124.246 Y165.414 E0.02365
G1 X124.246 Y175.187 E0.30643
G1 X125.000 Y175.187 E0.02365
G1 X125.000 Y165.414 E0.30643
G1 X125.754 Y165.414 E0.02365
G1 X125.754 Y175.187 E0.30643
G1 X126.508 Y175.187 E0.02365
G1 X126.508 Y165.414 E0.30643
G1 X127.262 Y165.414 E0.02365
G1 X127.262 Y175.187 E0.30643
G1 X128.017 Y175.187 E0.02365
G1 X128.017 Y165.414 E0.30643
G1 X128.771 Y165.414 E0.02365
G1 X128.771 Y175.187 E0.30643
G1 X129.525 Y175.187 E0.02365
G1 X129.525 Y165.414 E0.30643
G1 X130.279 Y165.414 E0.02365
G1 X130.279 Y175.356 E0.31175
G1 F8640.000
G1 X130.279 Y172.065 E-0.76000
G1 E-0.04000 F2100.00000
G1 Z0.600 F10800.000
G1 X96.713 Y80.787
G1 Z0.200
G1 E0.80000 F2100.00000
G1 F1200.000
G1 X153.287 Y80.787 E1.77384
G1 X153.287 Y40.787 E1.25417
G1 X156.713 Y40.787 E0.10741
G1 X156.713 Y84.213 E1.36159
G1 X126.713 Y84.213 E0.94063
G1 X126.713 Y115.787 E0.98999
G1 X141.713 Y115.787 E0.47031
G1 X141.713 Y164.213 E1.51836
G1 X103.287 Y164.213 E1.20482
G1 X103.287 Y163.213 E0.03135
G1 X100.287 Y163.213 E0.09406
G1 X100.287 Y136.787 E0.82856
G1 X103.287 Y136.787 E0.09406
G1 X103.287 Y115.787 E0.65844
G1 X118.287 Y115.787 E0.47031
G1 X118.287 Y84.213 E0.98999
G1 X93.287 Y84.213 E0.78386
G1 X93.287 Y40.787 E1.36159
G1 X96.713 Y40.787 E0.10741
G1 X96.713 Y80.727 E1.25229
G1 X97.090 Y80.410 F10800.000
G1 F1200.000
G1 X152.910 Y80.410 E1.75020
G1 X152.910 Y40.410 E1.25417
G1 X157.090 Y40.410 E0.13106
G1 X157.090 Y84.590 E1.38523
G1 X127.090 Y84.590 E0.94063
G1 X127.090 Y115.410 E0.96634
G1 X142.090 Y115.410 E0.47031
G1 X142.090 Y164.590 E1.54200
G1 X102.910 Y164.590 E1.22846
G1 X102.910 Y163.590 E0.03135
G1 X99.910 Y163.590 E0.09406
G1 X99.910 Y136.410 E0.85221
G1 X102.910 Y136.410 E0.09406
G1 X102.910 Y115.410 E0.65844
G1 X117.910 Y115.410 E0.47031
G1 X117.910 Y84.590 E0.96634
G1 X92.910 Y84.590 E0.78386
G1 X92.910 Y40.410 E1.38523
M73 Q1 S169
M73 P1 R167
G1 X97.090 Y40.410 E0.13106
G1 X97.090 Y80.350 E1.25229
G1 X97.104 Y80.810 F10800.000
G1 F8640.000
G1 X100.381 Y80.354 E-0.76000
G1 E-0.04000 F2100.00000
G1 Z0.600 F10800.000
G1 X99.111 Y84.100
G1 Z0.200
G1 E0.80000 F2100.00000
G1 F1200.000
G1 X93.570 Y78.559 E0.24621
G1 X93.570 Y79.093 E0.01679
G1 X98.407 Y83.930 E0.21493
G1 X97.873 Y83.930 E0.01679
G1 X93.570 Y79.627 E0.19118
G1 X93.570 Y80.162 E0.01679
G1 X97.338 Y83.930 E0.16744
G1 X96.804 Y83.930 E0.01679
G1 X93.570 Y80.696 E0.14370
G1 X93.570 Y81.230 E0.01679
G1 X96.270 Y83.930 E0.11996
G1 X95.735 Y83.930 E0.01679
G1 X93.570 Y81.765 E0.09622
G1 X93.570 Y82.299 E0.01679
G1 X95.201 Y83.930 E0.07247
G1 X94.667 Y83.930 E0.01679
G1 X93.570 Y82.833 E0.04873
G1 X93.570 Y83.368 E0.01679
G1 X94.132 Y83.930 E0.02499
G1 X93.598 Y83.930 E0.01679
G1 X93.400 Y83.732 E0.00879
G1 F8640.000
G1 X93.598 Y83.930 E-0.06457
G1 X94.132 Y83.930 E-0.12338
G1 X93.570 Y83.368 E-0.18365
G1 X93.570 Y82.833 E-0.12338
G1 X94.381 Y83.645 E-0.26502
G1 E-0.04000 F2100.00000
G1 Z0.600 F10800.000
G1 X126.600 Y92.352
G1 Z0.200
G1 E0.80000 F2100.00000
G1 F1200.000
G1 X118.570 Y84.322 E0.35678
G1 X118.570 Y84.856 E0.01679
G1 X126.430 Y92.716 E0.34924
G1 X126.430 Y93.251 E0.01679
G1 X118.570 Y85.390 E0.34924
G1 X118.570 Y85.925 E0.01679
G1 X126.430 Y93.785 E0.34924
G1 X126.430 Y94.319 E0.01679
G1 X118.570 Y86.459 E0.34924
G1 X118.570 Y86.994 E0.01679
G1 X126.430 Y94.854 E0.34924
G1 X126.430 Y95.388 E0.01679
G1 X118.570 Y87.528 E0.34924
G1 X118.570 Y88.062 E0.01679
G1 X126.430 Y95.922 E0.34924
G1 X126.430 Y96.457 E0.01679
G1 X118.570 Y88.597 E0.34924
G1 X118.570 Y89.131 E0.01679
G1 X126.430 Y96.991 E0.34924
G1 X126.430 Y97.526 E0.01679
G1 X118.570 Y89.665 E0.34924
G1 X118.570 Y90.200 E0.01679
G1 X126.430 Y98.060 E0.34924
G1 X126.430 Y98.594 E0.01679
G1 X118.570 Y90.734 E0.34924
G1 X118.570 Y91.268 E0.01679
G1 X126.430 Y99.129 E0.34924
G1 X126.430 Y99.663 E0.01679
G1 X118.570 Y91.803 E0.34924
G1 X118.570 Y92.337 E0.01679
G1 X126.430 Y100.197 E0.34924
G1 X126.430 Y100.732 E0.01679
G1 X118.570 Y92.871 E0.34924
G1 X118.570 Y93.406 E0.01679
G1 X126.430 Y101.266 E0.34924
G1 X126.430 Y101.800 E0.01679
G1 X118.570 Y93.940 E0.34924
G1 X118.570 Y94.474 E0.01679
G1 X126.430 Y102.335 E0.34924
G1 X126.430 Y102.869 E0.01679
G1 X118.570 Y95.009 E0.34924
G1 X118.570 Y95.543 E0.01679
G1 X126.430 Y103.403 E0.34924
G1 X126.430 Y103.938 E0.01679
G1 X118.570 Y96.078 E0.34924
G1 X118.570 Y96.612 E0.01679
G1 X126.430 Y104.472 E0.34924
G1 X126.430 Y105.007 E0.01679
G1 X118.570 Y97.146 E0.34924
G1 X118.570 Y97.681 E0.01679
G1 X126.430 Y105.541 E0.34924
G1 X126.430 Y106.075 E0.01679
G1 X118.570 Y98.215 E0.34924
G1 X118.570 Y98.749 E0.01679
G1 X126.430 Y106.610 E0.34924
G1 X126.430 Y107.144 E0.01679
G1 X118.570 Y99.284 E0.34924
G1 X118.570 Y99.818 E0.01679
G1 X126.430 Y107.678 E0.34924
G1 X126.430 Y108.213 E0.01679
G1 X118.570 Y100.352 E0.34924
G1 X118.570 Y100.887 E0.01679
G1 X126.430 Y108.747 E0.34924
G1 X126.430 Y109.281 E0.01679
G1 X118.570 Y101.421 E0.34924
G1 X118.570 Y101.955 E0.01679
G1 X126.430 Y109.816 E0.34924
G1 X126.430 Y110.350 E0.01679
G1 X118.570 Y102.490 E0.34924
G1 X118.570 Y103.024 E0.01679
G1 X126.430 Y110.884 E0.34924
G1 X126.430 Y111.419 E0.01679
G1 X118.570 Y103.559 E0.34924
G1 X118.570 Y104.093 E0.01679
G1 X126.430 Y111.953 E0.34924
G1 X126.430 Y112.487 E0.01679
G1 X118.570 Y104.627 E0.34924
G1 X118.570 Y105.162 E0.01679
G1 X126.430 Y113.022 E0.34924
G1 X126.430 Y113.556 E0.01679
G1 X118.570 Y105.696 E0.34924
G1 X118.570 Y106.230 E0.01679
G1 X126.430 Y114.091 E0.34924
G1 X126.430 Y114.625 E0.01679
G1 X118.570 Y106.765 E0.34924
G1 X118.570 Y107.299 E0.01679
G1 X126.430 Y115.159 E0.34924
G1 X126.430 Y115.694 E0.01679
G1 X118.570 Y107.833 E0.34924
G1 X118.570 Y108.368 E0.01679
G1 X141.430 Y131.228 E1.01572
G1 X141.430 Y130.694 E0.01679
G1 X126.806 Y116.070 E0.64976
G1 X127.341 Y116.070 E0.01679
G1 X141.430 Y130.159 E0.62602
G1 X141.430 Y129.625 E0.01679
G1 X127.875 Y116.070 E0.60227
G1 X128.409 Y116.070 E0.01679
G1 X141.430 Y129.091 E0.57853
G1 X141.430 Y128.556 E0.01679
G1 X128.944 Y116.070 E0.55479
G1 X129.478 Y116.070 E0.01679
G1 X141.430 Y128.022 E0.53105
G1 X141.430 Y127.487 E0.01679
G1 X130.013 Y116.070 E0.50730
G1 X130.547 Y116.070 E0.01679
G1 X141.430 Y126.953 E0.48356
G1 X141.430 Y126.419 E0.01679
G1 X131.081 Y116.070 E0.45982
G1 X131.616 Y116.070 E0.01679
G1 X141.430 Y125.884 E0.43608
G1 X141.430 Y125.350 E0.01679
G1 X132.150 Y116.070 E0.41234
G1 X132.684 Y116.070 E0.01679
G1 X141.430 Y124.816 E0.38859
G1 X141.430 Y124.281 E0.01679
G1 X133.219 Y116.070 E0.36485
G1 X133.753 Y116.070 E0.01679
G1 X141.430 Y123.747 E0.34111
G1 X141.430 Y123.213 E0.01679
G1 X134.287 Y116.070 E0.31737
G1 X134.822 Y116.070 E0.01679
G1 X141.430 Y122.678 E0.29362
G1 X141.430 Y122.144 E0.01679
G1 X135.356 Y116.070 E0.26988
G1 X135.890 Y116.070 E0.01679
G1 X141.430 Y121.610 E0.24614
G1 X141.430 Y121.075 E0.01679
