; generated by PrusaSlicer 2.2.0+win64 on 2022-12-28 at 20:51:03 UTC

; 

; external perimeters extrusion width = 0.45mm
; perimeters extrusion width = 0.45mm
; infill extrusion width = 0.45mm
; solid infill extrusion width = 0.45mm
; top infill extrusion width = 0.40mm
; support material extrusion width = 0.35mm
; first layer extrusion width = 0.42mm

M73 P0 R91
M73 Q0 S91
M201 X1000 Y1000 Z200 E5000 ; sets maximum accelerations, mm/sec^2
M203 X200 Y200 Z12 E120 ; sets maximum feedrates, mm/sec
M204 P1250 R1250 T1250 ; sets acceleration (P, T) and retract acceleration (R), mm/sec^2
M205 X8.00 Y8.00 Z0.40 E4.50 ; sets the jerk limits, mm/sec
M205 S0 T0 ; sets the minimum extruding and travel feed rate, mm/sec
M107
M862.3 P "MK3S" ; printer model check
M862.1 P0.4 ; nozzle diameter check
M115 U3.11.0 ; tell printer latest fw version
G90 ; use absolute coordinates
M83 ; extruder relative mode
M104 S220 ; set extruder temp
M140 S80 ; set bed temp
M190 S80 ; wait for bed temp
M109 S220 ; wait for extruder temp
G28 W ; home all without mesh bed level
G80 ; mesh bed leveling
G1 Y-3.0 F1000.0 ; go outside print area
G92 E0.0
G1 X60.0 E9.0 F1000.0 ; intro line
M73 Q0 S91
M73 P0 R90
G1 X100.0 E12.5 F1000.0 ; intro line
G92 E0.0
M221 S95

; Don't change E values below. Excessive value can damage the printer.
M907 E430 ; set extruder motor current
G21 ; set units to millimeters
G90 ; use absolute coordinates
M83 ; use relative distances for extrusion
M900 K0.05 ; Filament gcode LA 1.5
M900 K30 ; Filament gcode LA 1.0
;BEFORE_LAYER_CHANGE
G92 E0.0
;0.2


G1 E-0.80000 F2100.00000
G1 Z0.400 F10800.000
;AFTER_LAYER_CHANGE
;0.2
G1 X111.335 Y65.503
G1 Z0.200
G1 E0.80000 F2100.00000
M204 S1000
G1 F1200.000
G1 X111.857 Y65.143 E0.01989
G1 X112.366 Y64.954 E0.01704
G1 X112.906 Y64.886 E0.01704
G1 X134.804 Y64.885 E0.68661
G1 X135.325 Y64.943 E0.01645
G1 X135.825 Y65.116 E0.01657
G1 X136.274 Y65.394 E0.01657
G1 X136.650 Y65.765 E0.01657
G1 X141.328 Y72.929 E0.26826
G1 X145.630 Y81.445 E0.29914
G1 X145.827 Y82.016 E0.01894
G1 X148.873 Y103.357 E0.67593
G1 X148.877 Y131.504 E0.88252
G1 X148.821 Y132.014 E0.01609
G1 X148.494 Y132.793 E0.02649
G1 X147.916 Y133.409 E0.02649
G1 X131.640 Y144.856 E0.62389
G1 X131.190 Y145.103 E0.01609
G1 X130.300 Y145.284 E0.02849
G1 X117.447 Y145.284 E0.40300
G1 X116.944 Y145.228 E0.01585
G1 X116.483 Y145.075 E0.01526
G1 X116.058 Y144.828 E0.01538
G1 X102.049 Y134.383 E0.54792
G1 X101.511 Y133.801 E0.02484
G1 X101.194 Y133.075 E0.02484
G1 X101.123 Y132.500 E0.01816
G1 X101.123 Y82.496 E1.56783
G1 X101.179 Y81.986 E0.01609
G1 X101.471 Y81.262 E0.02449
G1 X110.927 Y65.989 E0.56321
G1 X111.296 Y65.549 E0.01800
; printing object inside shoulder bottom.STL id:0 copy 0
G1 F8640.000
G1 X111.857 Y65.143 E-0.15984
G1 X112.366 Y64.954 E-0.12549
G1 X112.906 Y64.886 E-0.12550
G1 X114.418 Y64.886 E-0.34917
G1 E-0.04000 F2100.00000
G1 Z0.600 F10800.000
G1 X112.933 Y82.256
G1 Z0.200
G1 E0.80000 F2100.00000
G1 F1200.000
G1 X112.933 Y67.263 E0.47011
G1 X113.688 Y67.263 E0.02365
G1 X113.688 Y82.086 E0.46479
G1 X114.442 Y82.086 E0.02365
G1 X114.442 Y67.263 E0.46479
G1 X115.196 Y67.263 E0.02365
G1 X115.196 Y82.086 E0.46479
G1 X115.950 Y82.086 E0.02365
G1 X115.950 Y67.263 E0.46479
G1 X116.704 Y67.263 E0.02365
G1 X116.704 Y82.086 E0.46479
G1 X117.458 Y82.086 E0.02365
G1 X117.458 Y67.263 E0.46479
G1 X118.213 Y67.263 E0.02365
G1 X118.213 Y82.086 E0.46479
G1 X118.967 Y82.086 E0.02365
G1 X118.967 Y67.263 E0.46479
G1 X119.721 Y67.263 E0.02365
G1 X119.721 Y82.086 E0.46479
G1 X120.475 Y82.086 E0.02365
G1 X120.475 Y67.263 E0.46479
G1 X121.229 Y67.263 E0.02365
G1 X121.229 Y82.086 E0.46479
G1 X121.983 Y82.086 E0.02365
G1 X121.983 Y67.263 E0.46479
G1 X122.738 Y67.263 E0.02365
G1 X122.738 Y82.086 E0.46479
G1 X123.335 Y82.086 E0.01872
G1 X123.335 Y77.839 E0.13318
G1 X123.492 Y77.839 E0.00492
G1 X123.492 Y67.263 E0.33161
G1 X124.246 Y67.263 E0.02365
G1 X124.246 Y77.839 E0.33161
G1 X124.348 Y77.839 E0.00319
G1 X124.348 Y82.086 E0.13318
G1 X125.000 Y82.086 E0.02046
G1 X125.000 Y67.263 E0.46479
G1 X125.754 Y67.263 E0.02365
G1 X125.754 Y82.086 E0.46479
G1 X126.508 Y82.086 E0.02365
G1 X126.508 Y67.263 E0.46479
G1 X127.262 Y67.263 E0.02365
G1 X127.262 Y82.086 E0.46479
G1 X128.017 Y82.086 E0.02365
G1 X128.017 Y67.263 E0.46479
G1 X128.771 Y67.263 E0.02365
G1 X128.771 Y82.086 E0.46479
G1 X129.525 Y82.086 E0.02365
G1 X129.525 Y67.263 E0.46479
G1 X130.279 Y67.263 E0.02365
G1 X130.279 Y82.086 E0.46479
G1 X131.033 Y82.086 E0.02365
G1 X131.033 Y67.263 E0.46479
G1 X131.787 Y67.263 E0.02365
G1 X131.787 Y82.086 E0.46479
G1 X132.542 Y82.086 E0.02365
G1 X132.542 Y67.263 E0.46479
G1 X133.296 Y67.263 E0.02365
G1 X133.296 Y82.086 E0.46479
G1 X134.050 Y82.086 E0.02365
G1 X134.050 Y67.263 E0.46479
G1 X134.804 Y67.263 E0.02365
G1 X134.804 Y82.086 E0.46479
G1 X135.558 Y82.086 E0.02365
G1 X135.558 Y74.216 E0.24677
G1 X136.312 Y74.216 E0.02365
G1 X136.312 Y82.086 E0.24677
G1 X137.067 Y82.086 E0.02365
G1 X137.067 Y74.216 E0.24677
G1 X137.821 Y74.216 E0.02365
G1 X137.821 Y82.086 E0.24677
G1 X138.575 Y82.086 E0.02365
G1 X138.575 Y74.216 E0.24677
G1 X139.329 Y74.216 E0.02365
G1 X139.329 Y82.256 E0.25209
G1 F8640.000
G1 X139.329 Y78.965 E-0.76000
G1 E-0.04000 F2100.00000
G1 Z0.600 F10800.000
G1 X130.279 Y142.907
G1 Z0.200
G1 E0.80000 F2100.00000
G1 F1200.000
G1 X130.279 Y132.914 E0.31334
G1 X129.525 Y132.914 E0.02365
G1 X129.525 Y142.737 E0.30802
G1 X128.771 Y142.737 E0.02365
G1 X128.771 Y132.914 E0.30802
G1 X128.017 Y132.914 E0.02365
G1 X128.017 Y142.737 E0.30802
G1 X127.262 Y142.737 E0.02365
G1 X127.262 Y132.914 E0.30802
G1 X126.508 Y132.914 E0.02365
G1 X126.508 Y142.737 E0.30802
G1 X125.754 Y142.737 E0.02365
G1 X125.754 Y132.914 E0.30802
G1 X125.000 Y132.914 E0.02365
G1 X125.000 Y142.737 E0.30802
G1 X124.246 Y142.737 E0.02365
G1 X124.246 Y132.914 E0.30802
G1 X123.492 Y132.914 E0.02365
G1 X123.492 Y142.737 E0.30802
G1 X122.738 Y142.737 E0.02365
G1 X122.738 Y132.914 E0.30802
G1 X121.983 Y132.914 E0.02365
G1 X121.983 Y142.737 E0.30802
G1 X121.229 Y142.737 E0.02365
G1 X121.229 Y132.914 E0.30802
G1 X120.475 Y132.914 E0.02365
G1 X120.475 Y142.737 E0.30802
G1 X119.721 Y142.737 E0.02365
G1 X119.721 Y132.914 E0.30802
G1 X118.967 Y132.914 E0.02365
G1 X118.967 Y142.737 E0.30802
G1 X118.213 Y142.737 E0.02365
G1 X118.213 Y132.914 E0.30802
G1 X117.458 Y132.914 E0.02365
G1 X117.458 Y142.907 E0.31334
G1 F8640.000
G1 X117.458 Y139.616 E-0.76000
G1 E-0.04000 F2100.00000
G1 Z0.600 F10800.000
G1 X129.887 Y102.235
G1 Z0.200
G1 E0.80000 F2100.00000
G1 F1200.000
G1 X129.603 Y102.106 E0.00978
G1 X129.344 Y101.932 E0.00978
G1 X129.119 Y101.716 E0.00978
G1 X128.933 Y101.465 E0.00979
G1 X128.793 Y101.186 E0.00978
G1 X128.701 Y100.888 E0.00978
G1 X128.662 Y100.578 E0.00978
G1 X128.675 Y100.266 E0.00978
G1 X128.741 Y99.961 E0.00979
G1 X128.857 Y99.672 E0.00978
G1 X129.021 Y99.406 E0.00979
G1 X129.227 Y99.172 E0.00978
G1 X129.470 Y98.976 E0.00978
G1 X129.742 Y98.823 E0.00978
G1 X130.036 Y98.719 E0.00979
G1 X130.340 Y98.667 E0.00965
G1 X130.660 Y98.667 E0.01005
G1 X130.964 Y98.719 E0.00965
G1 X131.258 Y98.823 E0.00979
G1 X131.530 Y98.976 E0.00978
G1 X131.773 Y99.172 E0.00978
G1 X131.979 Y99.406 E0.00979
G1 X132.143 Y99.672 E0.00978
G1 X132.259 Y99.961 E0.00978
G1 X132.325 Y100.266 E0.00978
G1 X132.338 Y100.578 E0.00978
G1 X132.299 Y100.888 E0.00979
G1 X132.207 Y101.186 E0.00978
G1 X132.067 Y101.465 E0.00978
G1 X131.881 Y101.716 E0.00978
G1 X131.656 Y101.932 E0.00978
G1 X131.397 Y102.106 E0.00978
G1 X131.113 Y102.235 E0.00978
G1 X130.811 Y102.313 E0.00978
G1 X130.500 Y102.340 E0.00978
G1 X130.189 Y102.313 E0.00978
G1 X129.945 Y102.250 E0.00790
G1 X130.040 Y101.885 F10800.000
G1 F1200.000
G1 X129.787 Y101.776 E0.00864
G1 X129.582 Y101.637 E0.00777
G1 X129.403 Y101.466 E0.00777
G1 X129.256 Y101.266 E0.00777
G1 X129.144 Y101.045 E0.00777
G1 X129.071 Y100.808 E0.00777
G1 X129.040 Y100.562 E0.00777
G1 X129.050 Y100.314 E0.00777
G1 X129.103 Y100.072 E0.00777
G1 X129.195 Y99.842 E0.00777
G1 X129.325 Y99.631 E0.00777
G1 X129.489 Y99.445 E0.00777
G1 X129.682 Y99.289 E0.00777
G1 X129.898 Y99.168 E0.00777
G1 X130.132 Y99.086 E0.00777
G1 X130.372 Y99.045 E0.00764
G1 X130.628 Y99.045 E0.00804
G1 X130.868 Y99.086 E0.00764
G1 X131.102 Y99.168 E0.00777
G1 X131.318 Y99.289 E0.00777
G1 X131.511 Y99.445 E0.00777
G1 X131.675 Y99.631 E0.00777
G1 X131.805 Y99.842 E0.00777
G1 X131.897 Y100.072 E0.00777
G1 X131.950 Y100.314 E0.00777
G1 X131.960 Y100.562 E0.00777
G1 X131.929 Y100.808 E0.00777
G1 X131.856 Y101.045 E0.00777
G1 X131.744 Y101.266 E0.00777
G1 X131.597 Y101.466 E0.00777
G1 X131.418 Y101.637 E0.00777
G1 X131.213 Y101.776 E0.00777
G1 X130.987 Y101.878 E0.00777
G1 X130.747 Y101.940 E0.00777
G1 X130.500 Y101.961 E0.00777
G1 X130.253 Y101.940 E0.00777
G1 X130.098 Y101.900 E0.00502
G1 X129.833 Y102.067 F10800.000
G1 F8640.000
G1 X129.787 Y101.776 E-0.07732
G1 X129.582 Y101.637 E-0.05724
G1 X129.403 Y101.466 E-0.05724
G1 X129.256 Y101.266 E-0.05724
G1 X129.144 Y101.045 E-0.05724
G1 X129.071 Y100.808 E-0.05724
G1 X129.040 Y100.562 E-0.05724
G1 X129.050 Y100.314 E-0.05724
G1 X129.103 Y100.072 E-0.05724
G1 X129.195 Y99.842 E-0.05724
G1 X129.325 Y99.631 E-0.05724
G1 X129.489 Y99.445 E-0.05724
G1 X129.668 Y99.300 E-0.05307
G1 E-0.04000 F2100.00000
G1 Z0.600 F10800.000
G1 X118.338 Y100.578
G1 Z0.200
G1 E0.80000 F2100.00000
G1 F1200.000
G1 X118.299 Y100.888 E0.00978
G1 X118.207 Y101.186 E0.00978
G1 X118.067 Y101.465 E0.00978
G1 X117.881 Y101.716 E0.00979
G1 X117.656 Y101.932 E0.00978
G1 X117.397 Y102.106 E0.00978
G1 X117.113 Y102.235 E0.00978
G1 X116.811 Y102.313 E0.00978
G1 X116.500 Y102.340 E0.00978
G1 X116.189 Y102.313 E0.00978
G1 X115.887 Y102.235 E0.00979
G1 X115.603 Y102.106 E0.00978
G1 X115.344 Y101.932 E0.00978
G1 X115.119 Y101.716 E0.00978
G1 X114.933 Y101.465 E0.00979
G1 X114.793 Y101.186 E0.00978
G1 X114.701 Y100.888 E0.00978
G1 X114.662 Y100.578 E0.00978
G1 X114.675 Y100.266 E0.00978
G1 X114.741 Y99.961 E0.00978
G1 X114.857 Y99.672 E0.00978
G1 X115.021 Y99.406 E0.00978
G1 X115.227 Y99.172 E0.00978
G1 X115.470 Y98.976 E0.00978
G1 X115.742 Y98.823 E0.00978
G1 X116.036 Y98.719 E0.00979
G1 X116.344 Y98.667 E0.00978
G1 X116.656 Y98.667 E0.00978
G1 X116.964 Y98.719 E0.00978
G1 X117.258 Y98.823 E0.00978
G1 X117.530 Y98.976 E0.00979
G1 X117.773 Y99.172 E0.00978
G1 X117.979 Y99.406 E0.00978
G1 X118.143 Y99.672 E0.00978
G1 X118.259 Y99.961 E0.00978
G1 X118.325 Y100.266 E0.00978
G1 X118.336 Y100.518 E0.00790
G1 X117.959 Y100.534 F10800.000
G1 F1200.000
G1 X117.929 Y100.808 E0.00864
G1 X117.856 Y101.045 E0.00777
G1 X117.744 Y101.266 E0.00777
G1 X117.597 Y101.466 E0.00777
G1 X117.418 Y101.637 E0.00777
G1 X117.213 Y101.776 E0.00777
G1 X116.987 Y101.878 E0.00777
G1 X116.747 Y101.940 E0.00777
G1 X116.500 Y101.961 E0.00777
G1 X116.253 Y101.940 E0.00777
G1 X116.013 Y101.878 E0.00777
G1 X115.787 Y101.776 E0.00777
G1 X115.582 Y101.637 E0.00777
G1 X115.403 Y101.466 E0.00777
G1 X115.256 Y101.266 E0.00777
G1 X115.144 Y101.045 E0.00777
G1 X115.071 Y100.808 E0.00777
G1 X115.040 Y100.562 E0.00777
G1 X115.050 Y100.314 E0.00777
G1 X115.103 Y100.072 E0.00777
G1 X115.195 Y99.842 E0.00777
G1 X115.325 Y99.631 E0.00777
G1 X115.489 Y99.445 E0.00777
G1 X115.682 Y99.289 E0.00777
G1 X115.898 Y99.168 E0.00777
G1 X116.132 Y99.086 E0.00777
G1 X116.376 Y99.044 E0.00777
G1 X116.624 Y99.044 E0.00777
G1 X116.868 Y99.086 E0.00777
G1 X117.102 Y99.168 E0.00777
G1 X117.318 Y99.289 E0.00777
G1 X117.511 Y99.445 E0.00777
G1 X117.675 Y99.631 E0.00777
G1 X117.805 Y99.842 E0.00777
G1 X117.897 Y100.072 E0.00777
G1 X117.950 Y100.314 E0.00777
G1 X117.956 Y100.474 E0.00502
G1 X118.193 Y100.679 F10800.000
G1 F8640.000
G1 X117.929 Y100.808 E-0.07732
G1 X117.856 Y101.045 E-0.05724
G1 X117.744 Y101.266 E-0.05724
G1 X117.597 Y101.466 E-0.05724
G1 X117.418 Y101.637 E-0.05724
G1 X117.213 Y101.776 E-0.05724
G1 X116.987 Y101.878 E-0.05724
G1 X116.747 Y101.940 E-0.05724
G1 X116.500 Y101.961 E-0.05724
G1 X116.253 Y101.940 E-0.05724
G1 X116.013 Y101.878 E-0.05724
G1 X115.787 Y101.776 E-0.05724
G1 X115.597 Y101.647 E-0.05307
G1 E-0.04000 F2100.00000
G1 Z0.600 F10800.000
G1 X116.660 Y112.667
G1 Z0.200
G1 E0.80000 F2100.00000
G1 F1200.000
G1 X116.964 Y112.719 E0.00965
G1 X117.258 Y112.823 E0.00978
G1 X117.530 Y112.976 E0.00978
G1 X117.773 Y113.172 E0.00978
G1 X117.979 Y113.406 E0.00979
G1 X118.143 Y113.672 E0.00978
G1 X118.259 Y113.961 E0.00978
G1 X118.325 Y114.266 E0.00979
G1 X118.338 Y114.578 E0.00978
G1 X118.299 Y114.888 E0.00978
G1 X118.207 Y115.186 E0.00978
G1 X118.067 Y115.465 E0.00978
G1 X117.881 Y115.716 E0.00978
G1 X117.656 Y115.932 E0.00978
G1 X117.397 Y116.106 E0.00978
G1 X117.113 Y116.235 E0.00978
G1 X116.811 Y116.313 E0.00978
G1 X116.500 Y116.340 E0.00978
G1 X116.189 Y116.313 E0.00978
G1 X115.887 Y116.235 E0.00978
G1 X115.603 Y116.106 E0.00978
G1 X115.344 Y115.932 E0.00978
G1 X115.119 Y115.716 E0.00978
G1 X114.933 Y115.465 E0.00978
G1 X114.793 Y115.186 E0.00979
G1 X114.701 Y114.888 E0.00978
G1 X114.662 Y114.578 E0.00978
G1 X114.675 Y114.266 E0.00978
G1 X114.741 Y113.961 E0.00978
G1 X114.857 Y113.672 E0.00978
G1 X115.021 Y113.406 E0.00978
G1 X115.227 Y113.172 E0.00978
G1 X115.470 Y112.976 E0.00978
G1 X115.742 Y112.823 E0.00978
G1 X116.036 Y112.719 E0.00979
G1 X116.340 Y112.667 E0.00965
G1 X116.600 Y112.667 E0.00817
G1 X116.600 Y113.045 F10800.000
G1 F1200.000
G1 X116.868 Y113.086 E0.00850
G1 X117.102 Y113.168 E0.00777
G1 X117.318 Y113.289 E0.00777
G1 X117.511 Y113.445 E0.00777
G1 X117.675 Y113.631 E0.00777
G1 X117.805 Y113.842 E0.00777
G1 X117.897 Y114.072 E0.00777
G1 X117.950 Y114.314 E0.00777
G1 X117.960 Y114.562 E0.00777
G1 X117.929 Y114.808 E0.00777
G1 X117.856 Y115.045 E0.00777
G1 X117.744 Y115.266 E0.00777
G1 X117.597 Y115.466 E0.00777
G1 X117.418 Y115.637 E0.00777
G1 X117.213 Y115.776 E0.00777
G1 X116.987 Y115.878 E0.00777
G1 X116.747 Y115.940 E0.00777
G1 X116.500 Y115.961 E0.00777
G1 X116.253 Y115.940 E0.00777
G1 X116.013 Y115.878 E0.00777
G1 X115.787 Y115.776 E0.00777
G1 X115.582 Y115.637 E0.00777
G1 X115.403 Y115.466 E0.00777
G1 X115.256 Y115.266 E0.00777
G1 X115.144 Y115.045 E0.00777
G1 X115.071 Y114.808 E0.00777
G1 X115.040 Y114.562 E0.00777
G1 X115.050 Y114.314 E0.00777
G1 X115.103 Y114.072 E0.00777
G1 X115.195 Y113.842 E0.00777
G1 X115.325 Y113.631 E0.00777
G1 X115.489 Y113.445 E0.00777
G1 X115.682 Y113.289 E0.00777
G1 X115.898 Y113.168 E0.00777
G1 X116.132 Y113.086 E0.00777
G1 X116.372 Y113.045 E0.00764
G1 X116.540 Y113.045 E0.00528
G1 X116.752 Y112.820 F10800.000
G1 F8640.000
G1 X116.868 Y113.086 E-0.07634
G1 X117.102 Y113.168 E-0.05724
G1 X117.318 Y113.289 E-0.05724
G1 X117.511 Y113.445 E-0.05724
G1 X117.675 Y113.631 E-0.05724
G1 X117.805 Y113.842 E-0.05724
G1 X117.897 Y114.072 E-0.05724
G1 X117.950 Y114.314 E-0.05724
G1 X117.960 Y114.562 E-0.05724
G1 X117.929 Y114.808 E-0.05724
G1 X117.856 Y115.045 E-0.05724
G1 X117.744 Y115.266 E-0.05724
G1 X117.605 Y115.454 E-0.05406
G1 E-0.04000 F2100.00000
G1 Z0.600 F10800.000
G1 X128.675 Y114.266
G1 Z0.200
G1 E0.80000 F2100.00000
G1 F1200.000
G1 X128.741 Y113.961 E0.00979
G1 X128.857 Y113.672 E0.00978
G1 X129.021 Y113.406 E0.00979
G1 X129.227 Y113.172 E0.00978
G1 X129.470 Y112.976 E0.00978
G1 X129.742 Y112.823 E0.00978
G1 X130.036 Y112.719 E0.00979
G1 X130.344 Y112.667 E0.00978
G1 X130.656 Y112.667 E0.00978
G1 X130.964 Y112.719 E0.00978
G1 X131.258 Y112.823 E0.00978
G1 X131.530 Y112.976 E0.00978
G1 X131.773 Y113.172 E0.00978
G1 X131.979 Y113.406 E0.00979
G1 X132.143 Y113.672 E0.00978
G1 X132.259 Y113.961 E0.00978
G1 X132.325 Y114.266 E0.00979
G1 X132.338 Y114.578 E0.00978
G1 X132.299 Y114.888 E0.00978
G1 X132.207 Y115.186 E0.00978
G1 X132.067 Y115.465 E0.00978
G1 X131.881 Y115.716 E0.00978
G1 X131.656 Y115.932 E0.00978
G1 X131.397 Y116.106 E0.00978
G1 X131.113 Y116.235 E0.00978
G1 X130.811 Y116.313 E0.00978
G1 X130.500 Y116.340 E0.00978
G1 X130.189 Y116.313 E0.00978
G1 X129.887 Y116.235 E0.00978
G1 X129.603 Y116.106 E0.00978
G1 X129.344 Y115.932 E0.00978
G1 X129.119 Y115.716 E0.00978
G1 X128.933 Y115.465 E0.00978
G1 X128.793 Y115.186 E0.00978
G1 X128.701 Y114.888 E0.00978
