; generated by PrusaSlicer 2.2.0+win64 on 2022-12-28 at 20:51:29 UTC

; 

; external perimeters extrusion width = 0.45mm
; perimeters extrusion width = 0.45mm
; infill extrusion width = 0.45mm
; solid infill extrusion width = 0.45mm
; top infill extrusion width = 0.40mm
; support material extrusion width = 0.35mm
; first layer extrusion width = 0.42mm

M73 P0 R87
M73 Q0 S88
M201 X1000 Y1000 Z200 E5000 ; sets maximum accelerations, mm/sec^2
M203 X200 Y200 Z12 E120 ; sets maximum feedrates, mm/sec
M204 P1250 R1250 T1250 ; sets acceleration (P, T) and retract acceleration (R), mm/sec^2
M205 X8.00 Y8.00 Z0.40 E4.50 ; sets the jerk limits, mm/sec
M205 S0 T0 ; sets the minimum extruding and travel feed rate, mm/sec
M107
M862.3 P "MK3S" ; printer model check
M862.1 P0.4 ; nozzle diameter check
M115 U3.11.0 ; tell printer latest fw version
G90 ; use absolute coordinates
M83 ; extruder relative mode
M104 S220 ; set extruder temp
M140 S80 ; set bed temp
M190 S80 ; wait for bed temp
M109 S220 ; wait for extruder temp
G28 W ; home all without mesh bed level
G80 ; mesh bed leveling
G1 Y-3.0 F1000.0 ; go outside print area
G92 E0.0
G1 X60.0 E9.0 F1000.0 ; intro line
M73 Q0 S88
M73 P0 R87
G1 X100.0 E12.5 F1000.0 ; intro line
G92 E0.0
M221 S95

; Don't change E values below. Excessive value can damage the printer.
M907 E430 ; set extruder motor current
G21 ; set units to millimeters
G90 ; use absolute coordinates
M83 ; use relative distances for extrusion
M900 K0.05 ; Filament gcode LA 1.5
M900 K30 ; Filament gcode LA 1.0
;BEFORE_LAYER_CHANGE
G92 E0.0
;0.2


G1 E-0.80000 F2100.00000
G1 Z0.400 F10800.000
;AFTER_LAYER_CHANGE
;0.2
G1 X148.842 Y82.095
G1 Z0.200
G1 E0.80000 F2100.00000
M204 S1000
G1 F1200.000
G1 X148.877 Y132.500 E1.58043
G1 X148.821 Y133.014 E0.01621
G1 X148.513 Y133.764 E0.02543
G1 X147.971 Y134.368 E0.02543
G1 X133.956 Y144.817 E0.54812
G1 X133.447 Y145.105 E0.01835
G1 X132.564 Y145.284 E0.02825
G1 X119.709 Y145.284 E0.40304
G1 X119.207 Y145.228 E0.01585
G1 X118.371 Y144.863 E0.02860
G1 X102.095 Y133.418 E0.62385
G1 X101.520 Y132.815 E0.02614
G1 X101.187 Y132.050 E0.02614
G1 X101.123 Y131.507 E0.01716
G1 X101.127 Y103.359 E0.88255
G1 X104.180 Y81.984 E0.67700
G1 X104.369 Y81.446 E0.01787
G1 X108.623 Y73.010 E0.29624
G1 X113.246 Y65.903 E0.26584
G1 X113.626 Y65.478 E0.01787
G1 X114.099 Y65.154 E0.01799
G1 X114.618 Y64.957 E0.01740
G1 X115.168 Y64.886 E0.01740
G1 X137.070 Y64.885 E0.68672
G1 X137.644 Y64.957 E0.01811
G1 X138.179 Y65.162 E0.01799
G1 X138.650 Y65.490 E0.01799
G1 X139.029 Y65.921 E0.01799
G1 X148.533 Y81.268 E0.56601
G1 X148.821 Y82.038 E0.02578
; printing object inside shoulder top.STL id:0 copy 0
G1 F8640.000
G1 X148.825 Y85.330 E-0.76000
G1 E-0.04000 F2100.00000
G1 Z0.600 F10800.000
G1 X137.067 Y82.256
G1 Z0.200
G1 E0.80000 F2100.00000
G1 F1200.000
G1 X137.067 Y67.263 E0.47011
G1 X136.312 Y67.263 E0.02365
G1 X136.312 Y82.086 E0.46479
G1 X135.558 Y82.086 E0.02365
G1 X135.558 Y67.263 E0.46479
G1 X134.804 Y67.263 E0.02365
G1 X134.804 Y82.086 E0.46479
G1 X134.050 Y82.086 E0.02365
G1 X134.050 Y67.263 E0.46479
G1 X133.296 Y67.263 E0.02365
G1 X133.296 Y82.086 E0.46479
G1 X132.542 Y82.086 E0.02365
G1 X132.542 Y67.263 E0.46479
G1 X131.787 Y67.263 E0.02365
G1 X131.787 Y82.086 E0.46479
G1 X131.033 Y82.086 E0.02365
G1 X131.033 Y67.263 E0.46479
G1 X130.279 Y67.263 E0.02365
G1 X130.279 Y82.086 E0.46479
G1 X129.525 Y82.086 E0.02365
G1 X129.525 Y67.263 E0.46479
G1 X128.771 Y67.263 E0.02365
G1 X128.771 Y82.086 E0.46479
G1 X128.017 Y82.086 E0.02365
G1 X128.017 Y67.263 E0.46479
G1 X127.262 Y67.263 E0.02365
G1 X127.262 Y82.086 E0.46479
G1 X126.665 Y82.086 E0.01872
G1 X126.665 Y77.839 E0.13318
G1 X126.508 Y77.839 E0.00492
G1 X126.508 Y67.263 E0.33161
G1 X125.754 Y67.263 E0.02365
G1 X125.754 Y77.839 E0.33161
G1 X125.652 Y77.839 E0.00319
G1 X125.652 Y82.086 E0.13318
G1 X125.000 Y82.086 E0.02046
G1 X125.000 Y67.263 E0.46479
G1 X124.246 Y67.263 E0.02365
G1 X124.246 Y82.086 E0.46479
G1 X123.492 Y82.086 E0.02365
G1 X123.492 Y67.263 E0.46479
G1 X122.738 Y67.263 E0.02365
G1 X122.738 Y82.086 E0.46479
G1 X121.983 Y82.086 E0.02365
G1 X121.983 Y67.263 E0.46479
G1 X121.229 Y67.263 E0.02365
G1 X121.229 Y82.086 E0.46479
G1 X120.475 Y82.086 E0.02365
G1 X120.475 Y67.263 E0.46479
G1 X119.721 Y67.263 E0.02365
G1 X119.721 Y82.086 E0.46479
G1 X118.967 Y82.086 E0.02365
G1 X118.967 Y67.263 E0.46479
G1 X118.213 Y67.263 E0.02365
G1 X118.213 Y82.086 E0.46479
G1 X117.458 Y82.086 E0.02365
G1 X117.458 Y67.263 E0.46479
G1 X116.704 Y67.263 E0.02365
G1 X116.704 Y82.086 E0.46479
G1 X115.950 Y82.086 E0.02365
G1 X115.950 Y67.263 E0.46479
G1 X115.196 Y67.263 E0.02365
G1 X115.196 Y82.086 E0.46479
G1 X114.442 Y82.086 E0.02365
G1 X114.442 Y74.216 E0.24677
G1 X113.688 Y74.216 E0.02365
G1 X113.688 Y82.086 E0.24677
G1 X112.933 Y82.086 E0.02365
G1 X112.933 Y74.216 E0.24677
G1 X112.179 Y74.216 E0.02365
G1 X112.179 Y82.086 E0.24677
G1 X111.425 Y82.086 E0.02365
G1 X111.425 Y74.216 E0.24677
G1 X110.671 Y74.216 E0.02365
G1 X110.671 Y82.256 E0.25209
G1 F8640.000
G1 X110.671 Y78.965 E-0.76000
G1 E-0.04000 F2100.00000
G1 Z0.600 F10800.000
G1 X119.721 Y142.907
G1 Z0.200
G1 E0.80000 F2100.00000
G1 F1200.000
G1 X119.721 Y132.914 E0.31334
G1 X120.475 Y132.914 E0.02365
G1 X120.475 Y142.737 E0.30802
G1 X121.229 Y142.737 E0.02365
G1 X121.229 Y132.914 E0.30802
G1 X121.983 Y132.914 E0.02365
G1 X121.983 Y142.737 E0.30802
G1 X122.738 Y142.737 E0.02365
G1 X122.738 Y132.914 E0.30802
G1 X123.492 Y132.914 E0.02365
G1 X123.492 Y142.737 E0.30802
G1 X124.246 Y142.737 E0.02365
G1 X124.246 Y132.914 E0.30802
G1 X125.000 Y132.914 E0.02365
G1 X125.000 Y142.737 E0.30802
G1 X125.754 Y142.737 E0.02365
G1 X125.754 Y132.914 E0.30802
G1 X126.508 Y132.914 E0.02365
G1 X126.508 Y142.737 E0.30802
G1 X127.262 Y142.737 E0.02365
G1 X127.262 Y132.914 E0.30802
G1 X128.017 Y132.914 E0.02365
G1 X128.017 Y142.737 E0.30802
G1 X128.771 Y142.737 E0.02365
G1 X128.771 Y132.914 E0.30802
G1 X129.525 Y132.914 E0.02365
G1 X129.525 Y142.737 E0.30802
G1 X130.279 Y142.737 E0.02365
G1 X130.279 Y132.914 E0.30802
G1 X131.033 Y132.914 E0.02365
G1 X131.033 Y142.737 E0.30802
G1 X131.787 Y142.737 E0.02365
G1 X131.787 Y132.914 E0.30802
G1 X132.542 Y132.914 E0.02365
G1 X132.542 Y142.907 E0.31334
G1 F8640.000
G1 X132.542 Y139.616 E-0.76000
G1 E-0.04000 F2100.00000
G1 Z0.600 F10800.000
G1 X107.287 Y130.713
G1 Z0.200
G1 E0.80000 F2100.00000
G1 F1200.000
G1 X104.287 Y130.713 E0.09406
G1 X104.287 Y104.287 E0.82856
G1 X107.287 Y104.287 E0.09406
G1 X107.287 Y83.287 E0.65844
G1 X145.713 Y83.287 E1.20482
G1 X145.713 Y131.713 E1.51836
M73 Q1 S87
G1 X107.287 Y131.713 E1.20482
M73 P1 R86
G1 X107.287 Y130.773 E0.02947
G1 X106.910 Y131.090 F10800.000
G1 F1200.000
G1 X103.910 Y131.090 E0.09406
G1 X103.910 Y103.910 E0.85221
G1 X106.910 Y103.910 E0.09406
G1 X106.910 Y82.910 E0.65844
G1 X146.090 Y82.910 E1.22846
G1 X146.090 Y132.090 E1.54200
G1 X106.910 Y132.090 E1.22846
G1 X106.910 Y131.150 E0.02947
G1 X106.713 Y130.742 F10800.000
G1 X107.312 Y130.600
G1 F1200.000
G1 X104.570 Y127.858 E0.12225
G1 X104.570 Y128.394 E0.01691
G1 X106.606 Y130.430 E0.09078
G1 X106.070 Y130.430 E0.01691
G1 X104.570 Y128.930 E0.06687
G1 X104.570 Y129.467 E0.01691
G1 X105.533 Y130.430 E0.04296
G1 X104.997 Y130.430 E0.01691
G1 X104.400 Y129.833 E0.02662
G1 F8640.000
G1 X104.997 Y130.430 E-0.19495
G1 X105.533 Y130.430 E-0.12381
G1 X104.570 Y129.467 E-0.31464
G1 X104.570 Y128.930 E-0.12381
G1 X104.578 Y128.939 E-0.00278
G1 E-0.04000 F2100.00000
G1 Z0.600 F10800.000
G1 X107.776 Y131.600
G1 Z0.200
G1 E0.80000 F2100.00000
G1 F1200.000
G1 X107.570 Y131.394 E0.00917
G1 X107.570 Y130.858 E0.01691
G1 X108.142 Y131.430 E0.02551
G1 X108.678 Y131.430 E0.01691
G1 X104.570 Y127.322 E0.18318
G1 X104.570 Y126.786 E0.01691
G1 X109.214 Y131.430 E0.20708
G1 X109.751 Y131.430 E0.01691
G1 X104.570 Y126.249 E0.23099
G1 X104.570 Y125.713 E0.01691
G1 X110.287 Y131.430 E0.25490
G1 X110.823 Y131.430 E0.01691
G1 X104.570 Y125.177 E0.27881
G1 X104.570 Y124.641 E0.01691
G1 X111.359 Y131.430 E0.30271
G1 X111.896 Y131.430 E0.01691
G1 X104.570 Y124.104 E0.32662
G1 X104.570 Y123.568 E0.01691
G1 X112.432 Y131.430 E0.35053
G1 X112.968 Y131.430 E0.01691
G1 X104.570 Y123.032 E0.37444
G1 X104.570 Y122.496 E0.01691
G1 X113.504 Y131.430 E0.39834
G1 X114.040 Y131.430 E0.01691
G1 X104.570 Y121.960 E0.42225
G1 X104.570 Y121.423 E0.01691
G1 X114.577 Y131.430 E0.44616
G1 X115.113 Y131.430 E0.01691
G1 X104.570 Y120.887 E0.47006
G1 X104.570 Y120.351 E0.01691
G1 X115.649 Y131.430 E0.49397
G1 X116.185 Y131.430 E0.01691
G1 X104.570 Y119.815 E0.51788
G1 X104.570 Y119.279 E0.01691
G1 X116.721 Y131.430 E0.54179
G1 X117.258 Y131.430 E0.01691
G1 X104.570 Y118.742 E0.56569
G1 X104.570 Y118.206 E0.01691
G1 X117.794 Y131.430 E0.58960
G1 X118.330 Y131.430 E0.01691
G1 X104.570 Y117.670 E0.61351
G1 X104.570 Y117.134 E0.01691
G1 X118.866 Y131.430 E0.63742
G1 X119.402 Y131.430 E0.01691
G1 X104.570 Y116.598 E0.66132
G1 X104.570 Y116.061 E0.01691
G1 X119.939 Y131.430 E0.68523
G1 X120.475 Y131.430 E0.01691
G1 X104.570 Y115.525 E0.70914
G1 X104.570 Y114.989 E0.01691
G1 X121.011 Y131.430 E0.73305
G1 X121.547 Y131.430 E0.01691
G1 X104.570 Y114.453 E0.75695
G1 X104.570 Y113.917 E0.01691
G1 X122.083 Y131.430 E0.78086
G1 X122.620 Y131.430 E0.01691
G1 X104.570 Y113.380 E0.80477
G1 X104.570 Y112.844 E0.01691
G1 X123.156 Y131.430 E0.82868
G1 X123.692 Y131.430 E0.01691
G1 X104.570 Y112.308 E0.85258
G1 X104.570 Y111.772 E0.01691
G1 X124.228 Y131.430 E0.87649
G1 X124.765 Y131.430 E0.01691
G1 X104.570 Y111.235 E0.90040
G1 X104.570 Y110.699 E0.01691
G1 X125.301 Y131.430 E0.92431
G1 X125.837 Y131.430 E0.01691
G1 X104.570 Y110.163 E0.94821
G1 X104.570 Y109.627 E0.01691
G1 X126.373 Y131.430 E0.97212
G1 X126.909 Y131.430 E0.01691
G1 X104.570 Y109.091 E0.99603
G1 X104.570 Y108.554 E0.01691
G1 X127.446 Y131.430 E1.01993
G1 X127.982 Y131.430 E0.01691
G1 X104.570 Y108.018 E1.04384
G1 X104.570 Y107.482 E0.01691
G1 X128.518 Y131.430 E1.06775
G1 X129.054 Y131.430 E0.01691
G1 X104.570 Y106.946 E1.09166
G1 X104.570 Y106.410 E0.01691
G1 X129.590 Y131.430 E1.11556
G1 X130.127 Y131.430 E0.01691
G1 X104.570 Y105.873 E1.13947
G1 X104.570 Y105.337 E0.01691
G1 X130.663 Y131.430 E1.16338
G1 X131.199 Y131.430 E0.01691
G1 X104.570 Y104.801 E1.18729
M73 Q2 S86
G1 X104.570 Y104.570 E0.00729
G1 X104.875 Y104.570 E0.00962
G1 X131.735 Y131.430 E1.19759
M73 P2 R85
G1 X132.271 Y131.430 E0.01691
G1 X105.411 Y104.570 E1.19759
G1 X105.947 Y104.570 E0.01691
G1 X132.808 Y131.430 E1.19759
G1 X133.344 Y131.430 E0.01691
G1 X106.484 Y104.570 E1.19759
G1 X107.020 Y104.570 E0.01691
G1 X133.880 Y131.430 E1.19759
G1 X134.416 Y131.430 E0.01691
G1 X107.556 Y104.570 E1.19759
G1 X107.570 Y104.570 E0.00044
G1 X107.570 Y104.048 E0.01647
G1 X134.952 Y131.430 E1.22088
G1 X135.489 Y131.430 E0.01691
G1 X107.570 Y103.511 E1.24479
G1 X107.570 Y102.975 E0.01691
G1 X136.025 Y131.430 E1.26869
G1 X136.561 Y131.430 E0.01691
G1 X107.570 Y102.439 E1.29260
G1 X107.570 Y101.903 E0.01691
G1 X137.097 Y131.430 E1.31651
G1 X137.634 Y131.430 E0.01691
G1 X107.570 Y101.366 E1.34042
G1 X107.570 Y100.830 E0.01691
G1 X138.170 Y131.430 E1.36432
G1 X138.706 Y131.430 E0.01691
G1 X107.570 Y100.294 E1.38823
G1 X107.570 Y99.758 E0.01691
G1 X139.242 Y131.430 E1.41214
G1 X139.778 Y131.430 E0.01691
G1 X107.570 Y99.222 E1.43605
G1 X107.570 Y98.685 E0.01691
G1 X140.315 Y131.430 E1.45995
G1 X140.851 Y131.430 E0.01691
G1 X107.570 Y98.149 E1.48386
G1 X107.570 Y97.613 E0.01691
G1 X141.387 Y131.430 E1.50777
G1 X141.923 Y131.430 E0.01691
G1 X107.570 Y97.077 E1.53168
G1 X107.570 Y96.541 E0.01691
G1 X142.459 Y131.430 E1.55558
G1 X142.996 Y131.430 E0.01691
G1 X107.570 Y96.004 E1.57949
G1 X107.570 Y95.468 E0.01691
G1 X143.532 Y131.430 E1.60340
G1 X144.068 Y131.430 E0.01691
G1 X107.570 Y94.932 E1.62731
G1 X107.570 Y94.396 E0.01691
G1 X144.604 Y131.430 E1.65121
G1 X145.140 Y131.430 E0.01691
G1 X107.570 Y93.860 E1.67512
G1 X107.570 Y93.323 E0.01691
G1 X145.430 Y131.184 E1.68804
M73 Q3 S84
G1 X145.430 Y130.647 E0.01691
G1 X107.570 Y92.787 E1.68804
M73 P3 R84
G1 X107.570 Y92.251 E0.01691
G1 X145.430 Y130.111 E1.68804
G1 X145.430 Y129.575 E0.01691
G1 X107.570 Y91.715 E1.68804
G1 X107.570 Y91.178 E0.01691
G1 X145.430 Y129.039 E1.68804
G1 X145.430 Y128.503 E0.01691
G1 X107.570 Y90.642 E1.68804
G1 X107.570 Y90.106 E0.01691
G1 X145.430 Y127.966 E1.68804
G1 X145.430 Y127.430 E0.01691
G1 X107.570 Y89.570 E1.68804
G1 X107.570 Y89.034 E0.01691
G1 X145.430 Y126.894 E1.68804
G1 X145.430 Y126.358 E0.01691
G1 X107.570 Y88.497 E1.68804
G1 X107.570 Y87.961 E0.01691
G1 X145.430 Y125.821 E1.68804
G1 X145.430 Y125.285 E0.01691
G1 X107.570 Y87.425 E1.68804
G1 X107.570 Y86.889 E0.01691
G1 X145.430 Y124.749 E1.68804
G1 X145.430 Y124.213 E0.01691
G1 X107.570 Y86.353 E1.68804
G1 X107.570 Y85.816 E0.01691
G1 X145.430 Y123.677 E1.68804
G1 X145.430 Y123.140 E0.01691
G1 X107.570 Y85.280 E1.68804
G1 X107.570 Y84.744 E0.01691
G1 X145.430 Y122.604 E1.68804
G1 X145.430 Y122.068 E0.01691
G1 X107.570 Y84.208 E1.68804
G1 X107.570 Y83.672 E0.01691
G1 X145.430 Y121.532 E1.68804
G1 X145.430 Y120.996 E0.01691
G1 X108.004 Y83.570 E1.66866
G1 X108.541 Y83.570 E0.01691
G1 X145.430 Y120.459 E1.64475
G1 X145.430 Y119.923 E0.01691
G1 X109.077 Y83.570 E1.62085
G1 X109.613 Y83.570 E0.01691
G1 X145.430 Y119.387 E1.59694
G1 X145.430 Y118.851 E0.01691
G1 X110.149 Y83.570 E1.57303
M73 Q4 S83
G1 X110.685 Y83.570 E0.01691
G1 X145.430 Y118.315 E1.54912
M73 P4 R82
G1 X145.430 Y117.778 E0.01691
G1 X111.222 Y83.570 E1.52522
G1 X111.758 Y83.570 E0.01691
G1 X145.430 Y117.242 E1.50131
G1 X145.430 Y116.706 E0.01691
G1 X112.294 Y83.570 E1.47740
G1 X112.830 Y83.570 E0.01691
G1 X145.430 Y116.170 E1.45350
G1 X145.430 Y115.634 E0.01691
G1 X113.366 Y83.570 E1.42959
G1 X113.903 Y83.570 E0.01691
G1 X145.430 Y115.097 E1.40568
G1 X145.430 Y114.561 E0.01691
G1 X114.439 Y83.570 E1.38177
G1 X114.975 Y83.570 E0.01691
G1 X145.430 Y114.025 E1.35787
G1 X145.430 Y113.489 E0.01691
G1 X115.511 Y83.570 E1.33396
G1 X116.048 Y83.570 E0.01691
G1 X145.430 Y112.952 E1.31005
G1 X145.430 Y112.416 E0.01691
G1 X116.584 Y83.570 E1.28614
G1 X117.120 Y83.570 E0.01691
G1 X145.430 Y111.880 E1.26224
G1 X145.430 Y111.344 E0.01691
G1 X117.656 Y83.570 E1.23833
G1 X118.192 Y83.570 E0.01691
G1 X145.430 Y110.808 E1.21442
G1 X145.430 Y110.271 E0.01691
G1 X118.729 Y83.570 E1.19051
G1 X119.265 Y83.570 E0.01691
G1 X145.430 Y109.735 E1.16661
G1 X145.430 Y109.199 E0.01691
G1 X119.801 Y83.570 E1.14270
G1 X120.337 Y83.570 E0.01691
G1 X145.430 Y108.663 E1.11879
G1 X145.430 Y108.127 E0.01691
G1 X120.873 Y83.570 E1.09488
G1 X121.410 Y83.570 E0.01691
G1 X145.430 Y107.590 E1.07098
G1 X145.430 Y107.054 E0.01691
G1 X121.946 Y83.570 E1.04707
G1 X122.482 Y83.570 E0.01691
G1 X145.430 Y106.518 E1.02316
G1 X145.430 Y105.982 E0.01691
G1 X123.018 Y83.570 E0.99925
G1 X123.554 Y83.570 E0.01691
G1 X145.430 Y105.446 E0.97535
G1 X145.430 Y104.909 E0.01691
G1 X124.091 Y83.570 E0.95144
G1 X124.627 Y83.570 E0.01691
G1 X145.430 Y104.373 E0.92753
G1 X145.430 Y103.837 E0.01691
G1 X125.163 Y83.570 E0.90363
G1 X125.699 Y83.570 E0.01691
G1 X145.430 Y103.301 E0.87972
G1 X145.430 Y102.764 E0.01691
G1 X126.236 Y83.570 E0.85581
G1 X126.772 Y83.570 E0.01691
G1 X145.430 Y102.228 E0.83190
G1 X145.430 Y101.692 E0.01691
G1 X127.308 Y83.570 E0.80800
M73 Q5 S82
G1 X127.844 Y83.570 E0.01691
G1 X145.430 Y101.156 E0.78409
G1 X145.430 Y100.620 E0.01691
G1 X128.380 Y83.570 E0.76018
M73 P5 R81
G1 X128.917 Y83.570 E0.01691
G1 X145.430 Y100.083 E0.73627
G1 X145.430 Y99.547 E0.01691
G1 X129.453 Y83.570 E0.71237
G1 X129.989 Y83.570 E0.01691
G1 X145.430 Y99.011 E0.68846
G1 X145.430 Y98.475 E0.01691
G1 X130.525 Y83.570 E0.66455
G1 X131.061 Y83.570 E0.01691
G1 X145.430 Y97.939 E0.64064
G1 X145.430 Y97.402 E0.01691
G1 X131.598 Y83.570 E0.61674
G1 X132.134 Y83.570 E0.01691
G1 X145.430 Y96.866 E0.59283
G1 X145.430 Y96.330 E0.01691
G1 X132.670 Y83.570 E0.56892
G1 X133.206 Y83.570 E0.01691
G1 X145.430 Y95.794 E0.54501
G1 X145.430 Y95.258 E0.01691
G1 X133.742 Y83.570 E0.52111
G1 X134.279 Y83.570 E0.01691
G1 X145.430 Y94.721 E0.49720
G1 X145.430 Y94.185 E0.01691
G1 X134.815 Y83.570 E0.47329
