; generated by PrusaSlicer 2.2.0+win64 on 2023-01-07 at 17:51:53 UTC

; 

; external perimeters extrusion width = 0.45mm
; perimeters extrusion width = 0.45mm
; infill extrusion width = 0.45mm
; solid infill extrusion width = 0.45mm
; top infill extrusion width = 0.40mm
; support material extrusion width = 0.35mm
; first layer extrusion width = 0.42mm

M73 P0 R163
M73 Q0 S165
M201 X1000 Y1000 Z200 E5000 ; sets maximum accelerations, mm/sec^2
M203 X200 Y200 Z12 E120 ; sets maximum feedrates, mm/sec
M204 P1250 R1250 T1250 ; sets acceleration (P, T) and retract acceleration (R), mm/sec^2
M205 X8.00 Y8.00 Z0.40 E4.50 ; sets the jerk limits, mm/sec
M205 S0 T0 ; sets the minimum extruding and travel feed rate, mm/sec
M107
M862.3 P "MK3S" ; printer model check
M862.1 P0.4 ; nozzle diameter check
M115 U3.11.0 ; tell printer latest fw version
G90 ; use absolute coordinates
M83 ; extruder relative mode
M104 S220 ; set extruder temp
M140 S80 ; set bed temp
M190 S80 ; wait for bed temp
M109 S220 ; wait for extruder temp
G28 W ; home all without mesh bed level
G80 ; mesh bed leveling
G1 Y-3.0 F1000.0 ; go outside print area
G92 E0.0
G1 X60.0 E9.0 F1000.0 ; intro line
M73 Q0 S165
M73 P0 R162
G1 X100.0 E12.5 F1000.0 ; intro line
G92 E0.0
M221 S95

; Don't change E values below. Excessive value can damage the printer.
M907 E430 ; set extruder motor current
G21 ; set units to millimeters
G90 ; use absolute coordinates
M83 ; use relative distances for extrusion
M900 K0.05 ; Filament gcode LA 1.5
M900 K30 ; Filament gcode LA 1.0
;BEFORE_LAYER_CHANGE
G92 E0.0
;0.2


G1 E-0.80000 F2100.00000
G1 Z0.400 F10800.000
;AFTER_LAYER_CHANGE
;0.2
G1 X39.113 Y66.134
G1 Z0.200
G1 E0.80000 F2100.00000
M204 S1000
G1 F1200.000
G1 X39.544 Y65.478 E0.02461
G1 X46.412 Y58.612 E0.30450
G1 X46.933 Y58.225 E0.02036
G1 X47.484 Y58.007 E0.01858
G1 X48.072 Y57.932 E0.01858
G1 X204.191 Y57.932 E4.89498
G1 X204.870 Y58.032 E0.02154
G1 X205.490 Y58.321 E0.02142
G1 X206.001 Y58.774 E0.02142
G1 X206.365 Y59.357 E0.02154
G1 X206.529 Y59.906 E0.01799
G1 X207.376 Y65.217 E0.16861
G1 X207.377 Y118.488 E1.67028
G1 X206.419 Y122.863 E0.14043
G1 X206.079 Y123.486 E0.02225
G1 X205.570 Y123.980 E0.02225
G1 X171.144 Y148.084 E1.31766
G1 X170.608 Y148.298 E0.01811
G1 X170.036 Y148.377 E0.01811
G1 X47.329 Y149.920 E3.84770
G1 X40.884 Y149.716 E0.20215
G1 X40.373 Y149.567 E0.01668
G1 X39.908 Y149.309 E0.01668
G1 X39.512 Y148.953 E0.01668
G1 X39.205 Y148.518 E0.01668
G1 X38.987 Y147.967 E0.01858
G1 X38.911 Y147.380 E0.01858
G1 X38.920 Y66.891 E2.52366
G1 X39.098 Y66.193 E0.02261
; printing object body middle back left.STL id:0 copy 0
G1 F8640.000
G1 X39.544 Y65.478 E-0.19438
G1 X41.276 Y63.746 E-0.56562
G1 E-0.04000 F2100.00000
G1 Z0.600 F10800.000
G1 X41.288 Y67.093
G1 Z0.200
G1 E0.80000 F2100.00000
G1 F1200.000
G1 X41.288 Y75.521 E0.26426
G1 X42.043 Y75.521 E0.02365
G1 X42.043 Y67.263 E0.25894
G1 X42.797 Y67.263 E0.02365
G1 X42.797 Y75.521 E0.25894
G1 X43.551 Y75.521 E0.02365
G1 X43.551 Y67.263 E0.25894
G1 X44.305 Y67.263 E0.02365
G1 X44.305 Y75.691 E0.26426
G1 F8640.000
G1 X44.305 Y72.399 E-0.76000
G1 E-0.04000 F2100.00000
G1 Z0.600 F10800.000
G1 X48.076 Y63.756
G1 Z0.200
G1 E0.80000 F2100.00000
G1 F1200.000
G1 X48.076 Y60.309 E0.10808
G1 X48.830 Y60.309 E0.02365
G1 X48.830 Y63.586 E0.10276
G1 X49.584 Y63.586 E0.02365
G1 X49.584 Y60.309 E0.10276
G1 X50.338 Y60.309 E0.02365
G1 X50.338 Y63.586 E0.10276
G1 X51.092 Y63.586 E0.02365
G1 X51.092 Y60.309 E0.10276
G1 X51.847 Y60.309 E0.02365
G1 X51.847 Y63.586 E0.10276
G1 X52.601 Y63.586 E0.02365
G1 X52.601 Y60.309 E0.10276
G1 X53.355 Y60.309 E0.02365
G1 X53.355 Y63.586 E0.10276
G1 X54.109 Y63.586 E0.02365
G1 X54.109 Y60.309 E0.10276
G1 X54.863 Y60.309 E0.02365
G1 X54.863 Y63.586 E0.10276
G1 X55.617 Y63.586 E0.02365
G1 X55.617 Y60.309 E0.10276
G1 X56.372 Y60.309 E0.02365
G1 X56.372 Y63.586 E0.10276
G1 X57.126 Y63.586 E0.02365
G1 X57.126 Y60.309 E0.10276
G1 X57.880 Y60.309 E0.02365
G1 X57.880 Y63.756 E0.10808
G1 F8640.000
G1 X57.880 Y60.465 E-0.76000
G1 E-0.04000 F2100.00000
G1 Z0.600 F10800.000
G1 X41.288 Y136.627
G1 Z0.200
G1 E0.80000 F2100.00000
G1 F1200.000
G1 X41.288 Y147.373 E0.33693
G1 X42.043 Y147.373 E0.02365
G1 X42.043 Y136.797 E0.33161
G1 X42.797 Y136.797 E0.02365
G1 X42.797 Y147.373 E0.33161
G1 X43.551 Y147.373 E0.02365
G1 X43.551 Y136.797 E0.33161
G1 X44.305 Y136.797 E0.02365
G1 X44.305 Y147.373 E0.33161
G1 X45.059 Y147.373 E0.02365
G1 X45.059 Y146.414 E0.03008
G1 X45.813 Y146.414 E0.02365
G1 X45.813 Y147.373 E0.03008
G1 X46.567 Y147.373 E0.02365
G1 X46.567 Y146.414 E0.03008
G1 X47.322 Y146.414 E0.02365
G1 X47.322 Y147.543 E0.03540
G1 F8640.000
G1 X47.322 Y146.414 E-0.26073
G1 X46.567 Y146.414 E-0.17414
G1 X46.567 Y147.373 E-0.22155
G1 X46.119 Y147.373 E-0.10358
G1 E-0.04000 F2100.00000
G1 Z0.600 F10800.000
G1 X194.383 Y122.047
G1 Z0.200
G1 E0.80000 F2100.00000
G1 F1200.000
G1 X194.383 Y121.463 E0.01829
G1 X195.137 Y121.404 E0.02372
G1 X195.137 Y121.877 E0.01483
G1 X195.891 Y121.877 E0.02365
G1 X195.891 Y118.864 E0.09449
G1 X196.645 Y118.864 E0.02365
G1 X196.645 Y121.877 E0.09449
G1 X197.399 Y121.877 E0.02365
G1 X197.399 Y118.864 E0.09449
G1 X198.153 Y118.864 E0.02365
G1 X198.153 Y121.877 E0.09449
G1 X198.908 Y121.877 E0.02365
G1 X198.908 Y118.864 E0.09449
G1 X199.662 Y118.864 E0.02365
G1 X199.662 Y121.877 E0.09449
G1 X200.416 Y121.877 E0.02365
G1 X200.416 Y118.864 E0.09449
G1 X201.170 Y118.864 E0.02365
G1 X201.170 Y121.877 E0.09449
G1 X201.924 Y121.877 E0.02365
G1 X201.924 Y118.864 E0.09449
G1 X202.678 Y118.864 E0.02365
G1 X202.678 Y121.877 E0.09449
G1 X203.433 Y121.877 E0.02365
G1 X203.433 Y118.864 E0.09449
G1 X204.187 Y118.864 E0.02365
G1 X204.187 Y122.047 E0.09981
G1 F8640.000
G1 X204.187 Y118.864 E-0.73503
G1 X204.079 Y118.864 E-0.02497
G1 E-0.04000 F2100.00000
G1 Z0.600 F10800.000
G1 X204.187 Y115.806
G1 Z0.200
G1 E0.80000 F2100.00000
G1 F1200.000
G1 X204.187 Y111.301 E0.14126
G1 X203.433 Y111.301 E0.02365
G1 X203.433 Y115.636 E0.13594
G1 X202.678 Y115.636 E0.02365
G1 X202.678 Y111.301 E0.13594
G1 X201.924 Y111.301 E0.02365
G1 X201.924 Y115.636 E0.13594
G1 X201.170 Y115.636 E0.02365
G1 X201.170 Y111.301 E0.13594
G1 X200.416 Y111.301 E0.02365
G1 X200.416 Y115.636 E0.13594
G1 X199.662 Y115.636 E0.02365
G1 X199.662 Y111.301 E0.13594
G1 X198.908 Y111.301 E0.02365
G1 X198.908 Y115.636 E0.13594
G1 X198.153 Y115.636 E0.02365
G1 X198.153 Y111.301 E0.13594
G1 X197.399 Y111.301 E0.02365
G1 X197.399 Y115.636 E0.13594
G1 X196.645 Y115.636 E0.02365
G1 X196.645 Y111.301 E0.13594
G1 X195.891 Y111.301 E0.02365
G1 X195.891 Y115.806 E0.14126
G1 F8640.000
G1 X195.891 Y112.515 E-0.76000
G1 E-0.04000 F2100.00000
G1 Z0.600 F10800.000
G1 X195.891 Y71.055
G1 Z0.200
G1 E0.80000 F2100.00000
G1 F1200.000
G1 X195.891 Y68.164 E0.09066
G1 X196.645 Y68.164 E0.02365
G1 X196.645 Y70.885 E0.08534
G1 X197.399 Y70.885 E0.02365
G1 X197.399 Y68.164 E0.08534
G1 X198.153 Y68.164 E0.02365
G1 X198.153 Y70.885 E0.08534
G1 X198.908 Y70.885 E0.02365
G1 X198.908 Y68.164 E0.08534
G1 X199.662 Y68.164 E0.02365
G1 X199.662 Y70.885 E0.08534
G1 X200.416 Y70.885 E0.02365
G1 X200.416 Y68.164 E0.08534
G1 X201.170 Y68.164 E0.02365
G1 X201.170 Y70.885 E0.08534
G1 X201.924 Y70.885 E0.02365
G1 X201.924 Y68.164 E0.08534
G1 X202.678 Y68.164 E0.02365
G1 X202.678 Y70.885 E0.08534
G1 X203.433 Y70.885 E0.02365
G1 X203.433 Y68.164 E0.08534
G1 X204.187 Y68.164 E0.02365
G1 X204.187 Y71.055 E0.09066
G1 F8640.000
G1 X204.187 Y68.164 E-0.66765
G1 X203.787 Y68.164 E-0.09235
G1 E-0.04000 F2100.00000
G1 Z0.600 F10800.000
G1 X204.187 Y65.056
G1 Z0.200
G1 E0.80000 F2100.00000
G1 F1200.000
G1 X204.187 Y60.309 E0.14884
G1 X203.433 Y60.309 E0.02365
G1 X203.433 Y64.886 E0.14352
G1 X202.678 Y64.886 E0.02365
G1 X202.678 Y60.309 E0.14352
G1 X201.924 Y60.309 E0.02365
G1 X201.924 Y64.886 E0.14352
G1 X201.170 Y64.886 E0.02365
G1 X201.170 Y60.309 E0.14352
G1 X200.416 Y60.309 E0.02365
G1 X200.416 Y64.886 E0.14352
G1 X199.662 Y64.886 E0.02365
G1 X199.662 Y60.309 E0.14352
G1 X198.908 Y60.309 E0.02365
G1 X198.908 Y64.886 E0.14352
G1 X198.153 Y64.886 E0.02365
G1 X198.153 Y60.309 E0.14352
G1 X197.399 Y60.309 E0.02365
G1 X197.399 Y64.886 E0.14352
G1 X196.645 Y64.886 E0.02365
G1 X196.645 Y60.309 E0.14352
G1 X195.891 Y60.309 E0.02365
G1 X195.891 Y64.886 E0.14352
G1 X195.414 Y64.886 E0.01497
G1 X195.414 Y63.829 E0.03317
G1 X195.171 Y63.586 E0.01074
G1 X195.137 Y63.586 E0.00108
G1 X195.137 Y60.309 E0.10276
G1 X194.383 Y60.309 E0.02365
G1 X194.383 Y63.756 E0.10808
G1 F8640.000
G1 X194.383 Y60.465 E-0.76000
G1 E-0.04000 F2100.00000
G1 Z0.600 F10800.000
G1 X194.213 Y64.787
G1 Z0.200
G1 E0.80000 F2100.00000
G1 F1200.000
G1 X194.213 Y66.087 E0.04076
G1 X204.213 Y66.087 E0.31354
G1 X204.213 Y66.963 E0.02746
G1 X194.213 Y66.963 E0.31354
G1 X194.213 Y116.837 E1.56377
G1 X204.213 Y116.837 E0.31354
G1 X204.213 Y117.663 E0.02589
G1 X194.213 Y117.663 E0.31354
G1 X194.213 Y120.272 E0.08182
G1 X190.966 Y120.528 E0.10213
G1 X187.031 Y121.473 E0.12689
G1 X183.292 Y123.021 E0.12689
M73 Q0 S164
G1 X179.841 Y125.136 E0.12689
G1 X176.764 Y127.764 E0.12689
G1 X174.136 Y130.841 E0.12689
G1 X172.021 Y134.292 E0.12689
G1 X170.473 Y138.031 E0.12689
G1 X169.528 Y141.966 E0.12689
M73 P0 R161
G1 X169.272 Y145.213 E0.10213
G1 X45.787 Y145.213 E3.87180
G1 X45.787 Y64.787 E2.52170
G1 X194.153 Y64.787 E4.65191
G1 F8640.000
G1 X194.213 Y66.087 E-0.30049
G1 X196.203 Y66.087 E-0.45951
G1 E-0.04000 F2100.00000
G1 Z0.600 F10800.000
G1 X194.590 Y65.710
G1 Z0.200
G1 E0.80000 F2100.00000
G1 F1200.000
G1 X204.590 Y65.710 E0.31354
G1 X204.590 Y67.340 E0.05111
G1 X194.590 Y67.340 E0.31354
G1 X194.590 Y116.460 E1.54012
G1 X204.590 Y116.460 E0.31354
G1 X204.590 Y118.040 E0.04954
G1 X194.590 Y118.040 E0.31354
G1 X194.590 Y120.621 E0.08093
G1 X191.025 Y120.902 E0.11213
G1 X187.147 Y121.832 E0.12502
G1 X183.464 Y123.358 E0.12503
G1 X180.064 Y125.442 E0.12503
G1 X177.032 Y128.032 E0.12502
G1 X174.442 Y131.064 E0.12503
G1 X172.358 Y134.464 E0.12502
G1 X170.832 Y138.147 E0.12503
G1 X169.902 Y142.025 E0.12503
G1 X169.621 Y145.590 E0.11213
G1 X45.410 Y145.590 E3.89455
G1 X45.410 Y64.410 E2.54534
G1 X194.590 Y64.410 E4.67743
G1 X194.590 Y65.650 E0.03888
G1 X194.789 Y66.057 F10800.000
G1 F8640.000
G1 X197.881 Y65.670 E-0.76000
G1 E-0.04000 F2100.00000
G1 Z0.600 F10800.000
G1 X193.489 Y64.900
G1 Z0.200
G1 E0.80000 F2100.00000
G1 F1200.000
G1 X193.930 Y65.341 E0.01958
G1 X193.930 Y65.875 E0.01678
G1 X193.125 Y65.070 E0.03577
G1 X192.591 Y65.070 E0.01678
G1 X194.201 Y66.680 E0.07152
G1 X194.735 Y66.680 E0.01678
G1 X194.425 Y66.370 E0.01378
G1 X194.959 Y66.370 E0.01678
G1 X195.269 Y66.680 E0.01378
G1 X195.803 Y66.680 E0.01678
G1 X195.493 Y66.370 E0.01378
G1 X196.027 Y66.370 E0.01678
G1 X196.338 Y66.680 E0.01378
G1 X196.872 Y66.680 E0.01678
G1 X196.562 Y66.370 E0.01378
G1 X197.096 Y66.370 E0.01678
G1 X197.406 Y66.680 E0.01378
G1 X197.940 Y66.680 E0.01678
G1 X197.630 Y66.370 E0.01378
G1 X198.164 Y66.370 E0.01678
G1 X198.474 Y66.680 E0.01378
G1 X199.009 Y66.680 E0.01678
G1 X198.698 Y66.370 E0.01378
G1 X199.232 Y66.370 E0.01678
G1 X199.543 Y66.680 E0.01378
G1 X200.077 Y66.680 E0.01678
G1 X199.767 Y66.370 E0.01378
G1 X200.301 Y66.370 E0.01678
G1 X200.611 Y66.680 E0.01378
G1 X201.145 Y66.680 E0.01678
G1 X200.835 Y66.370 E0.01378
G1 X201.369 Y66.370 E0.01678
G1 X201.679 Y66.680 E0.01378
G1 X202.214 Y66.680 E0.01678
G1 X201.903 Y66.370 E0.01378
G1 X202.438 Y66.370 E0.01678
G1 X202.748 Y66.680 E0.01378
G1 X203.282 Y66.680 E0.01678
G1 X202.972 Y66.370 E0.01378
G1 X203.506 Y66.370 E0.01678
G1 X203.986 Y66.850 E0.02132
G1 F8640.000
G1 X203.506 Y66.370 E-0.15672
G1 X202.972 Y66.370 E-0.12334
G1 X203.282 Y66.680 E-0.10131
G1 X202.748 Y66.680 E-0.12334
G1 X202.438 Y66.370 E-0.10131
G1 X201.903 Y66.370 E-0.12334
G1 X201.997 Y66.464 E-0.03063
G1 E-0.04000 F2100.00000
G1 Z0.600 F10800.000
G1 X194.100 Y67.113
G1 Z0.200
G1 E0.80000 F2100.00000
G1 F1200.000
G1 X192.057 Y65.070 E0.09076
G1 X191.522 Y65.070 E0.01678
G1 X193.930 Y67.478 E0.10695
G1 X193.930 Y68.012 E0.01678
G1 X190.988 Y65.070 E0.13067
G1 X190.454 Y65.070 E0.01678
G1 X193.930 Y68.546 E0.15440
G1 X193.930 Y69.080 E0.01678
G1 X189.920 Y65.070 E0.17813
G1 X189.386 Y65.070 E0.01678
G1 X193.930 Y69.614 E0.20185
G1 X193.930 Y70.149 E0.01678
G1 X188.851 Y65.070 E0.22558
G1 X188.317 Y65.070 E0.01678
G1 X193.930 Y70.683 E0.24931
G1 X193.930 Y71.217 E0.01678
G1 X187.783 Y65.070 E0.27303
G1 X187.249 Y65.070 E0.01678
G1 X193.930 Y71.751 E0.29676
G1 X193.930 Y72.285 E0.01678
G1 X186.715 Y65.070 E0.32049
G1 X186.181 Y65.070 E0.01678
G1 X193.930 Y72.819 E0.34421
G1 X193.930 Y73.354 E0.01678
G1 X185.646 Y65.070 E0.36794
G1 X185.112 Y65.070 E0.01678
G1 X193.930 Y73.888 E0.39166
G1 X193.930 Y74.422 E0.01678
G1 X184.578 Y65.070 E0.41539
G1 X184.044 Y65.070 E0.01678
G1 X193.930 Y74.956 E0.43912
G1 X193.930 Y75.490 E0.01678
G1 X183.510 Y65.070 E0.46284
G1 X182.976 Y65.070 E0.01678
G1 X193.930 Y76.024 E0.48657
G1 X193.930 Y76.559 E0.01678
G1 X182.441 Y65.070 E0.51030
G1 X181.907 Y65.070 E0.01678
G1 X193.930 Y77.093 E0.53402
G1 X193.930 Y77.627 E0.01678
G1 X181.373 Y65.070 E0.55775
G1 X180.839 Y65.070 E0.01678
G1 X193.930 Y78.161 E0.58148
G1 X193.930 Y78.695 E0.01678
G1 X180.305 Y65.070 E0.60520
G1 X179.770 Y65.070 E0.01678
G1 X193.930 Y79.230 E0.62893
M73 Q1 S163
G1 X193.930 Y79.764 E0.01678
G1 X179.236 Y65.070 E0.65266
M73 P1 R160
G1 X178.702 Y65.070 E0.01678
G1 X193.930 Y80.298 E0.67638
G1 X193.930 Y80.832 E0.01678
G1 X178.168 Y65.070 E0.70011
G1 X177.634 Y65.070 E0.01678
G1 X193.930 Y81.366 E0.72384
G1 X193.930 Y81.900 E0.01678
G1 X177.100 Y65.070 E0.74756
G1 X176.565 Y65.070 E0.01678
G1 X193.930 Y82.435 E0.77129
G1 X193.930 Y82.969 E0.01678
G1 X176.031 Y65.070 E0.79502
G1 X175.497 Y65.070 E0.01678
G1 X193.930 Y83.503 E0.81874
G1 X193.930 Y84.037 E0.01678
G1 X174.963 Y65.070 E0.84247
G1 X174.429 Y65.070 E0.01678
G1 X193.930 Y84.571 E0.86620
G1 X193.930 Y85.105 E0.01678
G1 X173.894 Y65.070 E0.88992
G1 X173.360 Y65.070 E0.01678
G1 X193.930 Y85.640 E0.91365
G1 X193.930 Y86.174 E0.01678
G1 X172.826 Y65.070 E0.93737
G1 X172.292 Y65.070 E0.01678
G1 X193.930 Y86.708 E0.96110
G1 X193.930 Y87.242 E0.01678
G1 X171.758 Y65.070 E0.98483
G1 X171.224 Y65.070 E0.01678
G1 X193.930 Y87.776 E1.00855
G1 X193.930 Y88.311 E0.01678
G1 X170.689 Y65.070 E1.03228
G1 X170.155 Y65.070 E0.01678
G1 X193.930 Y88.845 E1.05601
G1 X193.930 Y89.379 E0.01678
G1 X169.621 Y65.070 E1.07973
G1 X169.087 Y65.070 E0.01678
G1 X193.930 Y89.913 E1.10346
G1 X193.930 Y90.447 E0.01678
G1 X168.553 Y65.070 E1.12719
G1 X168.019 Y65.070 E0.01678
G1 X193.930 Y90.981 E1.15091
G1 X193.930 Y91.516 E0.01678
G1 X167.484 Y65.070 E1.17464
G1 X166.950 Y65.070 E0.01678
G1 X193.930 Y92.050 E1.19837
G1 X193.930 Y92.584 E0.01678
G1 X166.416 Y65.070 E1.22209
G1 X165.882 Y65.070 E0.01678
G1 X193.930 Y93.118 E1.24582
G1 X193.930 Y93.652 E0.01678
G1 X165.348 Y65.070 E1.26955
G1 X164.813 Y65.070 E0.01678
G1 X193.930 Y94.187 E1.29327
G1 X193.930 Y94.721 E0.01678
G1 X164.279 Y65.070 E1.31700
G1 X163.745 Y65.070 E0.01678
G1 X193.930 Y95.255 E1.34073
G1 X193.930 Y95.789 E0.01678
G1 X163.211 Y65.070 E1.36445
G1 X162.677 Y65.070 E0.01678
G1 X193.930 Y96.323 E1.38818
G1 X193.930 Y96.857 E0.01678
G1 X162.143 Y65.070 E1.41191
G1 X161.608 Y65.070 E0.01678
G1 X193.930 Y97.392 E1.43563
G1 X193.930 Y97.926 E0.01678
G1 X161.074 Y65.070 E1.45936
M73 Q1 S162
G1 X160.540 Y65.070 E0.01678
G1 X193.930 Y98.460 E1.48308
M73 P1 R159
G1 X193.930 Y98.994 E0.01678
G1 X160.006 Y65.070 E1.50681
G1 X159.472 Y65.070 E0.01678
G1 X193.930 Y99.528 E1.53054
G1 X193.930 Y100.062 E0.01678
G1 X158.938 Y65.070 E1.55426
G1 X158.403 Y65.070 E0.01678
G1 X193.930 Y100.597 E1.57799
G1 X193.930 Y101.131 E0.01678
G1 X157.869 Y65.070 E1.60172
G1 X157.335 Y65.070 E0.01678
G1 X193.930 Y101.665 E1.62544
G1 X193.930 Y102.199 E0.01678
G1 X156.801 Y65.070 E1.64917
G1 X156.267 Y65.070 E0.01678
G1 X193.930 Y102.733 E1.67290
G1 X193.930 Y103.268 E0.01678
G1 X155.732 Y65.070 E1.69662
G1 X155.198 Y65.070 E0.01678
G1 X193.930 Y103.802 E1.72035
G1 X193.930 Y104.336 E0.01678
G1 X154.664 Y65.070 E1.74408
G1 X154.130 Y65.070 E0.01678
