; generated by PrusaSlicer 2.2.0+win64 on 2023-01-07 at 17:52:19 UTC

; 

; external perimeters extrusion width = 0.45mm
; perimeters extrusion width = 0.45mm
; infill extrusion width = 0.45mm
; solid infill extrusion width = 0.45mm
; top infill extrusion width = 0.40mm
; support material extrusion width = 0.35mm
; first layer extrusion width = 0.42mm

M73 P0 R162
M73 Q0 S165
M201 X1000 Y1000 Z200 E5000 ; sets maximum accelerations, mm/sec^2
M203 X200 Y200 Z12 E120 ; sets maximum feedrates, mm/sec
M204 P1250 R1250 T1250 ; sets acceleration (P, T) and retract acceleration (R), mm/sec^2
M205 X8.00 Y8.00 Z0.40 E4.50 ; sets the jerk limits, mm/sec
M205 S0 T0 ; sets the minimum extruding and travel feed rate, mm/sec
M107
M862.3 P "MK3S" ; printer model check
M862.1 P0.4 ; nozzle diameter check
M115 U3.11.0 ; tell printer latest fw version
G90 ; use absolute coordinates
M83 ; extruder relative mode
M104 S220 ; set extruder temp
M140 S80 ; set bed temp
M190 S80 ; wait for bed temp
M109 S220 ; wait for extruder temp
G28 W ; home all without mesh bed level
G80 ; mesh bed leveling
G1 Y-3.0 F1000.0 ; go outside print area
G92 E0.0
G1 X60.0 E9.0 F1000.0 ; intro line
M73 Q0 S165
M73 P0 R162
G1 X100.0 E12.5 F1000.0 ; intro line
G92 E0.0
M221 S95

; Don't change E values below. Excessive value can damage the printer.
M907 E430 ; set extruder motor current
G21 ; set units to millimeters
G90 ; use absolute coordinates
M83 ; use relative distances for extrusion
M900 K0.05 ; Filament gcode LA 1.5
M900 K30 ; Filament gcode LA 1.0
;BEFORE_LAYER_CHANGE
G92 E0.0
;0.2


G1 E-0.80000 F2100.00000
G1 Z0.400 F10800.000
;AFTER_LAYER_CHANGE
;0.2
G1 X39.632 Y60.753
G1 Z0.200
G1 E0.80000 F2100.00000
M204 S1000
G1 F1200.000
G1 X40.396 Y60.254 E0.02860
G1 X41.291 Y60.080 E0.02860
G1 X170.032 Y61.623 E4.03688
G1 X170.608 Y61.702 E0.01823
G1 X171.148 Y61.918 E0.01823
G1 X205.573 Y86.192 E1.32071
G1 X206.060 Y86.660 E0.02119
G1 X206.398 Y87.249 E0.02130
G1 X207.316 Y91.016 E0.12156
G1 X207.377 Y91.510 E0.01562
G1 X207.377 Y144.704 E1.66784
G1 X206.528 Y150.272 E0.17660
G1 X206.268 Y151.009 E0.02449
G1 X205.896 Y151.513 E0.01965
G1 X205.401 Y151.904 E0.01977
G1 X204.822 Y152.151 E0.01977
G1 X204.201 Y152.238 E0.01965
G1 X48.072 Y152.238 E4.89531
G1 X47.480 Y152.162 E0.01870
G1 X46.930 Y151.943 E0.01858
G1 X46.371 Y151.517 E0.02201
G1 X39.508 Y144.313 E0.31198
G1 X39.092 Y143.647 E0.02461
G1 X38.916 Y142.882 E0.02461
G1 X38.912 Y62.389 E2.52382
G1 X39.113 Y61.499 E0.02860
G1 X39.597 Y60.802 E0.02661
; printing object body middle back right.STL id:0 copy 0
G1 F8640.000
G1 X40.396 Y60.254 E-0.22355
G1 X41.291 Y60.080 E-0.21065
G1 X42.702 Y60.097 E-0.32581
G1 E-0.04000 F2100.00000
G1 Z0.600 F10800.000
G1 X41.288 Y62.457
G1 Z0.200
G1 E0.80000 F2100.00000
G1 F1200.000
G1 X41.288 Y73.203 E0.33693
G1 X42.043 Y73.203 E0.02365
G1 X42.043 Y62.627 E0.33161
G1 X42.797 Y62.627 E0.02365
G1 X42.797 Y73.203 E0.33161
G1 X43.551 Y73.203 E0.02365
G1 X43.551 Y62.627 E0.33161
G1 X44.305 Y62.627 E0.02365
G1 X44.305 Y73.203 E0.33161
G1 X44.586 Y73.203 E0.00883
G1 X44.586 Y63.829 E0.29393
G1 X44.829 Y63.586 E0.01074
G1 X45.059 Y63.586 E0.00723
G1 X45.059 Y62.627 E0.03009
G1 X45.813 Y62.627 E0.02365
G1 X45.813 Y63.586 E0.03009
G1 X46.567 Y63.586 E0.02365
G1 X46.567 Y62.627 E0.03009
G1 X47.322 Y62.627 E0.02365
G1 X47.322 Y63.756 E0.03541
G1 F8640.000
G1 X47.322 Y62.627 E-0.26074
G1 X46.567 Y62.627 E-0.17414
G1 X46.567 Y63.586 E-0.22156
G1 X46.119 Y63.586 E-0.10357
G1 E-0.04000 F2100.00000
G1 Z0.600 F10800.000
G1 X41.288 Y134.309
G1 Z0.200
G1 E0.80000 F2100.00000
G1 F1200.000
G1 X41.288 Y142.737 E0.26426
G1 X42.043 Y142.737 E0.02365
G1 X42.043 Y134.479 E0.25894
G1 X42.797 Y134.479 E0.02365
G1 X42.797 Y142.737 E0.25894
G1 X43.551 Y142.737 E0.02365
G1 X43.551 Y134.479 E0.25894
G1 X44.305 Y134.479 E0.02365
G1 X44.305 Y142.907 E0.26426
G1 F8640.000
G1 X44.305 Y139.616 E-0.76000
G1 E-0.04000 F2100.00000
G1 Z0.600 F10800.000
G1 X48.076 Y149.861
G1 Z0.200
G1 E0.80000 F2100.00000
G1 F1200.000
G1 X48.076 Y146.414 E0.10808
G1 X48.830 Y146.414 E0.02365
G1 X48.830 Y149.691 E0.10276
G1 X49.584 Y149.691 E0.02365
G1 X49.584 Y146.414 E0.10276
G1 X50.338 Y146.414 E0.02365
G1 X50.338 Y149.691 E0.10276
G1 X51.092 Y149.691 E0.02365
G1 X51.092 Y146.414 E0.10276
G1 X51.847 Y146.414 E0.02365
G1 X51.847 Y149.691 E0.10276
G1 X52.601 Y149.691 E0.02365
G1 X52.601 Y146.414 E0.10276
G1 X53.355 Y146.414 E0.02365
G1 X53.355 Y149.691 E0.10276
G1 X54.109 Y149.691 E0.02365
G1 X54.109 Y146.414 E0.10276
G1 X54.863 Y146.414 E0.02365
G1 X54.863 Y149.691 E0.10276
G1 X55.617 Y149.691 E0.02365
G1 X55.617 Y146.414 E0.10276
G1 X56.372 Y146.414 E0.02365
G1 X56.372 Y149.691 E0.10276
G1 X57.126 Y149.691 E0.02365
G1 X57.126 Y146.414 E0.10276
G1 X57.880 Y146.414 E0.02365
G1 X57.880 Y149.861 E0.10808
G1 F8640.000
G1 X57.880 Y146.569 E-0.76000
G1 E-0.04000 F2100.00000
G1 Z0.600 F10800.000
G1 X194.383 Y149.861
G1 Z0.200
G1 E0.80000 F2100.00000
G1 F1200.000
G1 X194.383 Y146.414 E0.10808
G1 X195.137 Y146.414 E0.02365
G1 X195.137 Y149.691 E0.10276
G1 X195.891 Y149.691 E0.02365
G1 X195.891 Y145.114 E0.14352
G1 X196.645 Y145.114 E0.02365
G1 X196.645 Y149.691 E0.14352
G1 X197.399 Y149.691 E0.02365
G1 X197.399 Y145.114 E0.14352
G1 X198.153 Y145.114 E0.02365
G1 X198.153 Y149.691 E0.14352
G1 X198.908 Y149.691 E0.02365
G1 X198.908 Y145.114 E0.14352
G1 X199.662 Y145.114 E0.02365
G1 X199.662 Y149.691 E0.14352
G1 X200.416 Y149.691 E0.02365
G1 X200.416 Y145.114 E0.14352
G1 X201.170 Y145.114 E0.02365
G1 X201.170 Y149.691 E0.14352
G1 X201.924 Y149.691 E0.02365
G1 X201.924 Y145.114 E0.14352
G1 X202.678 Y145.114 E0.02365
G1 X202.678 Y149.691 E0.14352
G1 X203.433 Y149.691 E0.02365
G1 X203.433 Y145.114 E0.14352
G1 X204.187 Y145.114 E0.02365
G1 X204.187 Y149.861 E0.14884
G1 F8640.000
G1 X204.187 Y146.569 E-0.76000
G1 E-0.04000 F2100.00000
G1 Z0.600 F10800.000
G1 X204.187 Y142.006
G1 Z0.200
G1 E0.80000 F2100.00000
G1 F1200.000
G1 X204.187 Y139.115 E0.09066
G1 X203.433 Y139.115 E0.02365
G1 X203.433 Y141.836 E0.08534
G1 X202.678 Y141.836 E0.02365
G1 X202.678 Y139.115 E0.08534
G1 X201.924 Y139.115 E0.02365
G1 X201.924 Y141.836 E0.08534
G1 X201.170 Y141.836 E0.02365
G1 X201.170 Y139.115 E0.08534
G1 X200.416 Y139.115 E0.02365
G1 X200.416 Y141.836 E0.08534
G1 X199.662 Y141.836 E0.02365
G1 X199.662 Y139.115 E0.08534
G1 X198.908 Y139.115 E0.02365
G1 X198.908 Y141.836 E0.08534
G1 X198.153 Y141.836 E0.02365
G1 X198.153 Y139.115 E0.08534
G1 X197.399 Y139.115 E0.02365
G1 X197.399 Y141.836 E0.08534
G1 X196.645 Y141.836 E0.02365
G1 X196.645 Y139.115 E0.08534
G1 X195.891 Y139.115 E0.02365
G1 X195.891 Y142.006 E0.09066
G1 F8640.000
G1 X195.891 Y139.115 E-0.66766
G1 X196.291 Y139.115 E-0.09234
G1 E-0.04000 F2100.00000
G1 Z0.600 F10800.000
G1 X195.891 Y98.869
G1 Z0.200
G1 E0.80000 F2100.00000
G1 F1200.000
G1 X195.891 Y94.364 E0.14126
G1 X196.645 Y94.364 E0.02365
G1 X196.645 Y98.699 E0.13594
G1 X197.399 Y98.699 E0.02365
G1 X197.399 Y94.364 E0.13594
G1 X198.153 Y94.364 E0.02365
G1 X198.153 Y98.699 E0.13594
G1 X198.908 Y98.699 E0.02365
G1 X198.908 Y94.364 E0.13594
G1 X199.662 Y94.364 E0.02365
G1 X199.662 Y98.699 E0.13594
G1 X200.416 Y98.699 E0.02365
G1 X200.416 Y94.364 E0.13594
G1 X201.170 Y94.364 E0.02365
G1 X201.170 Y98.699 E0.13594
G1 X201.924 Y98.699 E0.02365
G1 X201.924 Y94.364 E0.13594
G1 X202.678 Y94.364 E0.02365
G1 X202.678 Y98.699 E0.13594
G1 X203.433 Y98.699 E0.02365
G1 X203.433 Y94.364 E0.13594
G1 X204.187 Y94.364 E0.02365
G1 X204.187 Y98.869 E0.14126
G1 F8640.000
G1 X204.187 Y95.577 E-0.76000
G1 E-0.04000 F2100.00000
G1 Z0.600 F10800.000
G1 X204.187 Y91.306
G1 Z0.200
G1 E0.80000 F2100.00000
G1 F1200.000
G1 X204.187 Y88.123 E0.09981
G1 X203.433 Y88.123 E0.02365
G1 X203.433 Y91.136 E0.09449
G1 X202.678 Y91.136 E0.02365
G1 X202.678 Y88.123 E0.09449
G1 X201.924 Y88.123 E0.02365
G1 X201.924 Y91.136 E0.09449
G1 X201.170 Y91.136 E0.02365
G1 X201.170 Y88.123 E0.09449
G1 X200.416 Y88.123 E0.02365
G1 X200.416 Y91.136 E0.09449
G1 X199.662 Y91.136 E0.02365
G1 X199.662 Y88.123 E0.09449
G1 X198.908 Y88.123 E0.02365
G1 X198.908 Y91.136 E0.09449
G1 X198.153 Y91.136 E0.02365
G1 X198.153 Y88.123 E0.09449
G1 X197.399 Y88.123 E0.02365
G1 X197.399 Y91.136 E0.09449
G1 X196.645 Y91.136 E0.02365
G1 X196.645 Y88.123 E0.09449
G1 X195.891 Y88.123 E0.02365
G1 X195.891 Y91.136 E0.09449
G1 X195.414 Y91.136 E0.01497
G1 X195.414 Y88.838 E0.07206
G1 X195.194 Y88.600 E0.01015
G1 X195.137 Y88.596 E0.00179
G1 X195.137 Y88.123 E0.01483
G1 X194.383 Y88.123 E0.02365
G1 X194.383 Y88.707 E0.01831
G1 F8640.000
G1 X194.383 Y88.123 E-0.13484
G1 X195.137 Y88.123 E-0.17414
G1 X195.137 Y88.596 E-0.10924
G1 X195.194 Y88.600 E-0.01321
G1 X195.414 Y88.838 E-0.07475
G1 X195.414 Y89.937 E-0.25383
G1 E-0.04000 F2100.00000
G1 Z0.600 F10800.000
G1 X194.213 Y89.728
G1 Z0.200
G1 E0.80000 F2100.00000
G1 F1200.000
G1 X194.213 Y92.337 E0.08182
G1 X204.213 Y92.337 E0.31354
G1 X204.213 Y93.163 E0.02589
G1 X194.213 Y93.163 E0.31354
G1 X194.213 Y143.037 E1.56377
G1 X204.213 Y143.037 E0.31354
G1 X204.213 Y143.913 E0.02746
G1 X194.213 Y143.913 E0.31354
G1 X194.213 Y145.213 E0.04076
G1 X45.787 Y145.213 E4.65379
M73 Q0 S164
M73 P0 R161
G1 X45.787 Y64.787 E2.52170
G1 X169.272 Y64.787 E3.87180
G1 X169.528 Y68.034 E0.10213
G1 X170.473 Y71.969 E0.12689
G1 X172.021 Y75.708 E0.12689
G1 X174.136 Y79.159 E0.12689
G1 X176.764 Y82.236 E0.12689
G1 X179.841 Y84.864 E0.12689
G1 X183.292 Y86.979 E0.12689
G1 X187.031 Y88.527 E0.12689
G1 X190.966 Y89.472 E0.12689
G1 X194.153 Y89.723 E0.10025
G1 F8640.000
G1 X194.213 Y92.337 E-0.60379
G1 X194.889 Y92.337 E-0.15621
G1 E-0.04000 F2100.00000
G1 Z0.600 F10800.000
G1 X194.590 Y91.960
G1 Z0.200
G1 E0.80000 F2100.00000
G1 F1200.000
G1 X204.590 Y91.960 E0.31354
G1 X204.590 Y93.540 E0.04954
G1 X194.590 Y93.540 E0.31354
G1 X194.590 Y142.660 E1.54012
G1 X204.590 Y142.660 E0.31354
G1 X204.590 Y144.290 E0.05111
G1 X194.590 Y144.290 E0.31354
G1 X194.590 Y145.590 E0.04076
G1 X45.410 Y145.590 E4.67743
G1 X45.410 Y64.410 E2.54534
G1 X169.621 Y64.410 E3.89455
G1 X169.902 Y67.975 E0.11213
G1 X170.832 Y71.853 E0.12503
G1 X172.358 Y75.536 E0.12502
G1 X174.442 Y78.936 E0.12502
G1 X177.032 Y81.968 E0.12503
G1 X180.064 Y84.558 E0.12502
G1 X183.464 Y86.642 E0.12503
G1 X187.147 Y88.168 E0.12503
G1 X191.025 Y89.098 E0.12502
G1 X194.590 Y89.379 E0.11213
G1 X194.590 Y91.900 E0.07904
G1 X194.707 Y92.342 F10800.000
G1 F8640.000
G1 X197.881 Y91.920 E-0.76000
G1 E-0.04000 F2100.00000
G1 Z0.600 F10800.000
G1 X194.100 Y93.359
G1 Z0.200
G1 E0.80000 F2100.00000
G1 F1200.000
G1 X190.357 Y89.617 E0.16617
G1 X189.655 Y89.448 E0.02269
G1 X193.930 Y93.724 E0.18984
G1 X193.930 Y94.258 E0.01677
G1 X188.952 Y89.279 E0.22104
G1 X188.249 Y89.111 E0.02269
G1 X193.930 Y94.792 E0.25224
G1 X193.930 Y95.326 E0.01677
G1 X187.547 Y88.942 E0.28344
G1 X186.943 Y88.797 E0.01949
G1 X186.814 Y88.744 E0.00437
G1 X193.930 Y95.860 E0.31594
G1 X193.930 Y96.393 E0.01677
G1 X185.903 Y88.366 E0.35642
G1 X184.991 Y87.989 E0.03098
G1 X193.930 Y96.927 E0.39689
G1 X193.930 Y97.461 E0.01677
G1 X184.080 Y87.611 E0.43737
G1 X183.168 Y87.234 E0.03098
G1 X193.930 Y97.995 E0.47784
G1 X193.930 Y98.529 E0.01677
G1 X181.792 Y86.391 E0.53896
G1 X180.413 Y85.546 E0.05078
G1 X193.930 Y99.063 E0.60019
G1 X193.930 Y99.597 E0.01677
G1 X159.403 Y65.070 E1.53306
G1 X159.937 Y65.070 E0.01677
G1 X173.454 Y78.587 E0.60019
G1 X172.609 Y77.208 E0.05078
G1 X160.471 Y65.070 E0.53896
G1 X161.005 Y65.070 E0.01677
G1 X171.766 Y75.832 E0.47784
G1 X171.389 Y74.920 E0.03098
G1 X161.539 Y65.070 E0.43737
G1 X162.073 Y65.070 E0.01677
G1 X171.011 Y74.009 E0.39689
G1 X170.634 Y73.097 E0.03098
G1 X162.607 Y65.070 E0.35642
G1 X163.140 Y65.070 E0.01677
G1 X170.256 Y72.186 E0.31594
G1 X170.203 Y72.057 E0.00437
G1 X170.058 Y71.453 E0.01949
G1 X163.674 Y65.070 E0.28344
G1 X164.208 Y65.070 E0.01677
G1 X169.889 Y70.751 E0.25224
G1 X169.721 Y70.048 E0.02269
G1 X164.742 Y65.070 E0.22104
G1 X165.276 Y65.070 E0.01677
G1 X169.552 Y69.345 E0.18984
G1 X169.383 Y68.643 E0.02269
G1 X165.810 Y65.070 E0.15864
G1 X166.344 Y65.070 E0.01677
G1 X169.239 Y67.964 E0.12851
G1 X169.193 Y67.385 E0.01825
G1 X166.878 Y65.070 E0.10278
G1 X167.412 Y65.070 E0.01677
G1 X169.148 Y66.805 E0.07704
G1 X169.102 Y66.225 E0.01825
G1 X167.946 Y65.070 E0.05131
G1 X168.480 Y65.070 E0.01677
G1 X169.241 Y65.831 E0.03378
G1 F8640.000
G1 X168.480 Y65.070 E-0.24842
G1 X167.946 Y65.070 E-0.12330
G1 X169.102 Y66.225 E-0.37735
G1 X169.106 Y66.273 E-0.01093
G1 E-0.04000 F2100.00000
G1 Z0.600 F10800.000
G1 X203.936 Y93.050
G1 Z0.200
G1 E0.80000 F2100.00000
G1 F1200.000
G1 X203.506 Y92.620 E0.01909
G1 X202.972 Y92.620 E0.01677
G1 X203.232 Y92.880 E0.01156
G1 X202.698 Y92.880 E0.01677
G1 X202.438 Y92.620 E0.01156
G1 X201.904 Y92.620 E0.01677
G1 X202.164 Y92.880 E0.01156
G1 X201.630 Y92.880 E0.01677
G1 X201.370 Y92.620 E0.01156
G1 X200.836 Y92.620 E0.01677
G1 X201.096 Y92.880 E0.01156
G1 X200.562 Y92.880 E0.01677
G1 X200.302 Y92.620 E0.01156
G1 X199.768 Y92.620 E0.01677
G1 X200.028 Y92.880 E0.01156
G1 X199.495 Y92.880 E0.01677
G1 X199.234 Y92.620 E0.01156
G1 X198.700 Y92.620 E0.01677
G1 X198.961 Y92.880 E0.01156
G1 X198.427 Y92.880 E0.01677
G1 X198.166 Y92.620 E0.01156
G1 X197.632 Y92.620 E0.01677
G1 X197.893 Y92.880 E0.01156
G1 X197.359 Y92.880 E0.01677
G1 X197.098 Y92.620 E0.01156
G1 X196.564 Y92.620 E0.01677
G1 X196.825 Y92.880 E0.01156
G1 X196.291 Y92.880 E0.01677
G1 X196.030 Y92.620 E0.01156
G1 X195.496 Y92.620 E0.01677
G1 X195.757 Y92.880 E0.01156
G1 X195.223 Y92.880 E0.01677
G1 X194.962 Y92.620 E0.01156
G1 X194.428 Y92.620 E0.01677
G1 X194.689 Y92.880 E0.01156
G1 X194.155 Y92.880 E0.01677
G1 X191.036 Y89.761 E0.13848
G1 X191.615 Y89.807 E0.01825
G1 X193.930 Y92.122 E0.10278
G1 X193.930 Y91.588 E0.01677
G1 X192.195 Y89.852 E0.07704
G1 X192.775 Y89.898 E0.01825
G1 X193.930 Y91.054 E0.05131
G1 X193.930 Y90.520 E0.01677
G1 X193.169 Y89.759 E0.03378
G1 F8640.000
G1 X193.930 Y90.520 E-0.24842
G1 X193.930 Y91.054 E-0.12330
G1 X192.775 Y89.898 E-0.37736
G1 X192.727 Y89.894 E-0.01093
G1 E-0.04000 F2100.00000
G1 Z0.600 F10800.000
G1 X194.100 Y100.301
G1 Z0.200
G1 E0.80000 F2100.00000
G1 F1200.000
G1 X158.869 Y65.070 E1.56430
M73 Q1 S163
M73 P1 R160
G1 X158.335 Y65.070 E0.01677
G1 X193.930 Y100.665 E1.58048
G1 X193.930 Y101.199 E0.01677
G1 X157.801 Y65.070 E1.60419
G1 X157.267 Y65.070 E0.01677
G1 X193.930 Y101.733 E1.62790
G1 X193.930 Y102.267 E0.01677
G1 X156.733 Y65.070 E1.65161
G1 X156.199 Y65.070 E0.01677
G1 X193.930 Y102.801 E1.67532
G1 X193.930 Y103.335 E0.01677
G1 X155.665 Y65.070 E1.69903
G1 X155.131 Y65.070 E0.01677
G1 X193.930 Y103.869 E1.72274
G1 X193.930 Y104.403 E0.01677
G1 X154.597 Y65.070 E1.74645
G1 X154.063 Y65.070 E0.01677
G1 X193.930 Y104.937 E1.77016
G1 X193.930 Y105.471 E0.01677
G1 X153.529 Y65.070 E1.79387
G1 X152.995 Y65.070 E0.01677
G1 X193.930 Y106.005 E1.81758
G1 X193.930 Y106.539 E0.01677
G1 X152.461 Y65.070 E1.84128
G1 X151.927 Y65.070 E0.01677
G1 X193.930 Y107.073 E1.86499
G1 X193.930 Y107.607 E0.01677
G1 X151.393 Y65.070 E1.88870
G1 X150.859 Y65.070 E0.01677
G1 X193.930 Y108.141 E1.91241
G1 X193.930 Y108.675 E0.01677
G1 X150.325 Y65.070 E1.93612
G1 X149.791 Y65.070 E0.01677
G1 X193.930 Y109.209 E1.95983
G1 X193.930 Y109.743 E0.01677
G1 X149.257 Y65.070 E1.98354
G1 X148.723 Y65.070 E0.01677
G1 X193.930 Y110.277 E2.00725
G1 X193.930 Y110.811 E0.01677
G1 X148.189 Y65.070 E2.03096
G1 X147.655 Y65.070 E0.01677
G1 X193.930 Y111.345 E2.05467
M73 Q1 S162
M73 P1 R159
G1 X193.930 Y111.879 E0.01677
G1 X147.121 Y65.070 E2.07838
G1 X146.587 Y65.070 E0.01677
G1 X193.930 Y112.413 E2.10209
G1 X193.930 Y112.947 E0.01677
G1 X146.053 Y65.070 E2.12580
G1 X145.519 Y65.070 E0.01677
G1 X193.930 Y113.481 E2.14951
G1 X193.930 Y114.015 E0.01677
G1 X144.985 Y65.070 E2.17322
G1 X144.451 Y65.070 E0.01677
G1 X193.930 Y114.549 E2.19693
G1 X193.930 Y115.083 E0.01677
G1 X143.917 Y65.070 E2.22064
G1 X143.383 Y65.070 E0.01677
G1 X193.930 Y115.617 E2.24435
G1 X193.930 Y116.151 E0.01677
G1 X142.849 Y65.070 E2.26806
G1 X142.315 Y65.070 E0.01677
G1 X193.930 Y116.685 E2.29177
G1 X193.930 Y117.219 E0.01677
G1 X141.781 Y65.070 E2.31548
