; generated by PrusaSlicer 2.2.0+win64 on 2023-01-05 at 14:01:05 UTC

; 

; external perimeters extrusion width = 0.45mm
; perimeters extrusion width = 0.45mm
; infill extrusion width = 0.45mm
; solid infill extrusion width = 0.45mm
; top infill extrusion width = 0.40mm
; support material extrusion width = 0.35mm
; first layer extrusion width = 0.42mm

M73 P0 R123
M73 Q0 S125
M201 X1000 Y1000 Z200 E5000 ; sets maximum accelerations, mm/sec^2
M203 X200 Y200 Z12 E120 ; sets maximum feedrates, mm/sec
M204 P1250 R1250 T1250 ; sets acceleration (P, T) and retract acceleration (R), mm/sec^2
M205 X8.00 Y8.00 Z0.40 E4.50 ; sets the jerk limits, mm/sec
M205 S0 T0 ; sets the minimum extruding and travel feed rate, mm/sec
M107
M862.3 P "MK3S" ; printer model check
M862.1 P0.4 ; nozzle diameter check
M115 U3.11.0 ; tell printer latest fw version
G90 ; use absolute coordinates
M83 ; extruder relative mode
M104 S220 ; set extruder temp
M140 S80 ; set bed temp
M190 S80 ; wait for bed temp
M109 S220 ; wait for extruder temp
G28 W ; home all without mesh bed level
G80 ; mesh bed leveling
G1 Y-3.0 F1000.0 ; go outside print area
G92 E0.0
G1 X60.0 E9.0 F1000.0 ; intro line
M73 Q0 S125
M73 P0 R123
G1 X100.0 E12.5 F1000.0 ; intro line
G92 E0.0
M221 S95

; Don't change E values below. Excessive value can damage the printer.
M907 E430 ; set extruder motor current
G21 ; set units to millimeters
G90 ; use absolute coordinates
M83 ; use relative distances for extrusion
M900 K0.05 ; Filament gcode LA 1.5
M900 K30 ; Filament gcode LA 1.0
;BEFORE_LAYER_CHANGE
G92 E0.0
;0.2


G1 E-0.80000 F2100.00000
G1 Z0.400 F10800.000
;AFTER_LAYER_CHANGE
;0.2
G1 X110.805 Y36.073
G1 Z0.200
G1 E0.80000 F2100.00000
M204 S1000
G1 F1200.000
G1 X111.282 Y35.421 E0.02532
G1 X111.949 Y34.967 E0.02532
G1 X112.730 Y34.763 E0.02532
G1 X134.804 Y34.754 E0.69210
G1 X135.639 Y34.905 E0.02661
G1 X136.368 Y35.341 E0.02661
G1 X136.897 Y36.004 E0.02661
G1 X137.160 Y36.811 E0.02661
G1 X148.864 Y138.246 E3.20154
G1 X148.860 Y166.785 E0.89481
G1 X148.556 Y167.693 E0.03001
G1 X147.916 Y168.409 E0.03013
G1 X131.197 Y179.867 E0.63550
G1 X130.308 Y180.051 E0.02849
G1 X117.173 Y180.034 E0.41181
G1 X116.606 Y179.893 E0.01835
G1 X116.089 Y179.618 E0.01835
G1 X102.045 Y169.380 E0.54493
G1 X101.675 Y169.024 E0.01609
G1 X101.391 Y168.596 E0.01609
G1 X101.205 Y168.118 E0.01609
G1 X101.126 Y167.611 E0.01609
G1 X101.129 Y117.329 E1.57657
G1 X110.573 Y36.846 E2.54078
G1 X110.788 Y36.130 E0.02343
; printing object L knee bottom.STL id:0 copy 0
G1 F8640.000
G1 X111.282 Y35.421 E-0.19954
G1 X111.949 Y34.967 E-0.18643
G1 X112.730 Y34.763 E-0.18643
G1 X113.543 Y34.762 E-0.18761
G1 E-0.04000 F2100.00000
G1 Z0.600 F10800.000
G1 X116.197 Y42.276
G1 Z0.200
G1 E0.80000 F2100.00000
G1 F1200.000
G1 X116.197 Y44.203 E0.04919
G1 X116.715 Y44.203 E0.01322
G1 X116.715 Y42.419 E0.04554
G1 X117.233 Y42.419 E0.01322
G1 X117.233 Y44.203 E0.04554
G1 X117.751 Y44.203 E0.01322
G1 X117.751 Y42.419 E0.04554
G1 X118.268 Y42.419 E0.01322
G1 X118.268 Y44.203 E0.04554
G1 X118.786 Y44.203 E0.01322
G1 X118.786 Y42.419 E0.04554
G1 X119.304 Y42.419 E0.01322
G1 X119.304 Y44.203 E0.04554
G1 X119.822 Y44.203 E0.01322
G1 X119.822 Y42.419 E0.04554
G1 X120.340 Y42.419 E0.01322
G1 X120.340 Y44.203 E0.04554
G1 X120.858 Y44.203 E0.01322
G1 X120.858 Y42.419 E0.04554
G1 X121.375 Y42.419 E0.01322
G1 X121.375 Y44.203 E0.04554
G1 X121.893 Y44.203 E0.01322
G1 X121.893 Y42.419 E0.04554
G1 X122.411 Y42.419 E0.01322
G1 X122.411 Y44.203 E0.04554
G1 X122.929 Y44.203 E0.01322
G1 X122.929 Y42.419 E0.04554
G1 X123.447 Y42.419 E0.01322
G1 X123.447 Y44.203 E0.04554
G1 X123.964 Y44.203 E0.01322
G1 X123.964 Y42.419 E0.04554
G1 X124.482 Y42.419 E0.01322
G1 X124.482 Y44.203 E0.04554
G1 X125.000 Y44.203 E0.01322
G1 X125.000 Y42.419 E0.04554
G1 X125.518 Y42.419 E0.01322
G1 X125.518 Y44.203 E0.04554
G1 X126.036 Y44.203 E0.01322
G1 X126.036 Y42.419 E0.04554
G1 X126.553 Y42.419 E0.01322
G1 X126.553 Y44.203 E0.04554
G1 X127.071 Y44.203 E0.01322
G1 X127.071 Y42.419 E0.04554
G1 X127.589 Y42.419 E0.01322
G1 X127.589 Y44.203 E0.04554
G1 X128.107 Y44.203 E0.01322
G1 X128.107 Y42.419 E0.04554
G1 X128.625 Y42.419 E0.01322
G1 X128.625 Y44.203 E0.04554
G1 X129.142 Y44.203 E0.01322
G1 X129.142 Y42.419 E0.04554
G1 X129.660 Y42.419 E0.01322
G1 X129.660 Y44.203 E0.04554
G1 X130.178 Y44.203 E0.01322
G1 X130.178 Y42.419 E0.04554
G1 X130.696 Y42.419 E0.01322
G1 X130.696 Y44.203 E0.04554
G1 X131.008 Y44.203 E0.00797
G1 X131.214 Y44.408 E0.00742
G1 X131.214 Y42.419 E0.05079
G1 X131.732 Y42.419 E0.01322
G1 X131.732 Y47.198 E0.12202
G1 F8640.000
G1 X131.732 Y43.906 E-0.76000
G1 E-0.04000 F2100.00000
G1 Z0.600 F10800.000
G1 X131.033 Y46.116
G1 Z0.200
G1 E0.80000 F2100.00000
G1 F1200.000
G1 X131.033 Y45.518 E0.01877
G1 X130.663 Y45.147 E0.01643
G1 X130.990 Y45.147 E0.01027
G1 X130.990 Y45.113 E0.00106
G1 X130.864 Y44.987 E0.00559
G1 X130.586 Y44.987 E0.00873
G1 X130.587 Y44.589 E0.01249
G1 X130.903 Y44.589 E0.00990
G1 X130.864 Y44.550 E0.00171
G1 X130.279 Y44.550 E0.01834
G1 X130.279 Y45.946 E0.04378
G1 X129.525 Y45.946 E0.02365
G1 X129.525 Y44.550 E0.04378
G1 X128.771 Y44.550 E0.02365
G1 X128.771 Y45.946 E0.04378
G1 X128.414 Y45.946 E0.01120
G1 X128.414 Y45.072 E0.02743
G1 X128.017 Y45.072 E0.01245
G1 X128.017 Y44.550 E0.01635
G1 X127.262 Y44.550 E0.02365
G1 X127.262 Y45.072 E0.01635
G1 X126.508 Y45.072 E0.02365
G1 X126.508 Y44.550 E0.01635
G1 X125.754 Y44.550 E0.02365
G1 X125.754 Y45.072 E0.01635
G1 X125.000 Y45.072 E0.02365
G1 X125.000 Y44.550 E0.01635
G1 X124.246 Y44.550 E0.02365
G1 X124.246 Y45.072 E0.01635
G1 X123.492 Y45.072 E0.02365
G1 X123.492 Y44.550 E0.01635
G1 X122.738 Y44.550 E0.02365
G1 X122.738 Y45.072 E0.01635
G1 X121.983 Y45.072 E0.02365
G1 X121.983 Y44.550 E0.01635
G1 X121.229 Y44.550 E0.02365
G1 X121.229 Y45.072 E0.01635
G1 X120.475 Y45.072 E0.02365
G1 X120.475 Y44.550 E0.01635
G1 X119.721 Y44.550 E0.02365
G1 X119.721 Y45.072 E0.01635
G1 X118.967 Y45.072 E0.02365
G1 X118.967 Y44.550 E0.01635
G1 X118.213 Y44.550 E0.02365
G1 X118.213 Y45.946 E0.04378
G1 X117.458 Y45.946 E0.02365
G1 X117.458 Y44.550 E0.04378
G1 X116.704 Y44.550 E0.02365
G1 X116.704 Y46.116 E0.04910
G1 F8640.000
G1 X116.704 Y44.550 E-0.36157
G1 X117.458 Y44.550 E-0.17414
G1 X117.458 Y45.522 E-0.22429
G1 E-0.04000 F2100.00000
G1 Z0.600 F10800.000
G1 X112.933 Y50.195
G1 Z0.200
G1 E0.80000 F2100.00000
G1 F1200.000
G1 X112.933 Y37.131 E0.40961
G1 X113.688 Y37.131 E0.02365
G1 X113.688 Y50.025 E0.40429
G1 X114.442 Y50.025 E0.02365
G1 X114.442 Y37.131 E0.40428
G1 X115.196 Y37.131 E0.02365
G1 X115.196 Y50.025 E0.40428
G1 X115.586 Y50.025 E0.01224
G1 X115.586 Y47.402 E0.08224
G1 X115.381 Y47.402 E0.00644
G1 X115.381 Y42.072 E0.16714
G1 X115.950 Y42.072 E0.01784
G1 X115.950 Y37.131 E0.15491
G1 X116.704 Y37.131 E0.02365
G1 X116.704 Y42.072 E0.15491
G1 X117.458 Y42.072 E0.02365
G1 X117.458 Y37.131 E0.15491
G1 X118.213 Y37.131 E0.02365
G1 X118.213 Y42.072 E0.15491
G1 X118.967 Y42.072 E0.02365
G1 X118.967 Y37.131 E0.15491
G1 X119.721 Y37.131 E0.02365
G1 X119.721 Y42.072 E0.15491
G1 X120.475 Y42.072 E0.02365
G1 X120.475 Y37.131 E0.15491
G1 X121.229 Y37.131 E0.02365
G1 X121.229 Y42.072 E0.15491
G1 X121.983 Y42.072 E0.02365
G1 X121.983 Y37.131 E0.15491
G1 X122.738 Y37.131 E0.02365
G1 X122.738 Y42.072 E0.15491
G1 X123.492 Y42.072 E0.02365
G1 X123.492 Y37.131 E0.15491
G1 X124.246 Y37.131 E0.02365
G1 X124.246 Y42.072 E0.15491
G1 X125.000 Y42.072 E0.02365
G1 X125.000 Y37.131 E0.15491
G1 X125.754 Y37.131 E0.02365
G1 X125.754 Y42.072 E0.15491
G1 X126.508 Y42.072 E0.02365
G1 X126.508 Y37.131 E0.15491
G1 X127.262 Y37.131 E0.02365
G1 X127.262 Y42.072 E0.15491
G1 X128.017 Y42.072 E0.02365
G1 X128.017 Y37.131 E0.15491
G1 X128.771 Y37.131 E0.02365
G1 X128.771 Y42.072 E0.15491
G1 X129.525 Y42.072 E0.02365
G1 X129.525 Y37.131 E0.15491
G1 X130.279 Y37.131 E0.02365
G1 X130.279 Y42.072 E0.15491
G1 X131.033 Y42.072 E0.02365
G1 X131.033 Y37.131 E0.15491
G1 X131.787 Y37.131 E0.02365
G1 X131.787 Y42.072 E0.15491
G1 X132.301 Y42.072 E0.01610
G1 X132.301 Y47.402 E0.16714
G1 X131.787 Y47.402 E0.01610
G1 X131.787 Y50.025 E0.08223
G1 X132.542 Y50.025 E0.02365
G1 X132.542 Y37.131 E0.40428
G1 X133.296 Y37.131 E0.02365
G1 X133.296 Y50.025 E0.40428
G1 X134.050 Y50.025 E0.02365
G1 X134.050 Y37.131 E0.40428
G1 X134.804 Y37.131 E0.02365
G1 X134.804 Y50.195 E0.40960
G1 F8640.000
G1 X134.804 Y46.903 E-0.76000
G1 E-0.04000 F2100.00000
G1 Z0.600 F10800.000
G1 X130.279 Y177.674
G1 Z0.200
G1 E0.80000 F2100.00000
G1 F1200.000
G1 X130.279 Y167.913 E0.30604
G1 X129.525 Y167.913 E0.02365
G1 X129.525 Y177.505 E0.30072
G1 X128.771 Y177.505 E0.02365
G1 X128.771 Y167.913 E0.30072
G1 X128.017 Y167.913 E0.02365
G1 X128.017 Y177.505 E0.30072
G1 X127.262 Y177.505 E0.02365
G1 X127.262 Y167.913 E0.30072
G1 X126.508 Y167.913 E0.02365
G1 X126.508 Y177.505 E0.30072
G1 X125.754 Y177.505 E0.02365
G1 X125.754 Y167.913 E0.30072
G1 X125.000 Y167.913 E0.02365
G1 X125.000 Y177.505 E0.30072
G1 X124.246 Y177.505 E0.02365
G1 X124.246 Y167.913 E0.30072
G1 X123.492 Y167.913 E0.02365
G1 X123.492 Y177.505 E0.30072
G1 X122.738 Y177.505 E0.02365
G1 X122.738 Y167.913 E0.30072
G1 X121.983 Y167.913 E0.02365
G1 X121.983 Y177.505 E0.30072
G1 X121.229 Y177.505 E0.02365
G1 X121.229 Y167.913 E0.30072
G1 X120.475 Y167.913 E0.02365
G1 X120.475 Y177.505 E0.30072
G1 X119.721 Y177.505 E0.02365
G1 X119.721 Y167.913 E0.30072
G1 X118.967 Y167.913 E0.02365
G1 X118.967 Y177.505 E0.30072
G1 X118.213 Y177.505 E0.02365
G1 X118.213 Y167.913 E0.30072
G1 X117.458 Y167.913 E0.02365
G1 X117.458 Y177.674 E0.30604
G1 F8640.000
G1 X117.458 Y174.383 E-0.76000
G1 E-0.04000 F2100.00000
G1 Z0.600 F10800.000
G1 X130.213 Y118.287
G1 Z0.200
G1 E0.80000 F2100.00000
G1 F1200.000
G1 X142.713 Y118.287 E0.39193
G1 X142.713 Y139.287 E0.65844
G1 X145.713 Y139.287 E0.09406
G1 X145.713 Y165.713 E0.82856
G1 X142.713 Y165.713 E0.09406
G1 X142.713 Y166.713 E0.03135
G1 X104.287 Y166.713 E1.20482
G1 X104.287 Y118.287 E1.51836
M73 Q0 S124
M73 P0 R122
G1 X116.787 Y118.287 E0.39193
G1 X116.787 Y47.147 E2.23054
G1 X130.213 Y47.147 E0.42096
G1 X130.213 Y118.227 E2.22866
G1 X130.590 Y117.910 F10800.000
G1 F1200.000
G1 X143.090 Y117.910 E0.39193
G1 X143.090 Y138.910 E0.65844
G1 X146.090 Y138.910 E0.09406
G1 X146.090 Y166.090 E0.85221
G1 X143.090 Y166.090 E0.09406
G1 X143.090 Y167.090 E0.03135
G1 X103.910 Y167.090 E1.22846
G1 X103.910 Y117.910 E1.54200
G1 X116.410 Y117.910 E0.39193
G1 X116.410 Y46.770 E2.23054
G1 X130.590 Y46.770 E0.44460
G1 X130.590 Y117.850 E2.22866
G1 X130.616 Y118.309 F10800.000
G1 X130.100 Y117.913
G1 F1200.000
G1 X117.070 Y104.883 E0.57803
G1 X117.070 Y104.349 E0.01674
G1 X129.930 Y117.209 E0.57050
G1 X129.930 Y116.676 E0.01674
G1 X117.070 Y103.816 E0.57050
G1 X117.070 Y103.282 E0.01674
G1 X129.930 Y116.142 E0.57050
G1 X129.930 Y115.609 E0.01674
G1 X117.070 Y102.749 E0.57050
G1 X117.070 Y102.215 E0.01674
G1 X129.930 Y115.075 E0.57050
G1 X129.930 Y114.542 E0.01674
G1 X117.070 Y101.682 E0.57050
G1 X117.070 Y101.148 E0.01674
G1 X129.930 Y114.008 E0.57050
G1 X129.930 Y113.475 E0.01674
G1 X117.070 Y100.615 E0.57050
G1 X117.070 Y100.081 E0.01674
G1 X129.930 Y112.941 E0.57050
G1 X129.930 Y112.408 E0.01674
G1 X117.070 Y99.548 E0.57050
G1 X117.070 Y99.014 E0.01674
G1 X129.930 Y111.874 E0.57050
G1 X129.930 Y111.341 E0.01674
G1 X117.070 Y98.480 E0.57050
G1 X117.070 Y97.947 E0.01674
G1 X129.930 Y110.807 E0.57050
G1 X129.930 Y110.274 E0.01674
G1 X117.070 Y97.413 E0.57050
G1 X117.070 Y96.880 E0.01674
G1 X129.930 Y109.740 E0.57050
G1 X129.930 Y109.207 E0.01674
G1 X117.070 Y96.346 E0.57050
G1 X117.070 Y95.813 E0.01674
G1 X129.930 Y108.673 E0.57050
G1 X129.930 Y108.140 E0.01674
G1 X117.070 Y95.279 E0.57050
G1 X117.070 Y94.746 E0.01674
G1 X129.930 Y107.606 E0.57050
G1 X129.930 Y107.073 E0.01674
G1 X117.070 Y94.212 E0.57050
G1 X117.070 Y93.679 E0.01674
G1 X129.930 Y106.539 E0.57050
G1 X129.930 Y106.006 E0.01674
G1 X117.070 Y93.145 E0.57050
G1 X117.070 Y92.612 E0.01674
G1 X129.930 Y105.472 E0.57050
G1 X129.930 Y104.939 E0.01674
G1 X117.070 Y92.078 E0.57050
G1 X117.070 Y91.545 E0.01674
G1 X129.930 Y104.405 E0.57050
G1 X129.930 Y103.872 E0.01674
G1 X117.070 Y91.011 E0.57050
G1 X117.070 Y90.478 E0.01674
G1 X129.930 Y103.338 E0.57050
G1 X129.930 Y102.805 E0.01674
G1 X117.070 Y89.944 E0.57050
G1 X117.070 Y89.411 E0.01674
G1 X129.930 Y102.271 E0.57050
G1 X129.930 Y101.738 E0.01674
G1 X117.070 Y88.877 E0.57050
G1 X117.070 Y88.344 E0.01674
G1 X129.930 Y101.204 E0.57050
G1 X129.930 Y100.671 E0.01674
G1 X117.070 Y87.810 E0.57050
G1 X117.070 Y87.277 E0.01674
G1 X129.930 Y100.137 E0.57050
G1 X129.930 Y99.604 E0.01674
G1 X117.070 Y86.743 E0.57050
G1 X117.070 Y86.210 E0.01674
G1 X129.930 Y99.070 E0.57050
G1 X129.930 Y98.537 E0.01674
G1 X117.070 Y85.676 E0.57050
G1 X117.070 Y85.143 E0.01674
G1 X129.930 Y98.003 E0.57050
M73 Q1 S123
M73 P1 R121
G1 X129.930 Y97.469 E0.01674
G1 X117.070 Y84.609 E0.57050
G1 X117.070 Y84.076 E0.01674
G1 X129.930 Y96.936 E0.57050
G1 X129.930 Y96.402 E0.01674
G1 X117.070 Y83.542 E0.57050
G1 X117.070 Y83.009 E0.01674
G1 X129.930 Y95.869 E0.57050
G1 X129.930 Y95.335 E0.01674
G1 X117.070 Y82.475 E0.57050
G1 X117.070 Y81.942 E0.01674
G1 X129.930 Y94.802 E0.57050
G1 X129.930 Y94.268 E0.01674
G1 X117.070 Y81.408 E0.57050
G1 X117.070 Y80.875 E0.01674
G1 X129.930 Y93.735 E0.57050
G1 X129.930 Y93.201 E0.01674
G1 X117.070 Y80.341 E0.57050
G1 X117.070 Y79.808 E0.01674
G1 X129.930 Y92.668 E0.57050
G1 X129.930 Y92.134 E0.01674
G1 X117.070 Y79.274 E0.57050
G1 X117.070 Y78.741 E0.01674
G1 X129.930 Y91.601 E0.57050
G1 X129.930 Y91.067 E0.01674
G1 X117.070 Y78.207 E0.57050
G1 X117.070 Y77.674 E0.01674
G1 X129.930 Y90.534 E0.57050
G1 X129.930 Y90.000 E0.01674
G1 X117.070 Y77.140 E0.57050
G1 X117.070 Y76.607 E0.01674
G1 X129.930 Y89.467 E0.57050
G1 X129.930 Y88.933 E0.01674
G1 X117.070 Y76.073 E0.57050
G1 X117.070 Y75.540 E0.01674
G1 X129.930 Y88.400 E0.57050
G1 X129.930 Y87.866 E0.01674
G1 X117.070 Y75.006 E0.57050
G1 X117.070 Y74.473 E0.01674
G1 X129.930 Y87.333 E0.57050
G1 X129.930 Y86.799 E0.01674
G1 X117.070 Y73.939 E0.57050
G1 X117.070 Y73.406 E0.01674
G1 X129.930 Y86.266 E0.57050
G1 X129.930 Y85.732 E0.01674
G1 X117.070 Y72.872 E0.57050
G1 X117.070 Y72.339 E0.01674
G1 X129.930 Y85.199 E0.57050
G1 X129.930 Y84.665 E0.01674
G1 X117.070 Y71.805 E0.57050
G1 X117.070 Y71.272 E0.01674
G1 X129.930 Y84.132 E0.57050
G1 X129.930 Y83.598 E0.01674
G1 X117.070 Y70.738 E0.57050
G1 X117.070 Y70.204 E0.01674
G1 X129.930 Y83.065 E0.57050
G1 X129.930 Y82.531 E0.01674
G1 X117.070 Y69.671 E0.57050
G1 X117.070 Y69.137 E0.01674
G1 X129.930 Y81.998 E0.57050
G1 X129.930 Y81.464 E0.01674
G1 X117.070 Y68.604 E0.57050
G1 X117.070 Y68.070 E0.01674
G1 X129.930 Y80.931 E0.57050
G1 X129.930 Y80.397 E0.01674
G1 X117.070 Y67.537 E0.57050
G1 X117.070 Y67.003 E0.01674
G1 X129.930 Y79.864 E0.57050
G1 X129.930 Y79.330 E0.01674
G1 X117.070 Y66.470 E0.57050
G1 X117.070 Y65.936 E0.01674
G1 X129.930 Y78.797 E0.57050
G1 X129.930 Y78.263 E0.01674
G1 X117.070 Y65.403 E0.57050
G1 X117.070 Y64.869 E0.01674
G1 X129.930 Y77.730 E0.57050
G1 X129.930 Y77.196 E0.01674
G1 X117.070 Y64.336 E0.57050
G1 X117.070 Y63.802 E0.01674
G1 X129.930 Y76.663 E0.57050
G1 X129.930 Y76.129 E0.01674
G1 X117.070 Y63.269 E0.57050
G1 X117.070 Y62.735 E0.01674
G1 X129.930 Y75.596 E0.57050
G1 X129.930 Y75.062 E0.01674
G1 X117.070 Y62.202 E0.57050
G1 X117.070 Y61.668 E0.01674
G1 X129.930 Y74.529 E0.57050
G1 X129.930 Y73.995 E0.01674
G1 X117.070 Y61.135 E0.57050
G1 X117.070 Y60.601 E0.01674
G1 X129.930 Y73.462 E0.57050
G1 X129.930 Y72.928 E0.01674
G1 X117.070 Y60.068 E0.57050
G1 X117.070 Y59.534 E0.01674
G1 X129.930 Y72.395 E0.57050
G1 X129.930 Y71.861 E0.01674
G1 X117.070 Y59.001 E0.57050
G1 X117.070 Y58.467 E0.01674
G1 X129.930 Y71.328 E0.57050
G1 X129.930 Y70.794 E0.01674
G1 X117.070 Y57.934 E0.57050
G1 X117.070 Y57.400 E0.01674
G1 X129.930 Y70.261 E0.57050
G1 X129.930 Y69.727 E0.01674
G1 X117.070 Y56.867 E0.57050
G1 X117.070 Y56.333 E0.01674
G1 X129.930 Y69.194 E0.57050
G1 X129.930 Y68.660 E0.01674
G1 X117.070 Y55.800 E0.57050
G1 X117.070 Y55.266 E0.01674
G1 X129.930 Y68.126 E0.57050
