; generated by PrusaSlicer 2.2.0+win64 on 2023-01-05 at 14:01:33 UTC

; 

; external perimeters extrusion width = 0.45mm
; perimeters extrusion width = 0.45mm
; infill extrusion width = 0.45mm
; solid infill extrusion width = 0.45mm
; top infill extrusion width = 0.40mm
; support material extrusion width = 0.35mm
; first layer extrusion width = 0.42mm

M73 P0 R92
M73 Q0 S92
M201 X1000 Y1000 Z200 E5000 ; sets maximum accelerations, mm/sec^2
M203 X200 Y200 Z12 E120 ; sets maximum feedrates, mm/sec
M204 P1250 R1250 T1250 ; sets acceleration (P, T) and retract acceleration (R), mm/sec^2
M205 X8.00 Y8.00 Z0.40 E4.50 ; sets the jerk limits, mm/sec
M205 S0 T0 ; sets the minimum extruding and travel feed rate, mm/sec
M107
M862.3 P "MK3S" ; printer model check
M862.1 P0.4 ; nozzle diameter check
M115 U3.11.0 ; tell printer latest fw version
G90 ; use absolute coordinates
M83 ; extruder relative mode
M104 S220 ; set extruder temp
M140 S80 ; set bed temp
M190 S80 ; wait for bed temp
M109 S220 ; wait for extruder temp
G28 W ; home all without mesh bed level
G80 ; mesh bed leveling
G1 Y-3.0 F1000.0 ; go outside print area
G92 E0.0
G1 X60.0 E9.0 F1000.0 ; intro line
M73 Q0 S92
M73 P0 R91
G1 X100.0 E12.5 F1000.0 ; intro line
G92 E0.0
M221 S95

; Don't change E values below. Excessive value can damage the printer.
M907 E430 ; set extruder motor current
G21 ; set units to millimeters
G90 ; use absolute coordinates
M83 ; use relative distances for extrusion
M900 K0.05 ; Filament gcode LA 1.5
M900 K30 ; Filament gcode LA 1.0
;BEFORE_LAYER_CHANGE
G92 E0.0
;0.2


G1 E-0.80000 F2100.00000
G1 Z0.400 F10800.000
;AFTER_LAYER_CHANGE
;0.2
G1 X148.842 Y82.095
G1 Z0.200
G1 E0.80000 F2100.00000
M204 S1000
G1 F1200.000
G1 X148.877 Y132.500 E1.58043
G1 X148.821 Y133.014 E0.01621
G1 X148.513 Y133.764 E0.02543
G1 X147.971 Y134.368 E0.02543
G1 X133.956 Y144.817 E0.54812
G1 X133.447 Y145.105 E0.01835
G1 X132.564 Y145.284 E0.02825
G1 X119.709 Y145.284 E0.40304
G1 X119.207 Y145.228 E0.01585
G1 X118.371 Y144.863 E0.02860
G1 X102.095 Y133.418 E0.62385
G1 X101.520 Y132.815 E0.02614
G1 X101.187 Y132.050 E0.02614
G1 X101.123 Y131.507 E0.01716
G1 X101.127 Y103.359 E0.88255
G1 X104.180 Y81.984 E0.67700
G1 X104.369 Y81.446 E0.01787
G1 X108.623 Y73.010 E0.29624
G1 X113.246 Y65.903 E0.26584
G1 X113.626 Y65.478 E0.01787
G1 X114.099 Y65.154 E0.01799
G1 X114.618 Y64.957 E0.01740
G1 X115.168 Y64.886 E0.01740
G1 X137.070 Y64.885 E0.68672
G1 X137.644 Y64.957 E0.01811
G1 X138.179 Y65.162 E0.01799
G1 X138.650 Y65.490 E0.01799
G1 X139.029 Y65.921 E0.01799
G1 X148.533 Y81.268 E0.56601
G1 X148.821 Y82.038 E0.02578
; printing object L shoulder bottom.STL id:0 copy 0
G1 F8640.000
G1 X148.825 Y85.330 E-0.76000
G1 E-0.04000 F2100.00000
G1 Z0.600 F10800.000
G1 X137.067 Y82.256
G1 Z0.200
G1 E0.80000 F2100.00000
G1 F1200.000
G1 X137.067 Y67.263 E0.47011
G1 X136.312 Y67.263 E0.02365
G1 X136.312 Y82.086 E0.46479
G1 X135.558 Y82.086 E0.02365
G1 X135.558 Y67.263 E0.46479
G1 X134.804 Y67.263 E0.02365
G1 X134.804 Y82.086 E0.46479
G1 X134.050 Y82.086 E0.02365
G1 X134.050 Y67.263 E0.46479
G1 X133.296 Y67.263 E0.02365
G1 X133.296 Y82.086 E0.46479
G1 X132.542 Y82.086 E0.02365
G1 X132.542 Y67.263 E0.46479
G1 X131.787 Y67.263 E0.02365
G1 X131.787 Y82.086 E0.46479
G1 X131.033 Y82.086 E0.02365
G1 X131.033 Y67.263 E0.46479
G1 X130.279 Y67.263 E0.02365
G1 X130.279 Y82.086 E0.46479
G1 X129.525 Y82.086 E0.02365
G1 X129.525 Y67.263 E0.46479
G1 X128.771 Y67.263 E0.02365
G1 X128.771 Y82.086 E0.46479
G1 X128.017 Y82.086 E0.02365
G1 X128.017 Y67.263 E0.46479
G1 X127.262 Y67.263 E0.02365
G1 X127.262 Y82.086 E0.46479
G1 X126.665 Y82.086 E0.01872
G1 X126.665 Y77.839 E0.13318
G1 X126.508 Y77.839 E0.00492
G1 X126.508 Y67.263 E0.33161
G1 X125.754 Y67.263 E0.02365
G1 X125.754 Y77.839 E0.33161
G1 X125.652 Y77.839 E0.00319
G1 X125.652 Y82.086 E0.13318
G1 X125.000 Y82.086 E0.02046
G1 X125.000 Y67.263 E0.46479
G1 X124.246 Y67.263 E0.02365
G1 X124.246 Y82.086 E0.46479
G1 X123.492 Y82.086 E0.02365
G1 X123.492 Y67.263 E0.46479
G1 X122.738 Y67.263 E0.02365
G1 X122.738 Y82.086 E0.46479
G1 X121.983 Y82.086 E0.02365
G1 X121.983 Y67.263 E0.46479
G1 X121.229 Y67.263 E0.02365
G1 X121.229 Y82.086 E0.46479
G1 X120.475 Y82.086 E0.02365
G1 X120.475 Y67.263 E0.46479
G1 X119.721 Y67.263 E0.02365
G1 X119.721 Y82.086 E0.46479
G1 X118.967 Y82.086 E0.02365
G1 X118.967 Y67.263 E0.46479
G1 X118.213 Y67.263 E0.02365
G1 X118.213 Y82.086 E0.46479
G1 X117.458 Y82.086 E0.02365
G1 X117.458 Y67.263 E0.46479
G1 X116.704 Y67.263 E0.02365
G1 X116.704 Y82.086 E0.46479
G1 X115.950 Y82.086 E0.02365
G1 X115.950 Y67.263 E0.46479
G1 X115.196 Y67.263 E0.02365
G1 X115.196 Y82.086 E0.46479
G1 X114.442 Y82.086 E0.02365
G1 X114.442 Y74.216 E0.24677
G1 X113.688 Y74.216 E0.02365
G1 X113.688 Y82.086 E0.24677
G1 X112.933 Y82.086 E0.02365
G1 X112.933 Y74.216 E0.24677
G1 X112.179 Y74.216 E0.02365
G1 X112.179 Y82.086 E0.24677
G1 X111.425 Y82.086 E0.02365
G1 X111.425 Y74.216 E0.24677
G1 X110.671 Y74.216 E0.02365
G1 X110.671 Y82.256 E0.25209
G1 F8640.000
G1 X110.671 Y78.965 E-0.76000
G1 E-0.04000 F2100.00000
G1 Z0.600 F10800.000
G1 X119.721 Y142.907
G1 Z0.200
G1 E0.80000 F2100.00000
G1 F1200.000
G1 X119.721 Y132.914 E0.31334
G1 X120.475 Y132.914 E0.02365
G1 X120.475 Y142.737 E0.30802
G1 X121.229 Y142.737 E0.02365
G1 X121.229 Y132.914 E0.30802
G1 X121.983 Y132.914 E0.02365
G1 X121.983 Y142.737 E0.30802
G1 X122.738 Y142.737 E0.02365
G1 X122.738 Y132.914 E0.30802
G1 X123.492 Y132.914 E0.02365
G1 X123.492 Y142.737 E0.30802
G1 X124.246 Y142.737 E0.02365
G1 X124.246 Y132.914 E0.30802
G1 X125.000 Y132.914 E0.02365
G1 X125.000 Y142.737 E0.30802
G1 X125.754 Y142.737 E0.02365
G1 X125.754 Y132.914 E0.30802
G1 X126.508 Y132.914 E0.02365
G1 X126.508 Y142.737 E0.30802
G1 X127.262 Y142.737 E0.02365
G1 X127.262 Y132.914 E0.30802
G1 X128.017 Y132.914 E0.02365
G1 X128.017 Y142.737 E0.30802
G1 X128.771 Y142.737 E0.02365
G1 X128.771 Y132.914 E0.30802
G1 X129.525 Y132.914 E0.02365
G1 X129.525 Y142.737 E0.30802
G1 X130.279 Y142.737 E0.02365
G1 X130.279 Y132.914 E0.30802
G1 X131.033 Y132.914 E0.02365
G1 X131.033 Y142.737 E0.30802
G1 X131.787 Y142.737 E0.02365
G1 X131.787 Y132.914 E0.30802
G1 X132.542 Y132.914 E0.02365
G1 X132.542 Y142.907 E0.31334
G1 F8640.000
G1 X132.542 Y139.616 E-0.76000
G1 E-0.04000 F2100.00000
G1 Z0.600 F10800.000
G1 X122.163 Y104.285
G1 Z0.200
G1 E0.80000 F2100.00000
G1 F1200.000
G1 X121.861 Y104.364 E0.00979
G1 X121.550 Y104.390 E0.00978
G1 X121.239 Y104.364 E0.00978
G1 X120.937 Y104.285 E0.00978
G1 X120.653 Y104.157 E0.00978
G1 X120.394 Y103.982 E0.00978
G1 X120.190 Y103.786 E0.00887
G1 X119.986 Y103.520 E0.01053
G1 X119.843 Y103.236 E0.00995
G1 X119.752 Y102.938 E0.00978
G1 X119.712 Y102.628 E0.00978
G1 X119.725 Y102.317 E0.00978
G1 X119.791 Y102.011 E0.00978
G1 X119.896 Y101.749 E0.00887
G1 X120.068 Y101.460 E0.01053
G1 X120.277 Y101.222 E0.00995
G1 X120.520 Y101.026 E0.00979
G1 X120.792 Y100.874 E0.00978
G1 X121.098 Y100.766 E0.01016
G1 X121.535 Y100.709 E0.01383
G1 X122.000 Y100.765 E0.01467
G1 X122.308 Y100.874 E0.01025
G1 X122.581 Y101.026 E0.00978
G1 X122.823 Y101.222 E0.00979
G1 X123.030 Y101.456 E0.00978
G1 X123.193 Y101.722 E0.00978
G1 X123.310 Y102.011 E0.00979
G1 X123.375 Y102.317 E0.00978
G1 X123.389 Y102.628 E0.00978
G1 X123.349 Y102.938 E0.00978
G1 X123.257 Y103.236 E0.00978
G1 X123.117 Y103.515 E0.00979
G1 X122.931 Y103.766 E0.00978
G1 X122.727 Y103.962 E0.00887
G1 X122.452 Y104.154 E0.01053
G1 X122.218 Y104.260 E0.00806
G1 X122.265 Y103.825 F10800.000
G1 F1200.000
G1 X122.037 Y103.928 E0.00783
G1 X121.797 Y103.991 E0.00777
G1 X121.550 Y104.012 E0.00777
G1 X121.303 Y103.991 E0.00777
G1 X121.063 Y103.928 E0.00777
G1 X120.837 Y103.826 E0.00777
G1 X120.632 Y103.687 E0.00777
G1 X120.472 Y103.534 E0.00696
G1 X120.307 Y103.318 E0.00852
G1 X120.194 Y103.095 E0.00783
G1 X120.122 Y102.858 E0.00777
G1 X120.090 Y102.612 E0.00777
G1 X120.101 Y102.365 E0.00777
G1 X120.153 Y102.122 E0.00777
G1 X120.236 Y101.916 E0.00696
G1 X120.374 Y101.683 E0.00852
G1 X120.539 Y101.495 E0.00783
G1 X120.732 Y101.339 E0.00777
G1 X120.948 Y101.219 E0.00777
G1 X121.186 Y101.134 E0.00791
G1 X121.537 Y101.089 E0.01110
G1 X121.913 Y101.134 E0.01188
G1 X122.152 Y101.219 E0.00794
G1 X122.369 Y101.339 E0.00777
G1 X122.562 Y101.495 E0.00777
G1 X122.725 Y101.681 E0.00777
G1 X122.855 Y101.892 E0.00777
G1 X122.948 Y102.122 E0.00777
G1 X123.000 Y102.365 E0.00777
G1 X123.010 Y102.612 E0.00777
G1 X122.979 Y102.858 E0.00777
G1 X122.906 Y103.095 E0.00777
G1 X122.795 Y103.317 E0.00777
G1 X122.647 Y103.516 E0.00777
G1 X122.487 Y103.669 E0.00696
G1 X122.314 Y103.791 E0.00664
G1 X122.261 Y104.075 F10800.000
G1 F8640.000
G1 X122.037 Y103.928 E-0.07132
G1 X121.797 Y103.991 E-0.05724
G1 X121.550 Y104.012 E-0.05724
G1 X121.303 Y103.991 E-0.05724
G1 X121.063 Y103.928 E-0.05724
G1 X120.837 Y103.826 E-0.05724
G1 X120.632 Y103.687 E-0.05724
G1 X120.472 Y103.534 E-0.05124
G1 X120.307 Y103.318 E-0.06274
G1 X120.194 Y103.095 E-0.05766
G1 X120.122 Y102.858 E-0.05724
G1 X120.090 Y102.612 E-0.05724
G1 X120.101 Y102.365 E-0.05724
G1 X120.102 Y102.357 E-0.00190
G1 E-0.04000 F2100.00000
G1 Z0.600 F10800.000
G1 X121.705 Y110.616
G1 Z0.200
G1 E0.80000 F2100.00000
G1 F1200.000
G1 X122.014 Y110.669 E0.00981
G1 X122.308 Y110.773 E0.00978
G1 X122.581 Y110.925 E0.00978
G1 X122.823 Y111.121 E0.00978
G1 X123.030 Y111.356 E0.00978
G1 X123.193 Y111.621 E0.00978
G1 X123.299 Y111.884 E0.00887
G1 X123.375 Y112.211 E0.01053
G1 X123.389 Y112.528 E0.00994
G1 X123.349 Y112.837 E0.00978
G1 X123.257 Y113.136 E0.00978
G1 X123.117 Y113.414 E0.00978
G1 X122.931 Y113.665 E0.00978
G1 X122.706 Y113.881 E0.00978
G1 X122.448 Y114.056 E0.00978
G1 X122.163 Y114.185 E0.00978
G1 X121.861 Y114.263 E0.00979
G1 X121.550 Y114.290 E0.00978
G1 X121.239 Y114.263 E0.00978
G1 X120.937 Y114.185 E0.00978
G1 X120.653 Y114.056 E0.00978
G1 X120.394 Y113.881 E0.00978
G1 X120.169 Y113.665 E0.00978
G1 X119.984 Y113.414 E0.00978
G1 X119.843 Y113.136 E0.00978
G1 X119.752 Y112.837 E0.00978
G1 X119.712 Y112.528 E0.00978
G1 X119.725 Y112.216 E0.00978
G1 X119.791 Y111.911 E0.00978
G1 X119.896 Y111.649 E0.00887
G1 X120.068 Y111.360 E0.01053
G1 X120.277 Y111.121 E0.00994
G1 X120.520 Y110.925 E0.00978
G1 X120.792 Y110.773 E0.00978
G1 X121.087 Y110.669 E0.00978
G1 X121.395 Y110.616 E0.00981
G1 X121.645 Y110.616 E0.00785
G1 X121.645 Y110.993 F10800.000
G1 F1200.000
G1 X121.919 Y111.035 E0.00866
G1 X122.152 Y111.118 E0.00777
G1 X122.369 Y111.239 E0.00777
G1 X122.562 Y111.395 E0.00777
G1 X122.725 Y111.581 E0.00777
G1 X122.855 Y111.792 E0.00777
G1 X122.938 Y111.998 E0.00696
G1 X123.000 Y112.262 E0.00852
G1 X123.010 Y112.512 E0.00783
G1 X122.979 Y112.758 E0.00777
G1 X122.906 Y112.995 E0.00777
G1 X122.795 Y113.216 E0.00777
G1 X122.647 Y113.415 E0.00777
G1 X122.468 Y113.587 E0.00777
G1 X122.263 Y113.726 E0.00777
G1 X122.037 Y113.828 E0.00777
G1 X121.797 Y113.890 E0.00777
G1 X121.550 Y113.911 E0.00777
G1 X121.303 Y113.890 E0.00777
G1 X121.063 Y113.828 E0.00777
G1 X120.837 Y113.726 E0.00777
G1 X120.632 Y113.587 E0.00777
G1 X120.453 Y113.415 E0.00777
G1 X120.306 Y113.216 E0.00777
G1 X120.194 Y112.995 E0.00777
G1 X120.122 Y112.758 E0.00777
G1 X120.090 Y112.512 E0.00777
G1 X120.101 Y112.264 E0.00777
G1 X120.153 Y112.022 E0.00777
G1 X120.236 Y111.816 E0.00696
G1 X120.374 Y111.582 E0.00852
G1 X120.539 Y111.395 E0.00783
G1 X120.732 Y111.239 E0.00777
G1 X120.948 Y111.118 E0.00777
G1 X121.182 Y111.035 E0.00777
G1 X121.427 Y110.993 E0.00780
G1 X121.585 Y110.993 E0.00496
G1 X121.800 Y110.765 F10800.000
G1 F8640.000
G1 X121.919 Y111.035 E-0.07753
G1 X122.152 Y111.118 E-0.05724
G1 X122.369 Y111.239 E-0.05724
G1 X122.562 Y111.395 E-0.05724
G1 X122.725 Y111.581 E-0.05724
G1 X122.855 Y111.792 E-0.05724
G1 X122.938 Y111.998 E-0.05124
G1 X123.000 Y112.262 E-0.06274
G1 X123.010 Y112.512 E-0.05766
G1 X122.979 Y112.758 E-0.05724
G1 X122.906 Y112.995 E-0.05724
G1 X122.795 Y113.216 E-0.05724
G1 X122.658 Y113.400 E-0.05294
G1 E-0.04000 F2100.00000
G1 Z0.600 F10800.000
G1 X129.625 Y112.216
G1 Z0.200
G1 E0.80000 F2100.00000
G1 F1200.000
G1 X129.690 Y111.911 E0.00978
G1 X129.796 Y111.649 E0.00887
G1 X129.967 Y111.360 E0.01053
G1 X130.177 Y111.121 E0.00995
G1 X130.419 Y110.925 E0.00978
G1 X130.692 Y110.773 E0.00978
G1 X130.998 Y110.665 E0.01016
G1 X131.435 Y110.608 E0.01383
G1 X131.899 Y110.664 E0.01467
G1 X132.208 Y110.773 E0.01025
G1 X132.480 Y110.925 E0.00978
G1 X132.723 Y111.121 E0.00978
G1 X132.929 Y111.356 E0.00978
G1 X133.093 Y111.621 E0.00978
G1 X133.198 Y111.884 E0.00887
G1 X133.275 Y112.211 E0.01053
G1 X133.288 Y112.528 E0.00995
G1 X133.248 Y112.837 E0.00978
G1 X133.157 Y113.136 E0.00978
G1 X133.016 Y113.414 E0.00978
G1 X132.831 Y113.665 E0.00978
G1 X132.606 Y113.881 E0.00979
G1 X132.347 Y114.056 E0.00978
G1 X132.063 Y114.185 E0.00978
G1 X131.761 Y114.263 E0.00978
G1 X131.450 Y114.290 E0.00978
G1 X131.139 Y114.263 E0.00978
G1 X130.837 Y114.185 E0.00978
G1 X130.552 Y114.056 E0.00978
G1 X130.294 Y113.881 E0.00978
G1 X130.069 Y113.665 E0.00978
G1 X129.883 Y113.414 E0.00978
G1 X129.743 Y113.136 E0.00978
G1 X129.651 Y112.837 E0.00979
G1 X129.611 Y112.528 E0.00978
G1 X129.622 Y112.276 E0.00790
G1 X129.999 Y112.292 F10800.000
G1 F1200.000
G1 X130.052 Y112.022 E0.00864
G1 X130.135 Y111.816 E0.00696
G1 X130.274 Y111.582 E0.00852
G1 X130.438 Y111.395 E0.00783
G1 X130.631 Y111.239 E0.00777
G1 X130.848 Y111.118 E0.00777
G1 X131.086 Y111.034 E0.00791
G1 X131.437 Y110.988 E0.01110
G1 X131.813 Y111.034 E0.01188
G1 X132.052 Y111.118 E0.00794
G1 X132.268 Y111.239 E0.00777
G1 X132.461 Y111.395 E0.00777
G1 X132.625 Y111.581 E0.00777
G1 X132.755 Y111.792 E0.00777
G1 X132.837 Y111.998 E0.00696
G1 X132.899 Y112.262 E0.00852
G1 X132.910 Y112.512 E0.00783
G1 X132.878 Y112.758 E0.00777
G1 X132.806 Y112.995 E0.00777
G1 X132.694 Y113.216 E0.00777
G1 X132.547 Y113.415 E0.00777
G1 X132.368 Y113.587 E0.00777
G1 X132.163 Y113.726 E0.00777
G1 X131.937 Y113.828 E0.00777
G1 X131.697 Y113.890 E0.00777
G1 X131.450 Y113.911 E0.00777
G1 X131.203 Y113.890 E0.00777
G1 X130.963 Y113.828 E0.00777
G1 X130.737 Y113.726 E0.00777
G1 X130.532 Y113.587 E0.00777
G1 X130.353 Y113.415 E0.00777
G1 X130.205 Y113.216 E0.00777
G1 X130.094 Y112.995 E0.00777
G1 X130.021 Y112.758 E0.00777
G1 X129.990 Y112.512 E0.00777
G1 X129.996 Y112.352 E0.00502
G1 X129.778 Y112.128 F10800.000
G1 F8640.000
G1 X130.052 Y112.022 E-0.07732
G1 X130.135 Y111.816 E-0.05124
G1 X130.274 Y111.582 E-0.06274
G1 X130.438 Y111.395 E-0.05766
G1 X130.631 Y111.239 E-0.05724
G1 X130.848 Y111.118 E-0.05724
G1 X131.086 Y111.034 E-0.05824
G1 X131.437 Y110.988 E-0.08176
G1 X131.813 Y111.034 E-0.08751
G1 X132.052 Y111.118 E-0.05847
G1 X132.268 Y111.239 E-0.05724
G1 X132.448 Y111.384 E-0.05336
G1 E-0.04000 F2100.00000
G1 Z0.600 F10800.000
G1 X131.139 Y104.364
G1 Z0.200
G1 E0.80000 F2100.00000
G1 F1200.000
G1 X130.837 Y104.285 E0.00978
G1 X130.552 Y104.157 E0.00978
G1 X130.294 Y103.982 E0.00978
G1 X130.069 Y103.766 E0.00978
G1 X129.883 Y103.515 E0.00978
G1 X129.743 Y103.236 E0.00978
G1 X129.651 Y102.938 E0.00979
G1 X129.611 Y102.628 E0.00978
G1 X129.625 Y102.317 E0.00978
G1 X129.690 Y102.011 E0.00978
G1 X129.796 Y101.749 E0.00887
G1 X129.967 Y101.460 E0.01053
G1 X130.177 Y101.222 E0.00995
G1 X130.419 Y101.026 E0.00978
G1 X130.692 Y100.874 E0.00978
G1 X130.986 Y100.770 E0.00978
G1 X131.295 Y100.717 E0.00981
G1 X131.605 Y100.717 E0.00973
G1 X131.913 Y100.770 E0.00981
G1 X132.208 Y100.874 E0.00978
G1 X132.480 Y101.026 E0.00978
G1 X132.723 Y101.222 E0.00978
G1 X132.929 Y101.456 E0.00978
G1 X133.093 Y101.722 E0.00978
G1 X133.209 Y102.011 E0.00978
G1 X133.275 Y102.317 E0.00978
G1 X133.288 Y102.628 E0.00979
G1 X133.248 Y102.938 E0.00978
G1 X133.157 Y103.236 E0.00978
G1 X133.016 Y103.515 E0.00979
G1 X132.831 Y103.766 E0.00978
G1 X132.606 Y103.982 E0.00978
G1 X132.347 Y104.157 E0.00978
G1 X132.063 Y104.285 E0.00978
G1 X131.761 Y104.364 E0.00978
G1 X131.450 Y104.390 E0.00978
G1 X131.199 Y104.369 E0.00790
G1 X131.231 Y103.993 F10800.000
G1 F1200.000
G1 X130.963 Y103.928 E0.00864
G1 X130.737 Y103.826 E0.00777
G1 X130.532 Y103.687 E0.00777
G1 X130.353 Y103.516 E0.00777
