; generated by PrusaSlicer 2.2.0+win64 on 2023-01-06 at 16:43:25 UTC

; 

; external perimeters extrusion width = 0.45mm
; perimeters extrusion width = 0.45mm
; infill extrusion width = 0.45mm
; solid infill extrusion width = 0.45mm
; top infill extrusion width = 0.40mm
; support material extrusion width = 0.35mm
; first layer extrusion width = 0.42mm

M73 P0 R162
M73 Q0 S165
M201 X1000 Y1000 Z200 E5000 ; sets maximum accelerations, mm/sec^2
M203 X200 Y200 Z12 E120 ; sets maximum feedrates, mm/sec
M204 P1250 R1250 T1250 ; sets acceleration (P, T) and retract acceleration (R), mm/sec^2
M205 X8.00 Y8.00 Z0.40 E4.50 ; sets the jerk limits, mm/sec
M205 S0 T0 ; sets the minimum extruding and travel feed rate, mm/sec
M107
M862.3 P "MK3S" ; printer model check
M862.1 P0.4 ; nozzle diameter check
M115 U3.11.0 ; tell printer latest fw version
G90 ; use absolute coordinates
M83 ; extruder relative mode
M104 S220 ; set extruder temp
M140 S80 ; set bed temp
M190 S80 ; wait for bed temp
M109 S220 ; wait for extruder temp
G28 W ; home all without mesh bed level
G80 ; mesh bed leveling
G1 Y-3.0 F1000.0 ; go outside print area
G92 E0.0
G1 X60.0 E9.0 F1000.0 ; intro line
M73 Q0 S165
M73 P0 R162
G1 X100.0 E12.5 F1000.0 ; intro line
G92 E0.0
M221 S95

; Don't change E values below. Excessive value can damage the printer.
M907 E430 ; set extruder motor current
G21 ; set units to millimeters
G90 ; use absolute coordinates
M83 ; use relative distances for extrusion
M900 K0.05 ; Filament gcode LA 1.5
M900 K30 ; Filament gcode LA 1.0
;BEFORE_LAYER_CHANGE
G92 E0.0
;0.2


G1 E-0.80000 F2100.00000
G1 Z0.400 F10800.000
;AFTER_LAYER_CHANGE
;0.2
G1 X83.097 Y40.382
G1 Z0.200
G1 E0.80000 F2100.00000
M204 S1000
G1 F1200.000
G1 X83.691 Y39.802 E0.02602
G1 X86.905 Y37.890 E0.11725
G1 X87.383 Y37.704 E0.01609
G1 X87.886 Y37.626 E0.01597
G1 X156.004 Y37.623 E2.13577
G1 X156.713 Y37.732 E0.02249
G1 X157.356 Y38.048 E0.02249
G1 X166.394 Y44.499 E0.34816
G1 X166.785 Y44.866 E0.01680
G1 X167.083 Y45.312 E0.01680
G1 X167.275 Y45.820 E0.01704
G1 X167.347 Y46.359 E0.01704
G1 X167.345 Y59.584 E0.41467
G1 X149.789 Y164.641 E3.33966
G1 X149.436 Y165.379 E0.02567
G1 X148.853 Y165.954 E0.02567
G1 X131.153 Y177.567 E0.66377
G1 X130.294 Y177.733 E0.02743
G1 X117.443 Y177.733 E0.40292
G1 X116.819 Y177.646 E0.01977
G1 X115.995 Y177.229 E0.02896
G1 X102.986 Y166.833 E0.52212
G1 X102.490 Y166.269 E0.02355
G1 X102.194 Y165.575 E0.02367
G1 X85.652 Y85.368 E2.56777
G1 X82.658 Y59.623 E0.81265
G1 X82.653 Y41.755 E0.56023
G1 X82.740 Y41.127 E0.01989
G1 X83.071 Y40.436 E0.02402
; printing object L thigh top.STL id:0 copy 0
G1 F8640.000
G1 X83.691 Y39.802 E-0.20469
G1 X85.758 Y38.573 E-0.55531
G1 E-0.04000 F2100.00000
G1 Z0.600 F10800.000
G1 X94.079 Y41.597
G1 Z0.200
G1 E0.80000 F2100.00000
G1 F1200.000
G1 X94.079 Y59.296 E0.55495
G1 X94.834 Y59.296 E0.02365
G1 X94.834 Y41.767 E0.54963
G1 X95.588 Y41.767 E0.02365
G1 X95.588 Y59.296 E0.54963
G1 X96.342 Y59.296 E0.02365
G1 X96.342 Y41.767 E0.54963
G1 X97.096 Y41.767 E0.02365
G1 X97.096 Y59.466 E0.55495
G1 F8640.000
G1 X97.096 Y56.175 E-0.76000
G1 E-0.04000 F2100.00000
G1 Z0.600 F10800.000
G1 X87.292 Y59.466
G1 Z0.200
G1 E0.80000 F2100.00000
G1 F1200.000
G1 X87.292 Y41.767 E0.55495
G1 X86.538 Y41.767 E0.02365
G1 X86.538 Y59.296 E0.54963
G1 X85.784 Y59.296 E0.02365
G1 X85.784 Y41.767 E0.54963
G1 X85.030 Y41.767 E0.02365
G1 X85.030 Y59.466 E0.55495
G1 F8640.000
G1 X85.030 Y56.175 E-0.76000
G1 E-0.04000 F2100.00000
G1 Z0.600 F10800.000
G1 X101.621 Y85.244
G1 Z0.200
G1 E0.80000 F2100.00000
G1 F1200.000
G1 X101.621 Y119.559 E1.07594
G1 X102.375 Y119.559 E0.02365
G1 X102.375 Y85.414 E1.07062
G1 X103.129 Y85.414 E0.02365
G1 X103.129 Y119.559 E1.07062
G1 X103.884 Y119.559 E0.02365
G1 X103.884 Y85.414 E1.07062
G1 X104.638 Y85.414 E0.02365
G1 X104.638 Y114.586 E0.91470
G1 X105.392 Y114.586 E0.02365
G1 X105.392 Y85.414 E0.91470
G1 X106.146 Y85.414 E0.02365
G1 X106.146 Y114.586 E0.91470
G1 X106.900 Y114.586 E0.02365
G1 X106.900 Y85.414 E0.91470
G1 X107.654 Y85.414 E0.02365
G1 X107.654 Y114.586 E0.91470
G1 X108.409 Y114.586 E0.02365
G1 X108.409 Y85.414 E0.91470
G1 X109.163 Y85.414 E0.02365
G1 X109.163 Y114.586 E0.91470
G1 X109.917 Y114.586 E0.02365
G1 X109.917 Y85.414 E0.91470
G1 X110.671 Y85.414 E0.02365
G1 X110.671 Y114.586 E0.91470
G1 X111.425 Y114.586 E0.02365
G1 X111.425 Y85.414 E0.91470
G1 X112.179 Y85.414 E0.02365
G1 X112.179 Y114.586 E0.91470
G1 X112.933 Y114.586 E0.02365
G1 X112.933 Y85.414 E0.91470
G1 X113.688 Y85.414 E0.02365
G1 X113.688 Y114.756 E0.92002
G1 F8640.000
G1 X113.688 Y111.465 E-0.76000
G1 E-0.04000 F2100.00000
G1 Z0.600 F10800.000
G1 X148.379 Y119.729
G1 Z0.200
G1 E0.80000 F2100.00000
M73 Q0 S164
G1 F1200.000
G1 X148.379 Y85.414 E1.07594
M73 P0 R161
G1 X147.625 Y85.414 E0.02365
G1 X147.625 Y119.559 E1.07062
G1 X146.871 Y119.559 E0.02365
G1 X146.871 Y85.414 E1.07062
G1 X146.116 Y85.414 E0.02365
G1 X146.116 Y119.559 E1.07062
G1 X145.362 Y119.559 E0.02365
G1 X145.362 Y85.414 E1.07062
G1 X144.608 Y85.414 E0.02365
G1 X144.608 Y114.586 E0.91470
G1 X143.854 Y114.586 E0.02365
G1 X143.854 Y85.414 E0.91470
G1 X143.100 Y85.414 E0.02365
G1 X143.100 Y114.586 E0.91470
G1 X142.346 Y114.586 E0.02365
G1 X142.346 Y85.414 E0.91470
G1 X141.591 Y85.414 E0.02365
G1 X141.591 Y114.586 E0.91470
G1 X140.837 Y114.586 E0.02365
G1 X140.837 Y85.414 E0.91470
G1 X140.083 Y85.414 E0.02365
G1 X140.083 Y114.586 E0.91470
G1 X139.329 Y114.586 E0.02365
G1 X139.329 Y85.414 E0.91470
G1 X138.575 Y85.414 E0.02365
G1 X138.575 Y114.586 E0.91470
G1 X137.821 Y114.586 E0.02365
G1 X137.821 Y85.414 E0.91470
G1 X137.067 Y85.414 E0.02365
G1 X137.067 Y114.586 E0.91470
G1 X136.312 Y114.586 E0.02365
G1 X136.312 Y85.244 E0.92002
G1 F8640.000
G1 X136.312 Y88.535 E-0.76000
G1 E-0.04000 F2100.00000
G1 Z0.600 F10800.000
G1 X138.575 Y57.148
G1 Z0.200
G1 E0.80000 F2100.00000
G1 F1200.000
G1 X138.575 Y44.084 E0.40960
G1 X139.329 Y44.084 E0.02365
G1 X139.329 Y56.978 E0.40428
G1 X140.083 Y56.978 E0.02365
G1 X140.083 Y44.084 E0.40428
G1 X140.837 Y44.084 E0.02365
G1 X140.837 Y56.978 E0.40428
G1 X141.592 Y56.978 E0.02365
G1 X141.592 Y44.084 E0.40428
G1 X142.346 Y44.084 E0.02365
G1 X142.346 Y56.978 E0.40428
G1 X143.100 Y56.978 E0.02365
G1 X143.100 Y44.084 E0.40428
G1 X143.854 Y44.084 E0.02365
G1 X143.854 Y56.978 E0.40428
G1 X144.608 Y56.978 E0.02365
G1 X144.608 Y44.084 E0.40428
G1 X145.362 Y44.084 E0.02365
G1 X145.362 Y56.978 E0.40428
G1 X146.116 Y56.978 E0.02365
G1 X146.116 Y44.084 E0.40428
G1 X146.871 Y44.084 E0.02365
G1 X146.871 Y56.978 E0.40428
G1 X147.625 Y56.978 E0.02365
G1 X147.625 Y44.084 E0.40428
G1 X148.379 Y44.084 E0.02365
G1 X148.379 Y56.978 E0.40428
G1 X149.133 Y56.978 E0.02365
G1 X149.133 Y44.084 E0.40428
G1 X149.887 Y44.084 E0.02365
G1 X149.887 Y57.148 E0.40960
G1 F8640.000
G1 X149.887 Y53.857 E-0.76000
G1 E-0.04000 F2100.00000
G1 Z0.600 F10800.000
G1 X156.675 Y59.466
G1 Z0.200
G1 E0.80000 F2100.00000
G1 F1200.000
G1 X156.675 Y46.402 E0.40960
G1 X157.429 Y46.402 E0.02365
G1 X157.429 Y59.296 E0.40428
G1 X158.183 Y59.296 E0.02365
G1 X158.183 Y46.402 E0.40428
G1 X158.937 Y46.402 E0.02365
G1 X158.937 Y59.296 E0.40428
G1 X159.691 Y59.296 E0.02365
G1 X159.691 Y46.402 E0.40428
G1 X160.445 Y46.402 E0.02365
G1 X160.445 Y59.296 E0.40428
G1 X161.200 Y59.296 E0.02365
G1 X161.200 Y46.402 E0.40428
G1 X161.954 Y46.402 E0.02365
G1 X161.954 Y59.296 E0.40428
G1 X162.708 Y59.296 E0.02365
G1 X162.708 Y46.402 E0.40428
G1 X163.462 Y46.402 E0.02365
G1 X163.462 Y59.296 E0.40428
G1 X164.216 Y59.296 E0.02365
G1 X164.216 Y46.402 E0.40428
G1 X164.970 Y46.402 E0.02365
G1 X164.970 Y59.466 E0.40960
G1 F8640.000
G1 X164.970 Y56.175 E-0.76000
G1 E-0.04000 F2100.00000
G1 Z0.600 F10800.000
G1 X130.279 Y175.356
G1 Z0.200
G1 E0.80000 F2100.00000
G1 F1200.000
G1 X130.279 Y165.414 E0.31175
G1 X129.525 Y165.414 E0.02365
G1 X129.525 Y175.187 E0.30643
G1 X128.771 Y175.187 E0.02365
G1 X128.771 Y165.414 E0.30643
G1 X128.017 Y165.414 E0.02365
G1 X128.017 Y175.187 E0.30643
G1 X127.262 Y175.187 E0.02365
G1 X127.262 Y165.414 E0.30643
G1 X126.508 Y165.414 E0.02365
G1 X126.508 Y175.187 E0.30643
G1 X125.754 Y175.187 E0.02365
G1 X125.754 Y165.414 E0.30643
G1 X125.000 Y165.414 E0.02365
G1 X125.000 Y175.187 E0.30643
G1 X124.246 Y175.187 E0.02365
G1 X124.246 Y165.414 E0.30643
G1 X123.492 Y165.414 E0.02365
G1 X123.492 Y175.187 E0.30643
G1 X122.738 Y175.187 E0.02365
G1 X122.738 Y165.414 E0.30643
G1 X121.983 Y165.414 E0.02365
G1 X121.983 Y175.187 E0.30643
G1 X121.229 Y175.187 E0.02365
G1 X121.229 Y165.414 E0.30643
G1 X120.475 Y165.414 E0.02365
G1 X120.475 Y175.187 E0.30643
G1 X119.721 Y175.187 E0.02365
G1 X119.721 Y165.414 E0.30643
G1 X118.967 Y165.414 E0.02365
G1 X118.967 Y175.187 E0.30643
G1 X118.213 Y175.187 E0.02365
G1 X118.213 Y165.414 E0.30643
G1 X117.458 Y165.414 E0.02365
G1 X117.458 Y175.356 E0.31175
G1 F8640.000
G1 X117.458 Y172.065 E-0.76000
G1 E-0.04000 F2100.00000
G1 Z0.600 F10800.000
G1 X92.213 Y80.787
G1 Z0.200
G1 E0.80000 F2100.00000
M73 Q1 S163
G1 F1200.000
G1 X151.787 Y80.787 E1.86791
M73 P1 R160
G1 X151.787 Y40.787 E1.25417
G1 X155.213 Y40.787 E0.10741
G1 X155.213 Y84.213 E1.36159
G1 X128.713 Y84.213 E0.83089
G1 X128.713 Y115.787 E0.98999
G1 X143.713 Y115.787 E0.47031
G1 X143.713 Y136.787 E0.65844
G1 X146.713 Y136.787 E0.09406
G1 X146.713 Y163.213 E0.82856
G1 X143.713 Y163.213 E0.09406
G1 X143.713 Y164.213 E0.03135
G1 X105.287 Y164.213 E1.20482
G1 X105.287 Y115.787 E1.51836
G1 X120.287 Y115.787 E0.47031
G1 X120.287 Y84.213 E0.98999
G1 X88.787 Y84.213 E0.98766
G1 X88.787 Y40.787 E1.36159
G1 X92.213 Y40.787 E0.10741
G1 X92.213 Y80.727 E1.25229
G1 X92.590 Y80.410 F10800.000
G1 F1200.000
G1 X151.410 Y80.410 E1.84426
G1 X151.410 Y40.410 E1.25417
G1 X155.590 Y40.410 E0.13106
G1 X155.590 Y84.590 E1.38523
G1 X129.090 Y84.590 E0.83089
G1 X129.090 Y115.410 E0.96634
G1 X144.090 Y115.410 E0.47031
G1 X144.090 Y136.410 E0.65844
G1 X147.090 Y136.410 E0.09406
G1 X147.090 Y163.590 E0.85221
G1 X144.090 Y163.590 E0.09406
G1 X144.090 Y164.590 E0.03135
G1 X104.910 Y164.590 E1.22846
G1 X104.910 Y115.410 E1.54200
G1 X119.910 Y115.410 E0.47031
G1 X119.910 Y84.590 E0.96634
G1 X88.410 Y84.590 E0.98766
G1 X88.410 Y40.410 E1.38523
G1 X92.590 Y40.410 E0.13106
G1 X92.590 Y80.350 E1.25229
G1 X92.604 Y80.810 F10800.000
G1 F8640.000
G1 X95.881 Y80.353 E-0.76000
G1 E-0.04000 F2100.00000
G1 Z0.600 F10800.000
G1 X94.499 Y84.100
G1 Z0.200
G1 E0.80000 F2100.00000
G1 F1200.000
G1 X89.070 Y78.671 E0.24101
G1 X89.070 Y79.204 E0.01676
G1 X93.796 Y83.930 E0.20978
G1 X93.262 Y83.930 E0.01676
G1 X89.070 Y79.738 E0.18608
G1 X89.070 Y80.272 E0.01676
G1 X92.728 Y83.930 E0.16238
G1 X92.194 Y83.930 E0.01676
G1 X89.070 Y80.806 E0.13868
G1 X89.070 Y81.340 E0.01676
G1 X91.660 Y83.930 E0.11498
G1 X91.126 Y83.930 E0.01676
G1 X89.070 Y81.874 E0.09128
G1 X89.070 Y82.408 E0.01676
G1 X90.592 Y83.930 E0.06758
G1 X90.058 Y83.930 E0.01676
G1 X89.070 Y82.942 E0.04388
G1 X89.070 Y83.475 E0.01676
G1 X89.694 Y84.100 E0.02772
G1 F8640.000
G1 X89.070 Y83.475 E-0.20389
G1 X89.070 Y82.942 E-0.12327
G1 X90.058 Y83.930 E-0.32281
G1 X90.535 Y83.930 E-0.11003
G1 E-0.04000 F2100.00000
G1 Z0.600 F10800.000
G1 X128.600 Y92.575
G1 Z0.200
G1 E0.80000 F2100.00000
G1 F1200.000
G1 X120.570 Y84.545 E0.35646
G1 X120.570 Y85.079 E0.01676
G1 X128.430 Y92.939 E0.34893
G1 X128.430 Y93.473 E0.01676
G1 X120.570 Y85.613 E0.34893
G1 X120.570 Y86.146 E0.01676
G1 X128.430 Y94.007 E0.34893
G1 X128.430 Y94.540 E0.01676
G1 X120.570 Y86.680 E0.34893
G1 X120.570 Y87.214 E0.01676
G1 X128.430 Y95.074 E0.34893
M73 Q1 S162
G1 X128.430 Y95.608 E0.01676
G1 X120.570 Y87.748 E0.34893
G1 X120.570 Y88.282 E0.01676
G1 X128.430 Y96.142 E0.34893
G1 X128.430 Y96.676 E0.01676
G1 X120.570 Y88.816 E0.34893
G1 X120.570 Y89.350 E0.01676
G1 X128.430 Y97.210 E0.34893
G1 X128.430 Y97.744 E0.01676
G1 X120.570 Y89.883 E0.34893
M73 P1 R159
G1 X120.570 Y90.417 E0.01676
G1 X128.430 Y98.278 E0.34893
G1 X128.430 Y98.811 E0.01676
G1 X120.570 Y90.951 E0.34893
G1 X120.570 Y91.485 E0.01676
G1 X128.430 Y99.345 E0.34893
G1 X128.430 Y99.879 E0.01676
G1 X120.570 Y92.019 E0.34893
G1 X120.570 Y92.553 E0.01676
G1 X128.430 Y100.413 E0.34893
G1 X128.430 Y100.947 E0.01676
G1 X120.570 Y93.087 E0.34893
G1 X120.570 Y93.621 E0.01676
G1 X128.430 Y101.481 E0.34893
G1 X128.430 Y102.015 E0.01676
G1 X120.570 Y94.154 E0.34893
G1 X120.570 Y94.688 E0.01676
G1 X128.430 Y102.549 E0.34893
G1 X128.430 Y103.082 E0.01676
G1 X120.570 Y95.222 E0.34893
G1 X120.570 Y95.756 E0.01676
G1 X128.430 Y103.616 E0.34893
G1 X128.430 Y104.150 E0.01676
G1 X120.570 Y96.290 E0.34893
G1 X120.570 Y96.824 E0.01676
G1 X128.430 Y104.684 E0.34893
G1 X128.430 Y105.218 E0.01676
G1 X120.570 Y97.358 E0.34893
G1 X120.570 Y97.892 E0.01676
G1 X128.430 Y105.752 E0.34893
G1 X128.430 Y106.286 E0.01676
G1 X120.570 Y98.425 E0.34893
G1 X120.570 Y98.959 E0.01676
G1 X128.430 Y106.820 E0.34893
G1 X128.430 Y107.353 E0.01676
G1 X120.570 Y99.493 E0.34893
G1 X120.570 Y100.027 E0.01676
G1 X128.430 Y107.887 E0.34893
G1 X128.430 Y108.421 E0.01676
G1 X120.570 Y100.561 E0.34893
G1 X120.570 Y101.095 E0.01676
G1 X128.430 Y108.955 E0.34893
G1 X128.430 Y109.489 E0.01676
G1 X120.570 Y101.629 E0.34893
G1 X120.570 Y102.163 E0.01676
G1 X128.430 Y110.023 E0.34893
G1 X128.430 Y110.557 E0.01676
G1 X120.570 Y102.696 E0.34893
G1 X120.570 Y103.230 E0.01676
G1 X128.430 Y111.091 E0.34893
G1 X128.430 Y111.624 E0.01676
G1 X120.570 Y103.764 E0.34893
G1 X120.570 Y104.298 E0.01676
G1 X128.430 Y112.158 E0.34893
G1 X128.430 Y112.692 E0.01676
G1 X120.570 Y104.832 E0.34893
G1 X120.570 Y105.366 E0.01676
G1 X128.430 Y113.226 E0.34893
G1 X128.430 Y113.760 E0.01676
G1 X120.570 Y105.900 E0.34893
G1 X120.570 Y106.433 E0.01676
G1 X128.430 Y114.294 E0.34893
G1 X128.430 Y114.828 E0.01676
G1 X120.570 Y106.967 E0.34893
G1 X120.570 Y107.501 E0.01676
G1 X128.600 Y115.531 E0.35646
G1 X128.969 Y115.900 F10800.000
G1 F1200.000
G1 X143.430 Y130.361 E0.64196
G1 X143.430 Y129.828 E0.01676
G1 X129.672 Y116.070 E0.61073
G1 X130.206 Y116.070 E0.01676
G1 X143.430 Y129.294 E0.58703
G1 X143.430 Y128.760 E0.01676
G1 X130.740 Y116.070 E0.56333
G1 X131.274 Y116.070 E0.01676
G1 X143.430 Y128.226 E0.53963
G1 X143.430 Y127.692 E0.01676
G1 X131.808 Y116.070 E0.51593
G1 X132.342 Y116.070 E0.01676
G1 X143.430 Y127.158 E0.49223
G1 X143.430 Y126.624 E0.01676
G1 X132.876 Y116.070 E0.46853
G1 X133.409 Y116.070 E0.01676
G1 X143.430 Y126.091 E0.44483
G1 X143.430 Y125.557 E0.01676
G1 X133.943 Y116.070 E0.42113
G1 X134.477 Y116.070 E0.01676
G1 X143.430 Y125.023 E0.39743
G1 X143.430 Y124.489 E0.01676
G1 X135.011 Y116.070 E0.37373
G1 X135.545 Y116.070 E0.01676
G1 X143.430 Y123.955 E0.35003
G1 X143.430 Y123.421 E0.01676
G1 X136.079 Y116.070 E0.32633
G1 X136.613 Y116.070 E0.01676
G1 X143.430 Y122.887 E0.30264
G1 X143.430 Y122.353 E0.01676
G1 X137.147 Y116.070 E0.27894
G1 X137.680 Y116.070 E0.01676
G1 X143.430 Y121.820 E0.25524
G1 X143.430 Y121.286 E0.01676
G1 X138.214 Y116.070 E0.23154
G1 X138.748 Y116.070 E0.01676
G1 X143.430 Y120.752 E0.20784
G1 X143.430 Y120.218 E0.01676
G1 X139.282 Y116.070 E0.18414
G1 X139.816 Y116.070 E0.01676
G1 X143.430 Y119.684 E0.16044
G1 X143.430 Y119.150 E0.01676
G1 X140.350 Y116.070 E0.13674
G1 X140.884 Y116.070 E0.01676
G1 X143.430 Y118.616 E0.11304
G1 X143.430 Y118.082 E0.01676
G1 X141.418 Y116.070 E0.08934
G1 X141.951 Y116.070 E0.01676
G1 X143.430 Y117.549 E0.06564
G1 X143.430 Y117.015 E0.01676
G1 X142.485 Y116.070 E0.04194
G1 X143.019 Y116.070 E0.01676
G1 X143.600 Y116.651 E0.02578
G1 F8640.000
G1 X143.019 Y116.070 E-0.18960
G1 X142.485 Y116.070 E-0.12327
G1 X143.430 Y117.015 E-0.30853
G1 X143.430 Y117.549 E-0.12327
G1 X143.383 Y117.502 E-0.01533
G1 E-0.04000 F2100.00000
G1 Z0.600 F10800.000
G1 X143.600 Y131.065
G1 Z0.200
G1 E0.80000 F2100.00000
G1 F1200.000
G1 X120.570 Y108.035 E1.02233
G1 X120.570 Y108.569 E0.01676
G1 X143.430 Y131.429 E1.01480
G1 X143.430 Y131.963 E0.01676
G1 X120.570 Y109.103 E1.01480
G1 X120.570 Y109.637 E0.01676
G1 X143.430 Y132.497 E1.01480
G1 X143.430 Y133.031 E0.01676
G1 X120.570 Y110.171 E1.01480
G1 X120.570 Y110.704 E0.01676
G1 X143.430 Y133.565 E1.01480
G1 X143.430 Y134.099 E0.01676
