; generated by PrusaSlicer 2.2.0+win64 on 2023-01-05 at 14:02:18 UTC

; 

; external perimeters extrusion width = 0.45mm
; perimeters extrusion width = 0.45mm
; infill extrusion width = 0.45mm
; solid infill extrusion width = 0.45mm
; top infill extrusion width = 0.40mm
; support material extrusion width = 0.35mm
; first layer extrusion width = 0.42mm

M73 P0 R168
M73 Q0 S170
M201 X1000 Y1000 Z200 E5000 ; sets maximum accelerations, mm/sec^2
M203 X200 Y200 Z12 E120 ; sets maximum feedrates, mm/sec
M204 P1250 R1250 T1250 ; sets acceleration (P, T) and retract acceleration (R), mm/sec^2
M205 X8.00 Y8.00 Z0.40 E4.50 ; sets the jerk limits, mm/sec
M205 S0 T0 ; sets the minimum extruding and travel feed rate, mm/sec
M107
M862.3 P "MK3S" ; printer model check
M862.1 P0.4 ; nozzle diameter check
M115 U3.11.0 ; tell printer latest fw version
G90 ; use absolute coordinates
M83 ; extruder relative mode
M104 S220 ; set extruder temp
M140 S80 ; set bed temp
M190 S80 ; wait for bed temp
M109 S220 ; wait for extruder temp
G28 W ; home all without mesh bed level
G80 ; mesh bed leveling
G1 Y-3.0 F1000.0 ; go outside print area
G92 E0.0
G1 X60.0 E9.0 F1000.0 ; intro line
M73 Q0 S170
M73 P0 R168
G1 X100.0 E12.5 F1000.0 ; intro line
G92 E0.0
M221 S95

; Don't change E values below. Excessive value can damage the printer.
M907 E430 ; set extruder motor current
G21 ; set units to millimeters
G90 ; use absolute coordinates
M83 ; use relative distances for extrusion
M900 K0.05 ; Filament gcode LA 1.5
M900 K30 ; Filament gcode LA 1.0
;BEFORE_LAYER_CHANGE
G92 E0.0
;0.2


G1 E-0.80000 F2100.00000
G1 Z0.400 F10800.000
;AFTER_LAYER_CHANGE
;0.2
G1 X83.093 Y45.024
G1 Z0.200
G1 E0.80000 F2100.00000
M204 S1000
G1 F1200.000
G1 X83.623 Y44.486 E0.02367
G1 X92.669 Y38.030 E0.34847
G1 X93.187 Y37.766 E0.01823
G1 X93.757 Y37.635 E0.01835
G1 X162.004 Y37.623 E2.13982
G1 X162.555 Y37.689 E0.01740
G1 X163.072 Y37.878 E0.01728
G1 X166.308 Y39.801 E0.11801
G1 X166.926 Y40.415 E0.02731
G1 X167.281 Y41.210 E0.02731
G1 X167.348 Y41.761 E0.01740
G1 X167.333 Y59.728 E0.56335
G1 X164.337 Y85.433 E0.81140
G1 X147.772 Y165.698 E2.56969
G1 X147.478 Y166.319 E0.02154
G1 X147.015 Y166.832 E0.02166
G1 X134.017 Y177.220 E0.52174
G1 X133.454 Y177.552 E0.02048
G1 X132.556 Y177.733 E0.02872
G1 X119.702 Y177.733 E0.40303
G1 X119.023 Y177.629 E0.02154
G1 X118.421 Y177.347 E0.02083
G1 X101.147 Y165.955 E0.64880
G1 X100.562 Y165.377 E0.02579
G1 X100.208 Y164.630 E0.02590
G1 X82.677 Y59.809 E3.33225
G1 X82.653 Y46.391 E0.42071
G1 X82.757 Y45.704 E0.02178
G1 X83.066 Y45.078 E0.02190
; printing object L thigh bottom.STL id:0 copy 0
G1 F8640.000
G1 X83.623 Y44.486 E-0.18748
G1 X85.641 Y43.046 E-0.57252
G1 E-0.04000 F2100.00000
G1 Z0.600 F10800.000
G1 X85.030 Y59.466
G1 Z0.200
G1 E0.80000 F2100.00000
G1 F1200.000
G1 X85.030 Y46.402 E0.40960
G1 X85.784 Y46.402 E0.02365
G1 X85.784 Y59.296 E0.40428
G1 X86.538 Y59.296 E0.02365
G1 X86.538 Y46.402 E0.40428
G1 X87.292 Y46.402 E0.02365
G1 X87.292 Y59.296 E0.40428
G1 X88.046 Y59.296 E0.02365
G1 X88.046 Y46.402 E0.40428
G1 X88.800 Y46.402 E0.02365
G1 X88.800 Y59.296 E0.40428
G1 X89.555 Y59.296 E0.02365
G1 X89.555 Y46.402 E0.40428
G1 X90.309 Y46.402 E0.02365
G1 X90.309 Y59.296 E0.40428
G1 X91.063 Y59.296 E0.02365
G1 X91.063 Y46.402 E0.40428
G1 X91.817 Y46.402 E0.02365
G1 X91.817 Y59.296 E0.40428
G1 X92.571 Y59.296 E0.02365
G1 X92.571 Y46.402 E0.40428
G1 X93.325 Y46.402 E0.02365
G1 X93.325 Y59.466 E0.40960
G1 F8640.000
G1 X93.325 Y56.175 E-0.76000
G1 E-0.04000 F2100.00000
G1 Z0.600 F10800.000
G1 X100.113 Y57.148
G1 Z0.200
G1 E0.80000 F2100.00000
G1 F1200.000
G1 X100.113 Y44.084 E0.40960
G1 X100.867 Y44.084 E0.02365
G1 X100.867 Y56.978 E0.40428
G1 X101.621 Y56.978 E0.02365
G1 X101.621 Y44.084 E0.40428
G1 X102.375 Y44.084 E0.02365
G1 X102.375 Y56.978 E0.40428
G1 X103.129 Y56.978 E0.02365
G1 X103.129 Y44.084 E0.40428
G1 X103.884 Y44.084 E0.02365
G1 X103.884 Y56.978 E0.40428
G1 X104.638 Y56.978 E0.02365
G1 X104.638 Y44.084 E0.40428
G1 X105.392 Y44.084 E0.02365
G1 X105.392 Y56.978 E0.40428
G1 X106.146 Y56.978 E0.02365
G1 X106.146 Y44.084 E0.40428
G1 X106.900 Y44.084 E0.02365
G1 X106.900 Y56.978 E0.40428
G1 X107.654 Y56.978 E0.02365
G1 X107.654 Y44.084 E0.40428
G1 X108.409 Y44.084 E0.02365
G1 X108.409 Y56.978 E0.40428
G1 X109.163 Y56.978 E0.02365
G1 X109.163 Y44.084 E0.40428
G1 X109.917 Y44.084 E0.02365
G1 X109.917 Y56.978 E0.40428
G1 X110.671 Y56.978 E0.02365
G1 X110.671 Y44.084 E0.40428
G1 X111.425 Y44.084 E0.02365
G1 X111.425 Y57.148 E0.40960
G1 F8640.000
G1 X111.425 Y53.857 E-0.76000
G1 E-0.04000 F2100.00000
G1 Z0.600 F10800.000
G1 X101.621 Y85.244
G1 Z0.200
G1 E0.80000 F2100.00000
G1 F1200.000
G1 X101.621 Y119.559 E1.07594
G1 X102.375 Y119.559 E0.02365
G1 X102.375 Y85.414 E1.07062
G1 X103.129 Y85.414 E0.02365
G1 X103.129 Y119.559 E1.07062
G1 X103.884 Y119.559 E0.02365
G1 X103.884 Y85.414 E1.07062
G1 X104.638 Y85.414 E0.02365
G1 X104.638 Y119.559 E1.07062
G1 X105.086 Y119.559 E0.01407
G1 X105.086 Y114.829 E0.14833
G1 X105.329 Y114.586 E0.01074
G1 X105.392 Y114.586 E0.00198
G1 X105.392 Y85.414 E0.91470
G1 X106.146 Y85.414 E0.02365
G1 X106.146 Y114.586 E0.91470
G1 X106.900 Y114.586 E0.02365
G1 X106.900 Y85.414 E0.91470
G1 X107.654 Y85.414 E0.02365
G1 X107.654 Y114.586 E0.91470
G1 X108.409 Y114.586 E0.02365
G1 X108.409 Y85.414 E0.91470
M73 Q0 S169
M73 P0 R167
G1 X109.163 Y85.414 E0.02365
G1 X109.163 Y114.586 E0.91470
G1 X109.917 Y114.586 E0.02365
G1 X109.917 Y85.414 E0.91470
G1 X110.671 Y85.414 E0.02365
G1 X110.671 Y114.586 E0.91470
G1 X111.425 Y114.586 E0.02365
G1 X111.425 Y85.414 E0.91470
G1 X112.179 Y85.414 E0.02365
G1 X112.179 Y114.586 E0.91470
G1 X112.933 Y114.586 E0.02365
G1 X112.933 Y85.414 E0.91470
G1 X113.688 Y85.414 E0.02365
G1 X113.688 Y114.756 E0.92002
G1 F8640.000
G1 X113.688 Y111.465 E-0.76000
G1 E-0.04000 F2100.00000
G1 Z0.600 F10800.000
G1 X148.379 Y119.729
G1 Z0.200
G1 E0.80000 F2100.00000
G1 F1200.000
G1 X148.379 Y85.414 E1.07594
G1 X147.625 Y85.414 E0.02365
G1 X147.625 Y119.559 E1.07062
G1 X146.871 Y119.559 E0.02365
G1 X146.871 Y85.414 E1.07062
G1 X146.116 Y85.414 E0.02365
G1 X146.116 Y119.559 E1.07062
G1 X145.914 Y119.559 E0.00636
G1 X145.914 Y114.829 E0.14833
G1 X145.671 Y114.586 E0.01074
G1 X145.362 Y114.586 E0.00969
G1 X145.362 Y85.414 E0.91470
G1 X144.608 Y85.414 E0.02365
G1 X144.608 Y114.586 E0.91470
G1 X143.854 Y114.586 E0.02365
G1 X143.854 Y85.414 E0.91470
G1 X143.100 Y85.414 E0.02365
G1 X143.100 Y114.586 E0.91470
G1 X142.346 Y114.586 E0.02365
G1 X142.346 Y85.414 E0.91470
G1 X141.591 Y85.414 E0.02365
G1 X141.591 Y114.586 E0.91470
G1 X140.837 Y114.586 E0.02365
G1 X140.837 Y85.414 E0.91470
G1 X140.083 Y85.414 E0.02365
G1 X140.083 Y114.586 E0.91470
G1 X139.329 Y114.586 E0.02365
G1 X139.329 Y85.414 E0.91470
G1 X138.575 Y85.414 E0.02365
G1 X138.575 Y114.586 E0.91470
G1 X137.821 Y114.586 E0.02365
G1 X137.821 Y85.414 E0.91470
G1 X137.067 Y85.414 E0.02365
G1 X137.067 Y114.586 E0.91470
G1 X136.312 Y114.586 E0.02365
G1 X136.312 Y85.244 E0.92002
G1 F8640.000
G1 X136.312 Y88.535 E-0.76000
G1 E-0.04000 F2100.00000
G1 Z0.600 F10800.000
G1 X164.970 Y59.466
G1 Z0.200
G1 E0.80000 F2100.00000
G1 F1200.000
G1 X164.970 Y41.767 E0.55495
G1 X164.216 Y41.767 E0.02365
G1 X164.216 Y59.296 E0.54963
G1 X163.462 Y59.296 E0.02365
G1 X163.462 Y41.767 E0.54963
G1 X162.708 Y41.767 E0.02365
G1 X162.708 Y59.466 E0.55495
G1 F8640.000
G1 X162.708 Y56.175 E-0.76000
G1 E-0.04000 F2100.00000
G1 Z0.600 F10800.000
G1 X155.921 Y59.466
G1 Z0.200
G1 E0.80000 F2100.00000
G1 F1200.000
G1 X155.921 Y41.767 E0.55495
G1 X155.166 Y41.767 E0.02365
G1 X155.166 Y59.296 E0.54963
G1 X154.412 Y59.296 E0.02365
G1 X154.412 Y41.767 E0.54963
G1 X153.658 Y41.767 E0.02365
G1 X153.658 Y59.296 E0.54963
G1 X152.904 Y59.296 E0.02365
G1 X152.904 Y41.597 E0.55495
G1 F8640.000
G1 X152.904 Y44.888 E-0.76000
G1 E-0.04000 F2100.00000
G1 Z0.600 F10800.000
G1 X132.542 Y175.356
G1 Z0.200
G1 E0.80000 F2100.00000
G1 F1200.000
G1 X132.542 Y165.414 E0.31175
G1 X131.787 Y165.414 E0.02365
G1 X131.787 Y175.187 E0.30643
G1 X131.033 Y175.187 E0.02365
G1 X131.033 Y165.414 E0.30643
G1 X130.279 Y165.414 E0.02365
G1 X130.279 Y175.187 E0.30643
G1 X129.525 Y175.187 E0.02365
G1 X129.525 Y165.414 E0.30643
G1 X128.771 Y165.414 E0.02365
G1 X128.771 Y175.187 E0.30643
G1 X128.017 Y175.187 E0.02365
G1 X128.017 Y165.414 E0.30643
G1 X127.262 Y165.414 E0.02365
G1 X127.262 Y175.187 E0.30643
G1 X126.508 Y175.187 E0.02365
G1 X126.508 Y165.414 E0.30643
G1 X125.754 Y165.414 E0.02365
G1 X125.754 Y175.187 E0.30643
G1 X125.000 Y175.187 E0.02365
G1 X125.000 Y165.414 E0.30643
G1 X124.246 Y165.414 E0.02365
G1 X124.246 Y175.187 E0.30643
G1 X123.492 Y175.187 E0.02365
G1 X123.492 Y165.414 E0.30643
G1 X122.738 Y165.414 E0.02365
G1 X122.738 Y175.187 E0.30643
G1 X121.983 Y175.187 E0.02365
G1 X121.983 Y165.414 E0.30643
G1 X121.229 Y165.414 E0.02365
G1 X121.229 Y175.187 E0.30643
G1 X120.475 Y175.187 E0.02365
G1 X120.475 Y165.414 E0.30643
G1 X119.721 Y165.414 E0.02365
G1 X119.721 Y175.356 E0.31175
G1 F8640.000
G1 X119.721 Y172.065 E-0.76000
G1 E-0.04000 F2100.00000
G1 Z0.600 F10800.000
G1 X98.213 Y80.787
G1 Z0.200
G1 E0.80000 F2100.00000
M73 Q1 S168
G1 F1200.000
G1 X157.787 Y80.787 E1.86791
M73 P1 R166
G1 X157.787 Y40.787 E1.25417
G1 X161.213 Y40.787 E0.10741
G1 X161.213 Y84.213 E1.36159
G1 X129.713 Y84.213 E0.98766
G1 X129.713 Y115.787 E0.98999
G1 X144.713 Y115.787 E0.47031
G1 X144.713 Y164.213 E1.51836
G1 X106.287 Y164.213 E1.20482
G1 X106.287 Y163.213 E0.03135
G1 X103.287 Y163.213 E0.09406
G1 X103.287 Y136.787 E0.82856
G1 X106.287 Y136.787 E0.09406
G1 X106.287 Y115.787 E0.65844
G1 X121.287 Y115.787 E0.47031
G1 X121.287 Y84.213 E0.98999
G1 X94.787 Y84.213 E0.83089
G1 X94.787 Y40.787 E1.36159
G1 X98.213 Y40.787 E0.10742
G1 X98.213 Y80.727 E1.25229
G1 X98.590 Y80.410 F10800.000
G1 F1200.000
G1 X157.410 Y80.410 E1.84426
G1 X157.410 Y40.410 E1.25417
G1 X161.590 Y40.410 E0.13106
G1 X161.590 Y84.590 E1.38523
G1 X130.090 Y84.590 E0.98766
G1 X130.090 Y115.410 E0.96634
G1 X145.090 Y115.410 E0.47031
G1 X145.090 Y164.590 E1.54200
G1 X105.910 Y164.590 E1.22846
G1 X105.910 Y163.590 E0.03135
G1 X102.910 Y163.590 E0.09406
G1 X102.910 Y136.410 E0.85221
G1 X105.910 Y136.410 E0.09406
G1 X105.910 Y115.410 E0.65844
G1 X120.910 Y115.410 E0.47031
G1 X120.910 Y84.590 E0.96634
G1 X94.410 Y84.590 E0.83089
G1 X94.410 Y40.410 E1.38523
G1 X98.590 Y40.410 E0.13106
G1 X98.590 Y80.350 E1.25229
G1 X98.604 Y80.810 F10800.000
G1 X98.100 Y80.667
G1 F1200.000
G1 X95.070 Y77.637 E0.13455
G1 X95.070 Y77.103 E0.01677
G1 X97.930 Y79.963 E0.12701
G1 X97.930 Y79.429 E0.01677
G1 X95.070 Y76.569 E0.12701
G1 X95.070 Y76.035 E0.01677
G1 X97.930 Y78.895 E0.12701
G1 X97.930 Y78.361 E0.01677
G1 X95.070 Y75.501 E0.12701
G1 X95.070 Y74.967 E0.01677
G1 X97.930 Y77.827 E0.12701
G1 X97.930 Y77.293 E0.01677
G1 X95.070 Y74.433 E0.12701
G1 X95.070 Y73.899 E0.01677
G1 X97.930 Y76.759 E0.12701
G1 X97.930 Y76.225 E0.01677
G1 X95.070 Y73.364 E0.12701
G1 X95.070 Y72.830 E0.01677
G1 X97.930 Y75.691 E0.12701
G1 X97.930 Y75.157 E0.01677
G1 X95.070 Y72.296 E0.12701
G1 X95.070 Y71.762 E0.01677
G1 X97.930 Y74.623 E0.12701
G1 X97.930 Y74.089 E0.01677
G1 X95.070 Y71.228 E0.12701
G1 X95.070 Y70.694 E0.01677
G1 X97.930 Y73.554 E0.12701
G1 X97.930 Y73.020 E0.01677
G1 X95.070 Y70.160 E0.12701
G1 X95.070 Y69.626 E0.01677
G1 X97.930 Y72.486 E0.12701
G1 X97.930 Y71.952 E0.01677
G1 X95.070 Y69.092 E0.12701
G1 X95.070 Y68.558 E0.01677
G1 X97.930 Y71.418 E0.12701
G1 X97.930 Y70.884 E0.01677
G1 X95.070 Y68.024 E0.12701
G1 X95.070 Y67.490 E0.01677
G1 X97.930 Y70.350 E0.12701
G1 X97.930 Y69.816 E0.01677
G1 X95.070 Y66.956 E0.12701
G1 X95.070 Y66.422 E0.01677
G1 X97.930 Y69.282 E0.12701
G1 X97.930 Y68.748 E0.01677
G1 X95.070 Y65.888 E0.12701
G1 X95.070 Y65.354 E0.01677
G1 X97.930 Y68.214 E0.12701
G1 X97.930 Y67.680 E0.01677
G1 X95.070 Y64.820 E0.12701
G1 X95.070 Y64.286 E0.01677
G1 X97.930 Y67.146 E0.12701
G1 X97.930 Y66.612 E0.01677
G1 X95.070 Y63.752 E0.12701
G1 X95.070 Y63.218 E0.01677
G1 X97.930 Y66.078 E0.12701
G1 X97.930 Y65.544 E0.01677
G1 X95.070 Y62.684 E0.12701
M73 Q1 S167
G1 X95.070 Y62.149 E0.01677
G1 X97.930 Y65.010 E0.12701
G1 X97.930 Y64.476 E0.01677
G1 X95.070 Y61.615 E0.12701
G1 X95.070 Y61.081 E0.01677
G1 X97.930 Y63.942 E0.12701
G1 X97.930 Y63.408 E0.01677
G1 X95.070 Y60.547 E0.12701
G1 X95.070 Y60.013 E0.01677
G1 X97.930 Y62.874 E0.12701
G1 X97.930 Y62.339 E0.01677
G1 X95.070 Y59.479 E0.12701
G1 X95.070 Y58.945 E0.01677
G1 X97.930 Y61.805 E0.12701
G1 X97.930 Y61.271 E0.01677
G1 X95.070 Y58.411 E0.12701
G1 X95.070 Y57.877 E0.01677
G1 X97.930 Y60.737 E0.12701
G1 X97.930 Y60.203 E0.01677
G1 X95.070 Y57.343 E0.12701
G1 X95.070 Y56.809 E0.01677
G1 X97.930 Y59.669 E0.12701
G1 X97.930 Y59.135 E0.01677
G1 X95.070 Y56.275 E0.12701
G1 X95.070 Y55.741 E0.01677
G1 X97.930 Y58.601 E0.12701
M73 P1 R165
G1 X97.930 Y58.067 E0.01677
G1 X95.070 Y55.207 E0.12701
G1 X95.070 Y54.673 E0.01677
G1 X97.930 Y57.533 E0.12701
G1 X97.930 Y56.999 E0.01677
G1 X95.070 Y54.139 E0.12701
G1 X95.070 Y53.605 E0.01677
G1 X97.930 Y56.465 E0.12701
G1 X97.930 Y55.931 E0.01677
G1 X95.070 Y53.071 E0.12701
G1 X95.070 Y52.537 E0.01677
G1 X97.930 Y55.397 E0.12701
G1 X97.930 Y54.863 E0.01677
G1 X95.070 Y52.003 E0.12701
G1 X95.070 Y51.469 E0.01677
G1 X97.930 Y54.329 E0.12701
G1 X97.930 Y53.795 E0.01677
G1 X95.070 Y50.934 E0.12701
G1 X95.070 Y50.400 E0.01677
G1 X97.930 Y53.261 E0.12701
G1 X97.930 Y52.727 E0.01677
G1 X95.070 Y49.866 E0.12701
G1 X95.070 Y49.332 E0.01677
G1 X97.930 Y52.193 E0.12701
G1 X97.930 Y51.659 E0.01677
G1 X95.070 Y48.798 E0.12701
G1 X95.070 Y48.264 E0.01677
G1 X97.930 Y51.124 E0.12701
G1 X97.930 Y50.590 E0.01677
G1 X95.070 Y47.730 E0.12701
G1 X95.070 Y47.196 E0.01677
G1 X97.930 Y50.056 E0.12701
G1 X97.930 Y49.522 E0.01677
G1 X95.070 Y46.662 E0.12701
G1 X95.070 Y46.128 E0.01677
G1 X97.930 Y48.988 E0.12701
G1 X97.930 Y48.454 E0.01677
G1 X95.070 Y45.594 E0.12701
G1 X95.070 Y45.060 E0.01677
G1 X97.930 Y47.920 E0.12701
G1 X97.930 Y47.386 E0.01677
G1 X95.070 Y44.526 E0.12701
G1 X95.070 Y43.992 E0.01677
G1 X97.930 Y46.852 E0.12701
G1 X97.930 Y46.318 E0.01677
G1 X95.070 Y43.458 E0.12701
G1 X95.070 Y42.924 E0.01677
G1 X97.930 Y45.784 E0.12701
G1 X97.930 Y45.250 E0.01677
G1 X95.070 Y42.390 E0.12701
G1 X95.070 Y41.856 E0.01677
G1 X97.930 Y44.716 E0.12701
G1 X97.930 Y44.182 E0.01677
G1 X95.070 Y41.322 E0.12701
G1 X95.070 Y41.070 E0.00790
G1 X95.352 Y41.070 E0.00886
G1 X97.930 Y43.648 E0.11448
G1 X97.930 Y43.114 E0.01677
G1 X95.886 Y41.070 E0.09076
G1 X96.420 Y41.070 E0.01677
G1 X97.930 Y42.580 E0.06705
G1 X97.930 Y42.046 E0.01677
G1 X96.954 Y41.070 E0.04333
G1 X97.488 Y41.070 E0.01677
G1 X98.100 Y41.681 E0.02715
G1 F8640.000
G1 X97.488 Y41.070 E-0.19966
G1 X96.954 Y41.070 E-0.12331
G1 X97.930 Y42.046 E-0.31864
G1 X97.930 Y42.558 E-0.11839
G1 E-0.04000 F2100.00000
G1 Z0.600 F10800.000
G1 X94.900 Y83.342
G1 Z0.200
G1 E0.80000 F2100.00000
G1 F1200.000
G1 X95.489 Y83.930 E0.02613
G1 X96.023 Y83.930 E0.01677
G1 X95.070 Y82.977 E0.04231
G1 X95.070 Y82.443 E0.01677
G1 X96.557 Y83.930 E0.06602
G1 X97.091 Y83.930 E0.01677
G1 X95.070 Y81.909 E0.08974
G1 X95.070 Y81.375 E0.01677
G1 X97.625 Y83.930 E0.11345
G1 X98.159 Y83.930 E0.01677
G1 X95.070 Y80.841 E0.13717
G1 X95.070 Y80.307 E0.01677
G1 X98.693 Y83.930 E0.16088
G1 X99.227 Y83.930 E0.01677
G1 X95.070 Y79.773 E0.18460
G1 X95.070 Y79.239 E0.01677
G1 X99.761 Y83.930 E0.20831
G1 X100.295 Y83.930 E0.01677
G1 X95.070 Y78.705 E0.23203
G1 X95.070 Y78.171 E0.01677
G1 X100.829 Y83.930 E0.25574
G1 X101.363 Y83.930 E0.01677
G1 X98.503 Y81.070 E0.12701
G1 X99.037 Y81.070 E0.01677
G1 X101.897 Y83.930 E0.12701
G1 X102.431 Y83.930 E0.01677
G1 X99.571 Y81.070 E0.12701
G1 X100.105 Y81.070 E0.01677
G1 X102.965 Y83.930 E0.12701
G1 X103.499 Y83.930 E0.01677
G1 X100.639 Y81.070 E0.12701
G1 X101.173 Y81.070 E0.01677
G1 X104.033 Y83.930 E0.12701
G1 X104.567 Y83.930 E0.01677
G1 X101.707 Y81.070 E0.12701
G1 X102.241 Y81.070 E0.01677
G1 X105.101 Y83.930 E0.12701
G1 X105.636 Y83.930 E0.01677
G1 X102.775 Y81.070 E0.12701
G1 X103.309 Y81.070 E0.01677
G1 X106.170 Y83.930 E0.12701
