; generated by PrusaSlicer 2.9.2 on 2025-04-18 at 06:18:54 UTC


;
;
; 

; external perimeters extrusion width = 0.45mm
; perimeters extrusion width = 0.45mm
; infill extrusion width = 0.45mm
; solid infill extrusion width = 0.45mm
; top infill extrusion width = 0.40mm
; support material extrusion width = 0.35mm
; first layer extrusion width = 0.42mm

M73 P0 R275
M73 Q0 S278
M201 X1000 Y1000 Z200 E5000 ; sets maximum accelerations, mm/sec^2
M203 X200 Y200 Z12 E120 ; sets maximum feedrates, mm / sec
M204 S1250 T1250 ; sets acceleration (S) and retract acceleration (R), mm/sec^2
M205 X8.00 Y8.00 Z0.40 E4.50 ; sets the jerk limits, mm/sec
M205 S0 T0 ; sets the minimum extruding and travel feed rate, mm/sec

; printing object body middle back right.STL id:0 copy 0
; stop printing object body middle back right.STL id:0 copy 0

;TYPE:Custom
M862.3 P "MK3S" ; printer model check
M862.1 P0.4 ; nozzle diameter check
M115 U3.14.1 ; tell printer latest fw version
G90 ; use absolute coordinates
M83 ; extruder relative mode
M104 S215 ; set extruder temp
M140 S60 ; set bed temp
M190 S60 ; wait for bed temp
M109 S215 ; wait for extruder temp
G28 W ; home all without mesh bed level
G80 X47.6229 Y60.1229 W154.754 H89.7542 ; mesh bed levelling

G1 Z0.2 F720
G1 Y-3 F1000 ; go outside print area
G92 E0
G1 X60 E9 F1000 ; intro line
G1 X100 E12.5 F1000 ; intro line

G92 E0
M221 S95

; Don't change E values below. Excessive value can damage the printer.

G21 ; set units to millimeters
G90 ; use absolute coordinates
M83 ; use relative distances for extrusion

M900 K0.05 ; Filament gcode LA 1.5
M900 K30 ; Filament gcode LA 1.0




M107
;LAYER_CHANGE
;Z:0.2
;HEIGHT:0.2
G1 E-.8 F2100
M73 P0 R274
G1 Z.6 F720
G1 X48.202 Y61.252 F10800
G1 Z.2 F720
G1 E.8 F2100
M204 S800
;TYPE:Skirt/Brim
;WIDTH:0.42
G1 F1200
G1 X49.235 Y60.449 E.04102
G1 X50 Y60.311 E.02437
G1 X200 Y60.311 E4.70314
G1 X201.248 Y60.702 E.04101
G1 X202.051 Y61.735 E.04102
G1 X202.189 Y62.5 E.02437
G1 X202.189 Y122.5 E1.88126
G1 X201.548 Y124.048 E.05253
G1 X176.548 Y149.048 E1.10854
G1 X175 Y149.689 E.05253
G1 X50 Y149.689 E3.91929
G1 X48.752 Y149.298 E.04101
G1 X47.949 Y148.265 E.04102
G1 X47.811 Y147.5 E.02437
G1 X47.811 Y62.5 E2.66512
G1 X48.184 Y61.309 E.03913
M204 S1000
;WIPE_START
G1 F8640
G1 X48.202 Y61.252 E-.0138
G1 X49.235 Y60.449 E-.30211
G1 X50 Y60.311 E-.17949
G1 X51.319 Y60.311 E-.3046
;WIPE_END
G1 Z.6 F720
; printing object body middle back right.STL id:0 copy 0
G1 X199.213 Y121.797 F10800
G1 Z.2 F720
M73 Q0 S277
G1 E.8 F2100
M204 S800
;TYPE:Perimeter
;WIDTH:0.419999
G1 F1200
G1 X194.324 Y122.347 E.15426
G1 X194.201 Y122.376 E.00396
G1 X188.869 Y124.241 E.17711
G1 X188.755 Y124.296 E.00397
G1 X183.973 Y127.301 E.17708
G1 X183.874 Y127.38 E.00397
G1 X179.88 Y131.374 E.1771
G1 X179.801 Y131.473 E.00397
G1 X176.796 Y136.255 E.17708
G1 X176.741 Y136.369 E.00397
G1 X174.876 Y141.701 E.17711
G1 X174.847 Y141.824 E.00396
G1 X174.297 Y146.713 E.15426
G1 X50.787 Y146.713 E3.87256
G1 X50.787 Y63.287 E2.61576
G1 X199.213 Y63.287 E4.65379
G1 X199.213 Y98.369 E1.09997
G1 X199.213 Y121.737 E.73269
M204 S1000
G1 X199.59 Y122.134 F10800
M204 S800
;TYPE:External perimeter
G1 F1200
G1 X194.325 Y122.732 E.16614
G1 X188.956 Y124.615 E.17839
G1 X184.174 Y127.62 E.17708
G1 X180.147 Y131.64 E.17841
G1 X177.097 Y136.494 E.17974
G1 X175.232 Y141.825 E.17708
G1 X174.634 Y147.09 E.16614
G1 X50.41 Y147.09 E3.89495
G1 X50.41 Y62.91 E2.6394
G1 X199.59 Y62.91 E4.67743
M73 P0 R273
G1 X199.59 Y98.369 E1.11179
G1 X199.59 Y122.074 E.74325
M204 S1000
;WIPE_START
G1 F8640
G1 X199.59 Y122.134 E-.01385
G1 X196.207 Y122.518 E-.78615
;WIPE_END
G1 Z.6 F720
G1 X198.28 Y63.457 F10800
G1 Z.2 F720
G1 E.8 F2100
M204 S800
;TYPE:Solid infill
;WIDTH:0.420558
G1 F1200
G1 X198.874 Y64.051 E.02638
G1 X198.874 Y64.585 E.01677
G1 X197.915 Y63.626 E.04259
G1 X197.381 Y63.626 E.01677
G1 X198.874 Y65.119 E.0663
G1 X198.874 Y65.653 E.01677
G1 X196.847 Y63.626 E.09001
G1 X196.313 Y63.626 E.01677
G1 X198.874 Y66.187 E.11373
G1 X198.874 Y66.721 E.01677
G1 X195.779 Y63.626 E.13744
G1 X195.245 Y63.626 E.01677
G1 X198.874 Y67.255 E.16115
G1 X198.874 Y67.789 E.01677
G1 X194.711 Y63.626 E.18487
G1 X194.177 Y63.626 E.01677
G1 X198.874 Y68.323 E.20858
G1 X198.874 Y68.857 E.01677
G1 X193.643 Y63.626 E.23229
G1 X193.109 Y63.626 E.01677
G1 X198.874 Y69.391 E.25601
G1 X198.874 Y69.925 E.01677
G1 X192.575 Y63.626 E.27972
G1 X192.041 Y63.626 E.01677
G1 X198.874 Y70.459 E.30344
G1 X198.874 Y70.993 E.01677
G1 X191.507 Y63.626 E.32715
G1 X190.973 Y63.626 E.01677
G1 X198.874 Y71.527 E.35086
G1 X198.874 Y72.061 E.01677
G1 X190.439 Y63.626 E.37458
G1 X189.904 Y63.626 E.0168
G1 X198.874 Y72.596 E.39833
G1 X198.874 Y73.13 E.01677
G1 X189.37 Y63.626 E.42205
G1 X188.836 Y63.626 E.01677
G1 X198.874 Y73.664 E.44576
G1 X198.874 Y74.198 E.01677
G1 X188.302 Y63.626 E.46947
G1 X187.768 Y63.626 E.01677
G1 X198.874 Y74.732 E.49319
G1 X198.874 Y75.266 E.01677
G1 X187.234 Y63.626 E.5169
G1 X186.7 Y63.626 E.01677
G1 X198.874 Y75.8 E.54061
G1 X198.874 Y76.334 E.01677
G1 X186.166 Y63.626 E.56433
G1 X185.632 Y63.626 E.01677
G1 X198.874 Y76.868 E.58804
G1 X198.874 Y77.402 E.01677
G1 X185.098 Y63.626 E.61176
G1 X184.564 Y63.626 E.01677
M73 Q0 S276
G1 X198.874 Y77.936 E.63547
G1 X198.874 Y78.47 E.01677
G1 X184.03 Y63.626 E.65918
G1 X183.496 Y63.626 E.01677
G1 X198.874 Y79.004 E.6829
G1 X198.874 Y79.538 E.01677
G1 X182.962 Y63.626 E.70661
G1 X182.428 Y63.626 E.01677
G1 X198.874 Y80.072 E.73032
G1 X198.874 Y80.606 E.01677
G1 X181.894 Y63.626 E.75404
G1 X181.36 Y63.626 E.01677
G1 X198.874 Y81.14 E.77775
G1 X198.874 Y81.675 E.0168
G1 X180.825 Y63.626 E.80151
G1 X180.291 Y63.626 E.01677
G1 X198.874 Y82.209 E.82522
G1 X198.874 Y82.743 E.01677
G1 X179.757 Y63.626 E.84894
G1 X179.223 Y63.626 E.01677
G1 X198.874 Y83.277 E.87265
G1 X198.874 Y83.811 E.01677
G1 X178.689 Y63.626 E.89636
G1 X178.155 Y63.626 E.01677
G1 X198.874 Y84.345 E.92008
G1 X198.874 Y84.879 E.01677
G1 X177.621 Y63.626 E.94379
G1 X177.087 Y63.626 E.01677
G1 X198.874 Y85.413 E.9675
G1 X198.874 Y85.947 E.01677
G1 X176.553 Y63.626 E.99122
G1 X176.019 Y63.626 E.01677
G1 X198.874 Y86.481 E1.01493
G1 X198.874 Y87.015 E.01677
G1 X175.485 Y63.626 E1.03864
G1 X174.951 Y63.626 E.01677
G1 X198.874 Y87.549 E1.06236
G1 X198.874 Y88.083 E.01677
G1 X174.417 Y63.626 E1.08607
G1 X173.883 Y63.626 E.01677
G1 X198.874 Y88.617 E1.10978
G1 X198.874 Y89.151 E.01677
G1 X173.349 Y63.626 E1.1335
G1 X172.815 Y63.626 E.01677
G1 X198.874 Y89.685 E1.15721
G1 X198.874 Y90.22 E.0168
M73 P0 R272
G1 X172.28 Y63.626 E1.18097
G1 X171.746 Y63.626 E.01677
G1 X198.874 Y90.754 E1.20468
G1 X198.874 Y91.288 E.01677
G1 X171.212 Y63.626 E1.2284
G1 X170.678 Y63.626 E.01677
G1 X198.874 Y91.822 E1.25211
G1 X198.874 Y92.356 E.01677
G1 X170.144 Y63.626 E1.27582
G1 X169.61 Y63.626 E.01677
G1 X198.874 Y92.89 E1.29954
G1 X198.874 Y93.424 E.01677
G1 X169.076 Y63.626 E1.32325
G1 X168.542 Y63.626 E.01677
G1 X198.874 Y93.958 E1.34696
G1 X198.874 Y94.492 E.01677
G1 X168.008 Y63.626 E1.37068
G1 X167.474 Y63.626 E.01677
G1 X198.874 Y95.026 E1.39439
G1 X198.874 Y95.56 E.01677
G1 X166.94 Y63.626 E1.4181
G1 X166.406 Y63.626 E.01677
G1 X198.874 Y96.094 E1.44182
G1 X198.874 Y96.628 E.01677
M73 Q0 S275
G1 X165.872 Y63.626 E1.46553
G1 X165.338 Y63.626 E.01677
G1 X198.874 Y97.162 E1.48924
G1 X198.874 Y97.696 E.01677
G1 X164.804 Y63.626 E1.51296
G1 X164.27 Y63.626 E.01677
G1 X198.874 Y98.23 E1.53667
G1 X198.874 Y98.764 E.01677
G1 X163.736 Y63.626 E1.56039
G1 X163.201 Y63.626 E.0168
G1 X198.874 Y99.299 E1.58414
G1 X198.874 Y99.833 E.01677
M73 P1 R272
M73 Q1 S275
G1 X162.667 Y63.626 E1.60786
G1 X162.133 Y63.626 E.01677
G1 X198.874 Y100.367 E1.63157
G1 X198.874 Y100.901 E.01677
G1 X161.599 Y63.626 E1.65528
G1 X161.065 Y63.626 E.01677
G1 X198.874 Y101.435 E1.679
G1 X198.874 Y101.969 E.01677
G1 X160.531 Y63.626 E1.70271
G1 X159.997 Y63.626 E.01677
G1 X198.874 Y102.503 E1.72642
G1 X198.874 Y103.037 E.01677
G1 X159.463 Y63.626 E1.75014
G1 X158.929 Y63.626 E.01677
G1 X198.874 Y103.571 E1.77385
G1 X198.874 Y104.105 E.01677
M73 P1 R271
G1 X158.395 Y63.626 E1.79756
G1 X157.861 Y63.626 E.01677
G1 X198.874 Y104.639 E1.82128
G1 X198.874 Y105.173 E.01677
G1 X157.327 Y63.626 E1.84499
G1 X156.793 Y63.626 E.01677
G1 X198.874 Y105.707 E1.86871
G1 X198.874 Y106.241 E.01677
G1 X156.259 Y63.626 E1.89242
G1 X155.725 Y63.626 E.01677
G1 X198.874 Y106.775 E1.91613
G1 X198.874 Y107.309 E.01677
G1 X155.191 Y63.626 E1.93985
G1 X154.656 Y63.626 E.0168
G1 X198.874 Y107.844 E1.9636
G1 X198.874 Y108.378 E.01677
M73 Q1 S274
G1 X154.122 Y63.626 E1.98732
G1 X153.588 Y63.626 E.01677
G1 X198.874 Y108.912 E2.01103
G1 X198.874 Y109.446 E.01677
G1 X153.054 Y63.626 E2.03474
G1 X152.52 Y63.626 E.01677
G1 X198.874 Y109.98 E2.05846
G1 X198.874 Y110.514 E.01677
G1 X151.986 Y63.626 E2.08217
G1 X151.452 Y63.626 E.01677
G1 X198.874 Y111.048 E2.10588
G1 X198.874 Y111.582 E.01677
G1 X150.918 Y63.626 E2.1296
G1 X150.384 Y63.626 E.01677
G1 X198.874 Y112.116 E2.15331
G1 X198.874 Y112.65 E.01677
G1 X149.85 Y63.626 E2.17703
G1 X149.316 Y63.626 E.01677
G1 X198.874 Y113.184 E2.20074
G1 X198.874 Y113.718 E.01677
M73 P1 R270
G1 X148.782 Y63.626 E2.22445
G1 X148.248 Y63.626 E.01677
G1 X198.874 Y114.252 E2.24817
G1 X198.874 Y114.786 E.01677
G1 X147.714 Y63.626 E2.27188
G1 X147.18 Y63.626 E.01677
G1 X198.874 Y115.32 E2.29559
G1 X198.874 Y115.854 E.01677
G1 X146.646 Y63.626 E2.31931
G1 X146.112 Y63.626 E.01677
G1 X198.874 Y116.388 E2.34302
G1 X198.874 Y116.923 E.0168
G1 X145.577 Y63.626 E2.36678
G1 X145.043 Y63.626 E.01677
M73 Q1 S273
G1 X198.874 Y117.457 E2.39049
G1 X198.874 Y117.991 E.01677
G1 X144.509 Y63.626 E2.4142
G1 X143.975 Y63.626 E.01677
G1 X198.874 Y118.525 E2.43792
G1 X198.874 Y119.059 E.01677
G1 X143.441 Y63.626 E2.46163
G1 X142.907 Y63.626 E.01677
G1 X198.874 Y119.593 E2.48535
G1 X198.874 Y120.127 E.01677
G1 X142.373 Y63.626 E2.50906
G1 X141.839 Y63.626 E.01677
G1 X198.874 Y120.661 E2.53277
G1 X198.874 Y121.195 E.01677
G1 X141.305 Y63.626 E2.55649
G1 X140.771 Y63.626 E.01677
G1 X198.662 Y121.518 E2.57081
G1 X198.183 Y121.572 E.01514
M73 P1 R269
G1 X140.237 Y63.626 E2.57323
G1 X139.703 Y63.626 E.01677
G1 X197.703 Y121.627 E2.57565
G1 X197.224 Y121.681 E.01514
G1 X139.169 Y63.626 E2.57807
G1 X138.635 Y63.626 E.01677
G1 X196.744 Y121.736 E2.58049
G1 X196.265 Y121.79 E.01514
G1 X138.101 Y63.626 E2.58291
G1 X137.567 Y63.626 E.01677
G1 X195.785 Y121.845 E2.58533
G1 X195.306 Y121.9 E.01514
M73 P2 R269
M73 Q1 S272
G1 X137.032 Y63.626 E2.58779
G1 X136.498 Y63.626 E.01677
M73 Q2 S272
G1 X194.826 Y121.954 E2.59019
G1 X194.347 Y122.009 E.01514
G1 X135.964 Y63.626 E2.59263
G1 X135.43 Y63.626 E.01677
G1 X193.922 Y122.118 E2.59747
G1 X193.527 Y122.257 E.01315
G1 X134.896 Y63.626 E2.60365
G1 X134.362 Y63.626 E.01677
G1 X193.131 Y122.395 E2.60977
G1 X192.736 Y122.534 E.01315
G1 X133.828 Y63.626 E2.61595
G1 X133.294 Y63.626 E.01677
G1 X192.34 Y122.673 E2.6221
G1 X191.945 Y122.811 E.01314
M73 P2 R268
G1 X132.76 Y63.626 E2.62825
G1 X132.226 Y63.626 E.01677
G1 X191.549 Y122.95 E2.6344
G1 X191.154 Y123.089 E.01315
G1 X131.692 Y63.626 E2.64057
G1 X131.158 Y63.626 E.01677
G1 X190.759 Y123.227 E2.64672
G1 X190.363 Y123.366 E.01318
G1 X130.624 Y63.626 E2.65287
G1 X130.09 Y63.626 E.01677
G1 X189.968 Y123.505 E2.65904
G1 X189.572 Y123.643 E.01317
M73 Q2 S271
G1 X129.556 Y63.626 E2.66517
G1 X129.022 Y63.626 E.01677
G1 X189.177 Y123.782 E2.67135
G1 X188.782 Y123.92 E.01314
G1 X128.488 Y63.626 E2.6775
G1 X127.953 Y63.626 E.0168
G1 X188.43 Y124.103 E2.68562
G1 X188.102 Y124.309 E.01216
G1 X127.419 Y63.626 E2.69477
G1 X126.885 Y63.626 E.01677
G1 X187.774 Y124.515 E2.70392
G1 X187.446 Y124.721 E.01216
G1 X126.351 Y63.626 E2.71307
G1 X125.817 Y63.626 E.01677
G1 X187.118 Y124.927 E2.72221
G1 X186.79 Y125.134 E.01218
M73 P2 R267
G1 X125.283 Y63.626 E2.73138
G1 X124.749 Y63.626 E.01677
G1 X186.462 Y125.34 E2.74053
G1 X186.134 Y125.546 E.01216
G1 X124.215 Y63.626 E2.74968
G1 X123.681 Y63.626 E.01677
G1 X185.807 Y125.752 E2.75885
G1 X185.479 Y125.958 E.01216
G1 X123.147 Y63.626 E2.768
G1 X122.613 Y63.626 E.01677
G1 X185.151 Y126.164 E2.77715
G1 X184.823 Y126.37 E.01216
M73 Q2 S270
G1 X122.079 Y63.626 E2.78629
G1 X121.545 Y63.626 E.01677
G1 X184.495 Y126.577 E2.79546
G1 X184.167 Y126.783 E.01216
G1 X121.011 Y63.626 E2.80461
G1 X120.477 Y63.626 E.01677
G1 X183.839 Y126.989 E2.81376
G1 X183.715 Y127.067 E.0046
G1 X183.549 Y127.233 E.00737
G1 X119.943 Y63.626 E2.8246
G1 X119.408 Y63.626 E.0168
G1 X183.282 Y127.5 E2.83647
G1 X183.014 Y127.766 E.01186
G1 X118.874 Y63.626 E2.84829
G1 X118.34 Y63.626 E.01677
G1 X182.747 Y128.033 E2.86014
G1 X182.48 Y128.3 E.01186
M73 P2 R266
G1 X117.806 Y63.626 E2.872
G1 X117.272 Y63.626 E.01677
G1 X182.212 Y128.567 E2.88383
G1 X181.945 Y128.833 E.01183
M73 P3 R266
G1 X116.738 Y63.626 E2.89567
G1 X116.204 Y63.626 E.01677
M73 Q3 S270
G1 X181.678 Y129.1 E2.90753
G1 X181.41 Y129.367 E.01188
G1 X115.67 Y63.626 E2.91936
G1 X115.136 Y63.626 E.01677
M73 Q3 S269
G1 X181.143 Y129.634 E2.93122
G1 X180.876 Y129.9 E.01183
G1 X114.602 Y63.626 E2.94305
G1 X114.068 Y63.626 E.01677
G1 X180.609 Y130.167 E2.95491
G1 X180.341 Y130.434 E.01188
G1 X113.534 Y63.626 E2.96674
G1 X113 Y63.626 E.01677
G1 X180.074 Y130.701 E2.9786
G1 X179.807 Y130.968 E.01186
G1 X112.466 Y63.626 E2.99046
G1 X111.932 Y63.626 E.01677
G1 X179.55 Y131.245 E3.00276
G1 X179.34 Y131.569 E.01212
M73 P3 R265
G1 X111.398 Y63.626 E3.01715
G1 X110.864 Y63.626 E.01677
G1 X179.134 Y131.897 E3.03171
G1 X178.928 Y132.225 E.01216
G1 X110.329 Y63.626 E3.0463
G1 X109.795 Y63.626 E.01677
G1 X178.722 Y132.553 E3.06086
G1 X178.516 Y132.881 E.01216
G1 X109.261 Y63.626 E3.07543
G1 X108.727 Y63.626 E.01677
G1 X178.31 Y133.209 E3.09
G1 X178.103 Y133.537 E.01218
M73 Q3 S268
G1 X108.193 Y63.626 E3.10454
G1 X107.659 Y63.626 E.01677
G1 X177.897 Y133.865 E3.1191
G1 X177.691 Y134.193 E.01216
G1 X107.125 Y63.626 E3.13367
G1 X106.591 Y63.626 E.01677
G1 X177.485 Y134.521 E3.14824
G1 X177.279 Y134.849 E.01216
G1 X106.057 Y63.626 E3.1628
G1 X105.523 Y63.626 E.01677
G1 X177.073 Y135.177 E3.17737
G1 X176.867 Y135.505 E.01216
G1 X104.989 Y63.626 E3.19193
G1 X104.455 Y63.626 E.01677
M73 P3 R264
G1 X176.661 Y135.833 E3.2065
G1 X176.463 Y136.168 E.01222
G1 X103.921 Y63.626 E3.2214
G1 X103.387 Y63.626 E.01677
G1 X176.316 Y136.556 E3.23861
G1 X176.178 Y136.952 E.01317
G1 X102.853 Y63.626 E3.25619
G1 X102.319 Y63.626 E.01677
G1 X176.04 Y137.348 E3.27378
G1 X175.902 Y137.744 E.01317
M73 Q3 S267
G1 X101.784 Y63.626 E3.29138
G1 X101.25 Y63.626 E.01677
G1 X175.764 Y138.14 E3.30897
G1 X175.625 Y138.536 E.01318
G1 X100.716 Y63.626 E3.32653
G1 X100.182 Y63.626 E.01677
G1 X175.487 Y138.931 E3.34409
G1 X175.349 Y139.327 E.01317
G1 X99.648 Y63.626 E3.36168
G1 X99.114 Y63.626 E.01677
M73 P4 R264
G1 X175.211 Y139.723 E3.37927
G1 X175.073 Y140.119 E.01317
M73 P4 R263
M73 Q4 S267
G1 X98.58 Y63.626 E3.39685
G1 X98.046 Y63.626 E.01677
G1 X174.934 Y140.515 E3.41441
G1 X174.796 Y140.911 E.01317
G1 X97.512 Y63.626 E3.432
G1 X96.978 Y63.626 E.01677
G1 X174.658 Y141.307 E3.44958
G1 X174.525 Y141.707 E.01324
G1 X96.444 Y63.626 E3.46737
G1 X95.91 Y63.626 E.01677
M73 Q4 S266
G1 X174.47 Y142.187 E3.48866
G1 X174.415 Y142.666 E.01514
G1 X95.376 Y63.626 E3.50993
G1 X94.842 Y63.626 E.01677
G1 X174.361 Y143.146 E3.53125
G1 X174.306 Y143.625 E.01514
G1 X94.308 Y63.626 E3.55252
G1 X93.774 Y63.626 E.01677
G1 X174.252 Y144.105 E3.57384
G1 X174.197 Y144.584 E.01514
G1 X93.239 Y63.626 E3.59513
G1 X92.705 Y63.626 E.01677
M73 P4 R262
G1 X174.143 Y145.064 E3.61644
G1 X174.088 Y145.543 E.01514
G1 X92.171 Y63.626 E3.63772
G1 X91.637 Y63.626 E.01677
G1 X174.033 Y146.023 E3.65901
G1 X173.994 Y146.374 E.01109
G1 X173.85 Y146.374 E.00452
G1 X91.103 Y63.626 E3.6746
G1 X90.569 Y63.626 E.01677
M73 Q4 S265
G1 X173.316 Y146.374 E3.6746
G1 X172.782 Y146.374 E.01677
G1 X90.035 Y63.626 E3.6746
G1 X89.501 Y63.626 E.01677
G1 X172.248 Y146.374 E3.6746
G1 X171.714 Y146.374 E.01677
G1 X88.967 Y63.626 E3.6746
G1 X88.433 Y63.626 E.01677
G1 X171.18 Y146.374 E3.6746
G1 X170.646 Y146.374 E.01677
G1 X87.899 Y63.626 E3.6746
G1 X87.365 Y63.626 E.01677
M73 P4 R261
