; generated by PrusaSlicer 2.9.2 on 2025-04-18 at 06:19:43 UTC


;
;
; 

; external perimeters extrusion width = 0.45mm
; perimeters extrusion width = 0.45mm
; infill extrusion width = 0.45mm
; solid infill extrusion width = 0.45mm
; top infill extrusion width = 0.40mm
; support material extrusion width = 0.35mm
; first layer extrusion width = 0.42mm

M73 P0 R139
M73 Q0 S141
M201 X1000 Y1000 Z200 E5000 ; sets maximum accelerations, mm/sec^2
M203 X200 Y200 Z12 E120 ; sets maximum feedrates, mm / sec
M204 S1250 T1250 ; sets acceleration (S) and retract acceleration (R), mm/sec^2
M205 X8.00 Y8.00 Z0.40 E4.50 ; sets the jerk limits, mm/sec
M205 S0 T0 ; sets the minimum extruding and travel feed rate, mm/sec

; printing object body back.STL id:0 copy 0
; stop printing object body back.STL id:0 copy 0

;TYPE:Custom
M862.3 P "MK3S" ; printer model check
M862.1 P0.4 ; nozzle diameter check
M115 U3.14.1 ; tell printer latest fw version
G90 ; use absolute coordinates
M83 ; extruder relative mode
M104 S215 ; set extruder temp
M140 S60 ; set bed temp
M190 S60 ; wait for bed temp
M109 S215 ; wait for extruder temp
G28 W ; home all without mesh bed level
G80 X101.223 Y42.0025 W43.6542 H125.995 ; mesh bed levelling

G1 Z0.2 F720
G1 Y-3 F1000 ; go outside print area
G92 E0
G1 X60 E9 F1000 ; intro line
G1 X100 E12.5 F1000 ; intro line

G92 E0
M221 S95

; Don't change E values below. Excessive value can damage the printer.

G21 ; set units to millimeters
G90 ; use absolute coordinates
M83 ; use relative distances for extrusion

M900 K0.05 ; Filament gcode LA 1.5
M900 K30 ; Filament gcode LA 1.0




M107
;LAYER_CHANGE
;Z:0.2
;HEIGHT:0.2
G1 E-.8 F2100
G1 Z.6 F720
G1 X101.802 Y43.131 F10800
G1 Z.2 F720
G1 E.8 F2100
M204 S800
;TYPE:Skirt/Brim
;WIDTH:0.42
G1 F1200
G1 X102.835 Y42.329 E.041
G1 X103.6 Y42.191 E.02437
G1 X107.809 Y42.191 E.13197
G1 X142.539 Y42.812 E1.08911
G1 X143.78 Y43.225 E.04101
G1 X144.564 Y44.272 E.04101
G1 X144.689 Y45 E.02316
G1 X144.689 Y165 E3.76252
G1 X144.298 Y166.248 E.04101
G1 X143.265 Y167.051 E.04102
G1 X142.539 Y167.188 E.02316
G1 X107.809 Y167.809 E1.08911
G1 X103.6 Y167.809 E.13197
G1 X102.352 Y167.418 E.04101
G1 X101.549 Y166.385 E.04102
G1 X101.411 Y165.62 E.02437
G1 X101.411 Y44.38 E3.8014
G1 X101.784 Y43.189 E.03913
M204 S1000
;WIPE_START
G1 F8640
G1 X101.802 Y43.131 E-.01402
G1 X102.835 Y42.329 E-.30197
G1 X103.6 Y42.191 E-.17949
G1 X104.919 Y42.191 E-.30452
;WIPE_END
G1 Z.6 F720
; printing object body back.STL id:0 copy 0
G1 X107.02 Y165.199 F10800
G1 Z.2 F720
G1 E.8 F2100
M204 S800
;TYPE:Support material
G1 F1200
G1 X107.301 Y165.48 E.01246
G1 X107.77 Y165.48 E.01471
G1 X107.77 Y165.62 E.00439
G1 X103.6 Y165.62 E.13075
G1 X103.6 Y141.277 E.76326
G1 X107.02 Y141.277 E.10723
G1 X107.02 Y165.142 E.74827
M204 S1000
G1 X106.565 Y165.451 F10800
M204 S800
G1 F1200
G1 X106.565 Y141.616 E.74733
G1 X106.146 Y141.616 E.01314
G1 X106.146 Y165.281 E.742
G1 X105.727 Y165.281 E.01314
G1 X105.727 Y141.616 E.742
G1 X105.308 Y141.616 E.01314
G1 X105.308 Y165.281 E.742
G1 X104.889 Y165.281 E.01314
G1 X104.889 Y141.616 E.742
G1 X104.47 Y141.616 E.01314
G1 X104.47 Y165.281 E.742
G1 X104.051 Y165.281 E.01314
G1 X104.051 Y141.447 E.7473
M204 S1000
;WIPE_START
G1 F8640
G1 X104.051 Y144.912 E-.8
;WIPE_END
G1 Z.6 F720
G1 X107.77 Y44.52 F10800
G1 Z.2 F720
G1 E.8 F2100
M204 S800
G1 F1200
G1 X107.301 Y44.52 E.01471
G1 X107.02 Y44.801 E.01246
G1 X107.02 Y68.723 E.75006
G1 X103.6 Y68.723 E.10723
G1 X103.6 Y44.38 E.76326
G1 X107.77 Y44.38 E.13075
M73 P0 R138
G1 X107.77 Y44.463 E.0026
M204 S1000
;WIPE_START
G1 F8640
G1 X107.77 Y44.38 E-.01916
G1 X104.388 Y44.38 E-.78084
;WIPE_END
G1 Z.6 F720
G1 X106.565 Y68.553 F10800
G1 Z.2 F720
G1 E.8 F2100
M204 S800
G1 F1200
G1 X106.565 Y44.719 E.7473
G1 X106.146 Y44.719 E.01314
G1 X106.146 Y68.384 E.742
G1 X105.727 Y68.384 E.01314
G1 X105.727 Y44.719 E.742
G1 X105.308 Y44.719 E.01314
G1 X105.308 Y68.384 E.742
G1 X104.889 Y68.384 E.01314
G1 X104.889 Y44.719 E.742
G1 X104.47 Y44.719 E.01314
G1 X104.47 Y68.384 E.742
G1 X104.051 Y68.384 E.01314
G1 X104.051 Y44.549 E.74733
M204 S1000
;WIPE_START
G1 F8640
M73 Q0 S140
G1 X104.051 Y48.014 E-.8
;WIPE_END
G1 Z.6 F720
G1 X141.713 Y164.213 F10800
G1 Z.2 F720
G1 E.8 F2100
M204 S800
;TYPE:Perimeter
;WIDTH:0.419999
G1 F1200
G1 X108.287 Y164.213 E1.04805
G1 X108.287 Y45.787 E3.71316
G1 X141.713 Y45.787 E1.04805
G1 X141.713 Y62.5 E.52402
G1 X141.713 Y164.153 E3.18725
M204 S1000
G1 X142.09 Y164.59 F10800
M204 S800
;TYPE:External perimeter
G1 F1200
G1 X107.91 Y164.59 E1.07169
G1 X107.91 Y45.41 E3.7368
G1 X142.09 Y45.41 E1.07169
G1 X142.09 Y62.5 E.53584
G1 X142.09 Y164.53 E3.19907
M204 S1000
;WIPE_START
G1 F8640
G1 X142.09 Y164.59 E-.01385
G1 X138.685 Y164.59 E-.78615
;WIPE_END
G1 Z.6 F720
G1 X141.543 Y46.721 F10800
G1 Z.2 F720
G1 E.8 F2100
M204 S800
;TYPE:Solid infill
;WIDTH:0.42083
G1 F1200
G1 X140.949 Y46.126 E.02642
G1 X140.414 Y46.126 E.01681
G1 X141.374 Y47.086 E.04266
G1 X141.374 Y47.62 E.01678
G1 X139.88 Y46.126 E.06639
G1 X139.346 Y46.126 E.01678
G1 X141.374 Y48.154 E.09012
G1 X141.374 Y48.689 E.01681
G1 X138.811 Y46.126 E.1139
G1 X138.277 Y46.126 E.01678
G1 X141.374 Y49.223 E.13763
G1 X141.374 Y49.758 E.01681
G1 X137.742 Y46.126 E.1614
G1 X137.208 Y46.126 E.01678
M73 Q1 S140
G1 X141.374 Y50.292 E.18513
G1 X141.374 Y50.827 E.01681
G1 X136.673 Y46.126 E.20891
G1 X136.139 Y46.126 E.01678
M73 P1 R138
G1 X141.374 Y51.361 E.23264
G1 X141.374 Y51.896 E.01681
G1 X135.604 Y46.126 E.25641
G1 X135.07 Y46.126 E.01678
G1 X141.374 Y52.43 E.28015
G1 X141.374 Y52.964 E.01678
G1 X134.536 Y46.126 E.30388
G1 X134.001 Y46.126 E.01681
G1 X141.374 Y53.499 E.32765
G1 X141.374 Y54.033 E.01678
G1 X133.467 Y46.126 E.35138
G1 X132.932 Y46.126 E.01681
G1 X141.374 Y54.568 E.37516
G1 X141.374 Y55.102 E.01678
G1 X132.398 Y46.126 E.39889
G1 X131.863 Y46.126 E.01681
G1 X141.374 Y55.637 E.42266
G1 X141.374 Y56.171 E.01678
G1 X131.329 Y46.126 E.44639
G1 X130.794 Y46.126 E.01681
G1 X141.374 Y56.706 E.47017
G1 X141.374 Y57.24 E.01678
G1 X130.26 Y46.126 E.4939
G1 X129.726 Y46.126 E.01678
G1 X141.374 Y57.774 E.51763
G1 X141.374 Y58.309 E.01681
G1 X129.191 Y46.126 E.5414
G1 X128.657 Y46.126 E.01678
G1 X141.374 Y58.843 E.56513
G1 X141.374 Y59.378 E.01681
G1 X128.122 Y46.126 E.58891
G1 X127.588 Y46.126 E.01678
G1 X141.374 Y59.912 E.61264
G1 X141.374 Y60.447 E.01681
G1 X127.053 Y46.126 E.63642
G1 X126.519 Y46.126 E.01678
G1 X141.374 Y60.981 E.66015
G1 X141.374 Y61.516 E.01681
G1 X125.984 Y46.126 E.68392
G1 X125.45 Y46.126 E.01678
M73 P1 R137
G1 X141.374 Y62.05 E.70765
G1 X141.374 Y62.584 E.01678
G1 X124.916 Y46.126 E.73138
G1 X124.381 Y46.126 E.01681
G1 X141.374 Y63.119 E.75516
G1 X141.374 Y63.653 E.01678
G1 X123.847 Y46.126 E.77889
G1 X123.312 Y46.126 E.01681
G1 X141.374 Y64.188 E.80266
G1 X141.374 Y64.722 E.01678
G1 X122.778 Y46.126 E.82639
G1 X122.243 Y46.126 E.01681
G1 X141.374 Y65.257 E.85017
G1 X141.374 Y65.791 E.01678
M73 Q1 S139
G1 X121.709 Y46.126 E.8739
G1 X121.174 Y46.126 E.01681
G1 X141.374 Y66.326 E.89767
G1 X141.374 Y66.86 E.01678
G1 X120.64 Y46.126 E.9214
G1 X120.106 Y46.126 E.01678
G1 X141.374 Y67.394 E.94514
G1 X141.374 Y67.929 E.01681
G1 X119.571 Y46.126 E.96891
G1 X119.037 Y46.126 E.01678
G1 X141.374 Y68.463 E.99264
G1 X141.374 Y68.998 E.01681
G1 X118.502 Y46.126 E1.01642
G1 X117.968 Y46.126 E.01678
G1 X141.374 Y69.532 E1.04015
G1 X141.374 Y70.067 E.01681
G1 X117.433 Y46.126 E1.06392
G1 X116.899 Y46.126 E.01678
G1 X141.374 Y70.601 E1.08765
G1 X141.374 Y71.136 E.01681
G1 X116.364 Y46.126 E1.11143
G1 X115.83 Y46.126 E.01678
G1 X141.374 Y71.67 E1.13516
G1 X141.374 Y72.204 E.01678
G1 X115.296 Y46.126 E1.15889
G1 X114.761 Y46.126 E.01681
G1 X141.374 Y72.739 E1.18266
G1 X141.374 Y73.273 E.01678
G1 X114.227 Y46.126 E1.20639
G1 X113.692 Y46.126 E.01681
G1 X141.374 Y73.808 E1.23017
G1 X141.374 Y74.342 E.01678
G1 X113.158 Y46.126 E1.2539
G1 X112.623 Y46.126 E.01681
G1 X141.374 Y74.877 E1.27767
G1 X141.374 Y75.411 E.01678
G1 X112.089 Y46.126 E1.30141
G1 X111.554 Y46.126 E.01681
G1 X141.374 Y75.946 E1.32518
G1 X141.374 Y76.48 E.01678
G1 X111.02 Y46.126 E1.34891
G1 X110.486 Y46.126 E.01678
G1 X141.374 Y77.015 E1.37266
G1 X141.374 Y77.549 E.01678
G1 X109.951 Y46.126 E1.39642
G1 X109.417 Y46.126 E.01678
G1 X141.374 Y78.083 E1.42015
G1 X141.374 Y78.618 E.01681
G1 X108.882 Y46.126 E1.44392
G1 X108.626 Y46.126 E.00804
G1 X108.626 Y46.405 E.00877
G1 X141.374 Y79.152 E1.45528
G1 X141.374 Y79.687 E.01681
G1 X108.626 Y46.94 E1.45528
G1 X108.626 Y47.474 E.01678
M73 P1 R136
G1 X141.374 Y80.221 E1.45528
G1 X141.374 Y80.756 E.01681
G1 X108.626 Y48.009 E1.45528
G1 X108.626 Y48.543 E.01678
G1 X141.374 Y81.29 E1.45528
G1 X141.374 Y81.825 E.01681
G1 X108.626 Y49.077 E1.4553
G1 X108.626 Y49.612 E.01681
M73 P2 R136
M73 Q2 S138
G1 X141.374 Y82.359 E1.45528
G1 X141.374 Y82.893 E.01678
G1 X108.626 Y50.146 E1.45528
G1 X108.626 Y50.681 E.01681
G1 X141.374 Y83.428 E1.45528
G1 X141.374 Y83.962 E.01678
G1 X108.626 Y51.215 E1.45528
G1 X108.626 Y51.75 E.01681
G1 X141.374 Y84.497 E1.45528
G1 X141.374 Y85.031 E.01678
G1 X108.626 Y52.284 E1.45528
G1 X108.626 Y52.819 E.01681
G1 X141.374 Y85.566 E1.45528
G1 X141.374 Y86.1 E.01678
G1 X108.626 Y53.353 E1.45528
G1 X108.626 Y53.887 E.01678
G1 X141.374 Y86.635 E1.4553
G1 X141.374 Y87.169 E.01678
G1 X108.626 Y54.422 E1.45528
G1 X108.626 Y54.956 E.01678
G1 X141.374 Y87.703 E1.45528
G1 X141.374 Y88.238 E.01681
G1 X108.626 Y55.491 E1.45528
G1 X108.626 Y56.025 E.01678
G1 X141.374 Y88.772 E1.45528
G1 X141.374 Y89.307 E.01681
G1 X108.626 Y56.56 E1.45528
G1 X108.626 Y57.094 E.01678
G1 X141.374 Y89.841 E1.45528
G1 X141.374 Y90.376 E.01681
G1 X108.626 Y57.629 E1.45528
G1 X108.626 Y58.163 E.01678
G1 X141.374 Y90.91 E1.45528
G1 X141.374 Y91.445 E.01681
G1 X108.626 Y58.697 E1.4553
G1 X108.626 Y59.232 E.01681
G1 X141.374 Y91.979 E1.45528
G1 X141.374 Y92.513 E.01678
G1 X108.626 Y59.766 E1.45528
G1 X108.626 Y60.301 E.01681
G1 X141.374 Y93.048 E1.45528
G1 X141.374 Y93.582 E.01678
M73 P2 R135
G1 X108.626 Y60.835 E1.45528
G1 X108.626 Y61.37 E.01681
G1 X141.374 Y94.117 E1.45528
G1 X141.374 Y94.651 E.01678
G1 X108.626 Y61.904 E1.45528
G1 X108.626 Y62.439 E.01681
G1 X141.374 Y95.186 E1.45528
G1 X141.374 Y95.72 E.01678
M73 Q2 S137
G1 X108.626 Y62.973 E1.45528
G1 X108.626 Y63.507 E.01678
G1 X141.374 Y96.255 E1.4553
G1 X141.374 Y96.789 E.01678
G1 X108.626 Y64.042 E1.45528
G1 X108.626 Y64.576 E.01678
G1 X141.374 Y97.323 E1.45528
G1 X141.374 Y97.858 E.01681
G1 X108.626 Y65.111 E1.45528
G1 X108.626 Y65.645 E.01678
G1 X141.374 Y98.392 E1.45528
G1 X141.374 Y98.927 E.01681
G1 X108.626 Y66.18 E1.45528
G1 X108.626 Y66.714 E.01678
G1 X141.374 Y99.461 E1.45528
G1 X141.374 Y99.996 E.01681
G1 X108.626 Y67.249 E1.45528
G1 X108.626 Y67.783 E.01678
G1 X141.374 Y100.53 E1.45528
G1 X141.374 Y101.065 E.01681
M73 P3 R135
G1 X108.626 Y68.317 E1.4553
G1 X108.626 Y68.852 E.01681
M73 Q3 S137
G1 X141.374 Y101.599 E1.45528
G1 X141.374 Y102.133 E.01678
G1 X108.626 Y69.386 E1.45528
G1 X108.626 Y69.921 E.01681
G1 X141.374 Y102.668 E1.45528
G1 X141.374 Y103.202 E.01678
G1 X108.626 Y70.455 E1.45528
G1 X108.626 Y70.99 E.01681
G1 X141.374 Y103.737 E1.45528
G1 X141.374 Y104.271 E.01678
G1 X108.626 Y71.524 E1.45528
G1 X108.626 Y72.059 E.01681
G1 X141.374 Y104.806 E1.45528
G1 X141.374 Y105.34 E.01678
G1 X108.626 Y72.593 E1.45528
G1 X108.626 Y73.127 E.01678
G1 X141.374 Y105.875 E1.4553
G1 X141.374 Y106.409 E.01678
G1 X108.626 Y73.662 E1.45528
G1 X108.626 Y74.196 E.01678
G1 X141.374 Y106.943 E1.45528
G1 X141.374 Y107.478 E.01681
M73 P3 R134
G1 X108.626 Y74.731 E1.45528
G1 X108.626 Y75.265 E.01678
G1 X141.374 Y108.012 E1.45528
G1 X141.374 Y108.547 E.01681
G1 X108.626 Y75.8 E1.45528
G1 X108.626 Y76.334 E.01678
G1 X141.374 Y109.081 E1.45528
G1 X141.374 Y109.616 E.01681
M73 Q3 S136
G1 X108.626 Y76.869 E1.45528
G1 X108.626 Y77.403 E.01678
G1 X141.374 Y110.15 E1.45528
G1 X141.374 Y110.685 E.01681
G1 X108.626 Y77.937 E1.4553
G1 X108.626 Y78.472 E.01681
G1 X141.374 Y111.219 E1.45528
G1 X141.374 Y111.753 E.01678
G1 X108.626 Y79.006 E1.45528
G1 X108.626 Y79.541 E.01681
G1 X141.374 Y112.288 E1.45528
G1 X141.374 Y112.822 E.01678
G1 X108.626 Y80.075 E1.45528
G1 X108.626 Y80.61 E.01681
G1 X141.374 Y113.357 E1.45528
G1 X141.374 Y113.891 E.01678
G1 X108.626 Y81.144 E1.45528
G1 X108.626 Y81.679 E.01681
G1 X141.374 Y114.426 E1.45528
G1 X141.374 Y114.96 E.01678
G1 X108.626 Y82.213 E1.45528
G1 X108.626 Y82.747 E.01678
G1 X141.374 Y115.495 E1.4553
G1 X141.374 Y116.029 E.01678
G1 X108.626 Y83.282 E1.45528
G1 X108.626 Y83.816 E.01678
G1 X141.374 Y116.563 E1.45528
G1 X141.374 Y117.098 E.01681
G1 X108.626 Y84.351 E1.45528
G1 X108.626 Y84.885 E.01678
G1 X141.374 Y117.632 E1.45528
G1 X141.374 Y118.167 E.01681
G1 X108.626 Y85.42 E1.45528
G1 X108.626 Y85.954 E.01678
G1 X141.374 Y118.701 E1.45528
G1 X141.374 Y119.236 E.01681
G1 X108.626 Y86.489 E1.45528
G1 X108.626 Y87.023 E.01678
G1 X141.374 Y119.77 E1.45528
G1 X141.374 Y120.305 E.01681
M73 P4 R134
G1 X108.626 Y87.557 E1.4553
G1 X108.626 Y88.092 E.01681
M73 P4 R133
M73 Q4 S136
G1 X141.374 Y120.839 E1.45528
G1 X141.374 Y121.373 E.01678
G1 X108.626 Y88.626 E1.45528
G1 X108.626 Y89.161 E.01681
G1 X141.374 Y121.908 E1.45528
G1 X141.374 Y122.442 E.01678
G1 X108.626 Y89.695 E1.45528
G1 X108.626 Y90.23 E.01681
M73 Q4 S135
G1 X141.374 Y122.977 E1.45528
G1 X141.374 Y123.511 E.01678
G1 X108.626 Y90.764 E1.45528
G1 X108.626 Y91.299 E.01681
G1 X141.374 Y124.046 E1.45528
G1 X141.374 Y124.58 E.01678
G1 X108.626 Y91.833 E1.45528
G1 X108.626 Y92.367 E.01678
G1 X141.374 Y125.115 E1.4553
G1 X141.374 Y125.649 E.01678
G1 X108.626 Y92.902 E1.45528
G1 X108.626 Y93.436 E.01678
G1 X141.374 Y126.183 E1.45528
G1 X141.374 Y126.718 E.01681
G1 X108.626 Y93.971 E1.45528
G1 X108.626 Y94.505 E.01678
G1 X141.374 Y127.252 E1.45528
G1 X141.374 Y127.787 E.01681
G1 X108.626 Y95.04 E1.45528
G1 X108.626 Y95.574 E.01678
G1 X141.374 Y128.321 E1.45528
G1 X141.374 Y128.856 E.01681
G1 X108.626 Y96.109 E1.45528
G1 X108.626 Y96.643 E.01678
G1 X141.374 Y129.39 E1.45528
G1 X141.374 Y129.925 E.01681
G1 X108.626 Y97.178 E1.45528
G1 X108.626 Y97.712 E.01678
G1 X141.374 Y130.459 E1.45528
G1 X141.374 Y130.993 E.01678
G1 X108.626 Y98.246 E1.45528
G1 X108.626 Y98.781 E.01681
G1 X141.374 Y131.528 E1.45528
G1 X141.374 Y132.062 E.01678
G1 X108.626 Y99.315 E1.45528
G1 X108.626 Y99.85 E.01681
G1 X141.374 Y132.597 E1.45528
G1 X141.374 Y133.131 E.01678
G1 X108.626 Y100.384 E1.45528
G1 X108.626 Y100.919 E.01681
G1 X141.374 Y133.666 E1.45528
G1 X141.374 Y134.2 E.01678
G1 X108.626 Y101.453 E1.45528
G1 X108.626 Y101.988 E.01681
M73 P4 R132
G1 X141.374 Y134.735 E1.45528
G1 X141.374 Y135.269 E.01678
G1 X108.626 Y102.522 E1.45528
G1 X108.626 Y103.056 E.01678
G1 X141.374 Y135.804 E1.4553
G1 X141.374 Y136.338 E.01678
G1 X108.626 Y103.591 E1.45528
G1 X108.626 Y104.125 E.01678
M73 Q4 S134
G1 X141.374 Y136.872 E1.45528
G1 X141.374 Y137.407 E.01681
G1 X108.626 Y104.66 E1.45528
G1 X108.626 Y105.194 E.01678
G1 X141.374 Y137.941 E1.45528
G1 X141.374 Y138.476 E.01681
G1 X108.626 Y105.729 E1.45528
G1 X108.626 Y106.263 E.01678
M73 P5 R132
G1 X141.374 Y139.01 E1.45528
G1 X141.374 Y139.545 E.01681
G1 X108.626 Y106.798 E1.45528
G1 X108.626 Y107.332 E.01678
M73 Q5 S134
G1 X141.374 Y140.079 E1.45528
G1 X141.374 Y140.614 E.01681
G1 X108.626 Y107.866 E1.4553
G1 X108.626 Y108.401 E.01681
G1 X141.374 Y141.148 E1.45528
G1 X141.374 Y141.682 E.01678
G1 X108.626 Y108.935 E1.45528
G1 X108.626 Y109.47 E.01681
G1 X141.374 Y142.217 E1.45528
G1 X141.374 Y142.751 E.01678
G1 X108.626 Y110.004 E1.45528
G1 X108.626 Y110.539 E.01681
G1 X141.374 Y143.286 E1.45528
G1 X141.374 Y143.82 E.01678
G1 X108.626 Y111.073 E1.45528
G1 X108.626 Y111.608 E.01681
G1 X141.374 Y144.355 E1.45528
G1 X141.374 Y144.889 E.01678
G1 X108.626 Y112.142 E1.45528
G1 X108.626 Y112.676 E.01678
G1 X141.374 Y145.424 E1.4553
G1 X141.374 Y145.958 E.01678
G1 X108.626 Y113.211 E1.45528
G1 X108.626 Y113.745 E.01678
G1 X141.374 Y146.492 E1.45528
G1 X141.374 Y147.027 E.01681
G1 X108.626 Y114.28 E1.45528
G1 X108.626 Y114.814 E.01678
G1 X141.374 Y147.561 E1.45528
G1 X141.374 Y148.096 E.01681
M73 P5 R131
G1 X108.626 Y115.349 E1.45528
