; generated by PrusaSlicer 2.9.2 on 2025-04-18 at 06:17:56 UTC


;
;
; 

; external perimeters extrusion width = 0.45mm
; perimeters extrusion width = 0.45mm
; infill extrusion width = 0.45mm
; solid infill extrusion width = 0.45mm
; top infill extrusion width = 0.40mm
; support material extrusion width = 0.35mm
; first layer extrusion width = 0.42mm

M73 P0 R290
M73 Q0 S294
M201 X1000 Y1000 Z200 E5000 ; sets maximum accelerations, mm/sec^2
M203 X200 Y200 Z12 E120 ; sets maximum feedrates, mm / sec
M204 S1250 T1250 ; sets acceleration (S) and retract acceleration (R), mm/sec^2
M205 X8.00 Y8.00 Z0.40 E4.50 ; sets the jerk limits, mm/sec
M205 S0 T0 ; sets the minimum extruding and travel feed rate, mm/sec

; printing object body middle front right.STL id:0 copy 0
; stop printing object body middle front right.STL id:0 copy 0

;TYPE:Custom
M862.3 P "MK3S" ; printer model check
M862.1 P0.4 ; nozzle diameter check
M115 U3.14.1 ; tell printer latest fw version
G90 ; use absolute coordinates
M83 ; extruder relative mode
M104 S215 ; set extruder temp
M140 S60 ; set bed temp
M190 S60 ; wait for bed temp
M109 S215 ; wait for extruder temp
G28 W ; home all without mesh bed level
G80 X30.1229 Y60.1229 W194.788 H89.7542 ; mesh bed levelling

G1 Z0.2 F720
G1 Y-3 F1000 ; go outside print area
G92 E0
G1 X60 E9 F1000 ; intro line
G1 X100 E12.5 F1000 ; intro line

G92 E0
M221 S95

; Don't change E values below. Excessive value can damage the printer.

G21 ; set units to millimeters
G90 ; use absolute coordinates
M83 ; use relative distances for extrusion

M900 K0.05 ; Filament gcode LA 1.5
M900 K30 ; Filament gcode LA 1.0




M107
;LAYER_CHANGE
;Z:0.2
;HEIGHT:0.2
G1 E-.8 F2100
G1 Z.6 F720
G1 X31.735 Y60.449 F10800
G1 Z.2 F720
G1 E.8 F2100
M204 S800
;TYPE:Skirt/Brim
;WIDTH:0.42
G1 F1200
G1 X32.5 Y60.311 E.02437
G1 X182.5 Y60.311 E4.70314
G1 X183.52 Y60.564 E.03295
G1 X223.554 Y81.664 E1.41891
G1 X224.476 Y82.592 E.04102
G1 X224.722 Y83.6 E.03253
G1 X224.722 Y94.101 E.32925
G1 X224.285 Y95.414 E.04339
G1 X184.251 Y148.813 E2.09257
G1 X183.19 Y149.577 E.04099
G1 X182.5 Y149.689 E.02192
G1 X57.5 Y149.689 E3.91929
G1 X55.952 Y149.048 E.05253
G1 X30.952 Y124.048 E1.10854
G1 X30.311 Y122.5 E.05253
M73 Q0 S293
G1 X30.311 Y62.5 E1.88126
G1 X30.702 Y61.252 E.04101
G1 X31.688 Y60.486 E.03915
M204 S1000
;WIPE_START
G1 F8640
G1 X31.735 Y60.449 E-.01381
G1 X32.5 Y60.311 E-.17949
G1 X35.128 Y60.311 E-.6067
;WIPE_END
G1 Z.6 F720
; printing object body middle front right.STL id:0 copy 0
G1 X222.534 Y94.101 F10800
G1 Z.2 F720
G1 E.8 F2100
M204 S800
;TYPE:Support material
G1 F1200
G1 X182.98 Y94.101 E1.24019
G1 X182.98 Y83.6 E.32925
G1 X222.534 Y83.6 E1.24019
G1 X222.534 Y94.044 E.32746
M204 S1000
G1 X221.784 Y93.931 F10800
M204 S800
G1 F1200
G1 X221.784 Y83.939 E.31329
G1 X221.365 Y83.939 E.01314
G1 X221.365 Y93.762 E.30799
G1 X220.946 Y93.762 E.01314
G1 X220.946 Y83.939 E.30799
G1 X220.527 Y83.939 E.01314
G1 X220.527 Y93.762 E.30799
G1 X220.108 Y93.762 E.01314
G1 X220.108 Y83.939 E.30799
G1 X219.689 Y83.939 E.01314
G1 X219.689 Y93.762 E.30799
G1 X219.27 Y93.762 E.01314
G1 X219.27 Y83.939 E.30799
G1 X218.851 Y83.939 E.01314
G1 X218.851 Y93.762 E.30799
G1 X218.432 Y93.762 E.01314
G1 X218.432 Y83.939 E.30799
G1 X218.013 Y83.939 E.01314
G1 X218.013 Y93.762 E.30799
G1 X217.594 Y93.762 E.01314
G1 X217.594 Y83.939 E.30799
G1 X217.175 Y83.939 E.01314
G1 X217.175 Y93.762 E.30799
G1 X216.756 Y93.762 E.01314
G1 X216.756 Y83.939 E.30799
G1 X216.337 Y83.939 E.01314
G1 X216.337 Y93.762 E.30799
G1 X215.918 Y93.762 E.01314
G1 X215.918 Y83.939 E.30799
G1 X215.499 Y83.939 E.01314
G1 X215.499 Y93.762 E.30799
G1 X215.08 Y93.762 E.01314
G1 X215.08 Y83.939 E.30799
G1 X214.661 Y83.939 E.01314
G1 X214.661 Y93.762 E.30799
G1 X214.242 Y93.762 E.01314
G1 X214.242 Y83.939 E.30799
G1 X213.823 Y83.939 E.01314
G1 X213.823 Y93.762 E.30799
G1 X213.404 Y93.762 E.01314
G1 X213.404 Y83.939 E.30799
G1 X212.985 Y83.939 E.01314
G1 X212.985 Y93.762 E.30799
G1 X212.566 Y93.762 E.01314
G1 X212.566 Y83.939 E.30799
M73 P0 R289
G1 X212.147 Y83.939 E.01314
G1 X212.147 Y93.762 E.30799
G1 X211.728 Y93.762 E.01314
G1 X211.728 Y83.939 E.30799
G1 X211.309 Y83.939 E.01314
G1 X211.309 Y93.762 E.30799
G1 X210.89 Y93.762 E.01314
G1 X210.89 Y83.939 E.30799
G1 X210.471 Y83.939 E.01314
G1 X210.471 Y93.762 E.30799
G1 X210.052 Y93.762 E.01314
G1 X210.052 Y83.939 E.30799
G1 X209.633 Y83.939 E.01314
G1 X209.633 Y93.762 E.30799
G1 X209.214 Y93.762 E.01314
G1 X209.214 Y83.939 E.30799
G1 X208.795 Y83.939 E.01314
G1 X208.795 Y93.762 E.30799
G1 X208.376 Y93.762 E.01314
G1 X208.376 Y83.939 E.30799
G1 X207.957 Y83.939 E.01314
G1 X207.957 Y93.762 E.30799
G1 X207.538 Y93.762 E.01314
G1 X207.538 Y83.939 E.30799
G1 X207.119 Y83.939 E.01314
G1 X207.119 Y93.762 E.30799
G1 X206.701 Y93.762 E.01311
G1 X206.701 Y83.939 E.30799
G1 X206.282 Y83.939 E.01314
G1 X206.282 Y93.762 E.30799
G1 X205.863 Y93.762 E.01314
G1 X205.863 Y83.939 E.30799
G1 X205.444 Y83.939 E.01314
G1 X205.444 Y93.762 E.30799
G1 X205.025 Y93.762 E.01314
G1 X205.025 Y83.939 E.30799
G1 X204.606 Y83.939 E.01314
G1 X204.606 Y93.762 E.30799
G1 X204.187 Y93.762 E.01314
G1 X204.187 Y83.939 E.30799
G1 X203.768 Y83.939 E.01314
G1 X203.768 Y93.762 E.30799
G1 X203.349 Y93.762 E.01314
G1 X203.349 Y83.939 E.30799
G1 X202.93 Y83.939 E.01314
G1 X202.93 Y93.762 E.30799
G1 X202.511 Y93.762 E.01314
G1 X202.511 Y83.939 E.30799
G1 X202.092 Y83.939 E.01314
G1 X202.092 Y93.762 E.30799
G1 X201.673 Y93.762 E.01314
G1 X201.673 Y83.939 E.30799
G1 X201.254 Y83.939 E.01314
G1 X201.254 Y93.762 E.30799
G1 X200.835 Y93.762 E.01314
G1 X200.835 Y83.939 E.30799
G1 X200.416 Y83.939 E.01314
G1 X200.416 Y93.762 E.30799
G1 X199.997 Y93.762 E.01314
G1 X199.997 Y83.939 E.30799
G1 X199.578 Y83.939 E.01314
G1 X199.578 Y93.762 E.30799
G1 X199.159 Y93.762 E.01314
G1 X199.159 Y83.939 E.30799
G1 X198.74 Y83.939 E.01314
G1 X198.74 Y93.762 E.30799
G1 X198.321 Y93.762 E.01314
G1 X198.321 Y83.939 E.30799
G1 X197.902 Y83.939 E.01314
G1 X197.902 Y93.762 E.30799
G1 X197.483 Y93.762 E.01314
G1 X197.483 Y83.939 E.30799
G1 X197.064 Y83.939 E.01314
G1 X197.064 Y93.762 E.30799
G1 X196.645 Y93.762 E.01314
G1 X196.645 Y83.939 E.30799
G1 X196.226 Y83.939 E.01314
G1 X196.226 Y93.762 E.30799
G1 X195.807 Y93.762 E.01314
G1 X195.807 Y83.939 E.30799
G1 X195.388 Y83.939 E.01314
G1 X195.388 Y93.762 E.30799
G1 X194.969 Y93.762 E.01314
G1 X194.969 Y83.939 E.30799
G1 X194.55 Y83.939 E.01314
G1 X194.55 Y93.762 E.30799
G1 X194.131 Y93.762 E.01314
G1 X194.131 Y83.939 E.30799
G1 X193.712 Y83.939 E.01314
G1 X193.712 Y93.762 E.30799
G1 X193.293 Y93.762 E.01314
G1 X193.293 Y83.939 E.30799
G1 X192.874 Y83.939 E.01314
G1 X192.874 Y93.762 E.30799
G1 X192.455 Y93.762 E.01314
G1 X192.455 Y83.939 E.30799
G1 X192.036 Y83.939 E.01314
G1 X192.036 Y93.762 E.30799
G1 X191.617 Y93.762 E.01314
G1 X191.617 Y83.939 E.30799
G1 X191.198 Y83.939 E.01314
G1 X191.198 Y93.762 E.30799
G1 X190.779 Y93.762 E.01314
G1 X190.779 Y83.939 E.30799
G1 X190.36 Y83.939 E.01314
G1 X190.36 Y93.762 E.30799
G1 X189.941 Y93.762 E.01314
G1 X189.941 Y83.939 E.30799
G1 X189.522 Y83.939 E.01314
G1 X189.522 Y93.762 E.30799
G1 X189.103 Y93.762 E.01314
G1 X189.103 Y83.939 E.30799
G1 X188.685 Y83.939 E.01311
G1 X188.685 Y93.762 E.30799
G1 X188.266 Y93.762 E.01314
G1 X188.266 Y83.939 E.30799
G1 X187.847 Y83.939 E.01314
G1 X187.847 Y93.762 E.30799
G1 X187.428 Y93.762 E.01314
G1 X187.428 Y83.939 E.30799
G1 X187.009 Y83.939 E.01314
G1 X187.009 Y93.762 E.30799
G1 X186.59 Y93.762 E.01314
G1 X186.59 Y83.939 E.30799
G1 X186.171 Y83.939 E.01314
G1 X186.171 Y93.762 E.30799
G1 X185.752 Y93.762 E.01314
G1 X185.752 Y83.939 E.30799
G1 X185.333 Y83.939 E.01314
G1 X185.333 Y93.762 E.30799
G1 X184.914 Y93.762 E.01314
G1 X184.914 Y83.939 E.30799
G1 X184.495 Y83.939 E.01314
G1 X184.495 Y93.762 E.30799
G1 X184.076 Y93.762 E.01314
G1 X184.076 Y83.939 E.30799
G1 X183.657 Y83.939 E.01314
G1 X183.657 Y93.931 E.31329
M204 S1000
;WIPE_START
G1 F8640
G1 X183.657 Y90.466 E-.8
;WIPE_END
G1 Z.6 F720
G1 X181.713 Y63.287 F10800
G1 Z.2 F720
M73 Q0 S292
G1 E.8 F2100
M204 S800
;TYPE:Perimeter
;WIDTH:0.419999
G1 F1200
G1 X181.713 Y105 E1.30788
G1 X181.713 Y146.713 E1.30788
G1 X58.19 Y146.713 E3.87297
G1 X57.425 Y140.898 E.1839
G1 X57.386 Y140.755 E.00465
G1 X54.867 Y134.672 E.20643
G1 X54.793 Y134.544 E.00464
G1 X50.784 Y129.32 E.20647
G1 X50.68 Y129.216 E.00461
G1 X45.456 Y125.207 E.20647
G1 X45.328 Y125.133 E.00464
G1 X39.245 Y122.614 E.20643
G1 X39.102 Y122.575 E.00465
G1 X33.287 Y121.81 E.1839
G1 X33.287 Y63.287 E1.83494
G1 X181.653 Y63.287 E4.6519
M204 S1000
G1 X182.09 Y62.91 F10800
M73 P0 R288
M204 S800
;TYPE:External perimeter
G1 F1200
G1 X182.09 Y105 E1.3197
G1 X182.09 Y147.09 E1.3197
G1 X57.86 Y147.09 E3.89514
G1 X57.038 Y140.9 E.19579
G1 X54.518 Y134.816 E.20648
G1 X50.485 Y129.55 E.20797
G1 X45.184 Y125.482 E.20951
G1 X39.1 Y122.962 E.20648
G1 X32.91 Y122.14 E.19579
G1 X32.91 Y62.91 E1.85711
G1 X182.03 Y62.91 E4.67555
M204 S1000
;WIPE_START
G1 F8640
G1 X182.09 Y62.91 E-.01385
G1 X182.09 Y66.315 E-.78615
;WIPE_END
G1 Z.6 F720
G1 X181.543 Y64.221 F10800
G1 Z.2 F720
G1 E.8 F2100
M204 S800
;TYPE:Solid infill
;WIDTH:0.420954
G1 F1200
G1 X180.949 Y63.626 E.02643
G1 X180.414 Y63.626 E.01682
G1 X181.374 Y64.586 E.04268
G1 X181.374 Y65.121 E.01682
G1 X179.879 Y63.626 E.06646
G1 X179.345 Y63.626 E.01679
G1 X181.374 Y65.655 E.0902
G1 X181.374 Y66.19 E.01682
G1 X178.81 Y63.626 E.11398
G1 X178.276 Y63.626 E.01679
G1 X181.374 Y66.724 E.13772
G1 X181.374 Y67.259 E.01682
G1 X177.741 Y63.626 E.1615
G1 X177.206 Y63.626 E.01682
G1 X181.374 Y67.794 E.18528
G1 X181.374 Y68.328 E.01679
G1 X176.672 Y63.626 E.20902
G1 X176.137 Y63.626 E.01682
G1 X181.374 Y68.863 E.23281
G1 X181.374 Y69.398 E.01682
G1 X175.602 Y63.626 E.25659
G1 X175.068 Y63.626 E.01679
G1 X181.374 Y69.932 E.28033
G1 X181.374 Y70.467 E.01682
G1 X174.533 Y63.626 E.30411
G1 X173.999 Y63.626 E.01679
G1 X181.374 Y71.001 E.32785
G1 X181.374 Y71.536 E.01682
G1 X173.464 Y63.626 E.35163
G1 X172.929 Y63.626 E.01682
G1 X181.374 Y72.071 E.37541
G1 X181.374 Y72.605 E.01679
G1 X172.395 Y63.626 E.39915
G1 X171.86 Y63.626 E.01682
G1 X181.374 Y73.14 E.42293
G1 X181.374 Y73.675 E.01682
G1 X171.325 Y63.626 E.44672
G1 X170.791 Y63.626 E.01679
G1 X181.374 Y74.209 E.47046
G1 X181.374 Y74.744 E.01682
G1 X170.256 Y63.626 E.49424
G1 X169.722 Y63.626 E.01679
G1 X181.374 Y75.278 E.51798
G1 X181.374 Y75.813 E.01682
G1 X169.187 Y63.626 E.54176
G1 X168.652 Y63.626 E.01682
G1 X181.374 Y76.348 E.56554
G1 X181.374 Y76.882 E.01679
G1 X168.118 Y63.626 E.58928
G1 X167.583 Y63.626 E.01682
G1 X181.374 Y77.417 E.61306
G1 X181.374 Y77.952 E.01682
M73 Q0 S291
G1 X167.048 Y63.626 E.63685
G1 X166.514 Y63.626 E.01679
G1 X181.374 Y78.486 E.66058
G1 X181.374 Y79.021 E.01682
G1 X165.979 Y63.626 E.68437
G1 X165.445 Y63.626 E.01679
G1 X181.374 Y79.555 E.70811
G1 X181.374 Y80.09 E.01682
G1 X164.91 Y63.626 E.73189
G1 X164.375 Y63.626 E.01682
G1 X181.374 Y80.625 E.75567
G1 X181.374 Y81.159 E.01679
G1 X163.841 Y63.626 E.77941
G1 X163.306 Y63.626 E.01682
G1 X181.374 Y81.694 E.80319
G1 X181.374 Y82.228 E.01679
G1 X162.772 Y63.626 E.82693
G1 X162.237 Y63.626 E.01682
G1 X181.374 Y82.763 E.85071
G1 X181.374 Y83.298 E.01682
G1 X161.702 Y63.626 E.8745
G1 X161.168 Y63.626 E.01679
G1 X181.374 Y83.832 E.89824
G1 X181.374 Y84.367 E.01682
G1 X160.633 Y63.626 E.92202
G1 X160.098 Y63.626 E.01682
G1 X181.374 Y84.902 E.9458
G1 X181.374 Y85.436 E.01679
G1 X159.564 Y63.626 E.96954
G1 X159.029 Y63.626 E.01682
G1 X181.374 Y85.971 E.99332
G1 X181.374 Y86.505 E.01679
G1 X158.495 Y63.626 E1.01706
G1 X157.96 Y63.626 E.01682
M73 P0 R287
G1 X181.374 Y87.04 E1.04084
G1 X181.374 Y87.575 E.01682
G1 X157.425 Y63.626 E1.06463
G1 X156.891 Y63.626 E.01679
M73 P1 R287
G1 X181.374 Y88.109 E1.08836
G1 X181.374 Y88.644 E.01682
M73 Q1 S291
G1 X156.356 Y63.626 E1.11215
G1 X155.821 Y63.626 E.01682
G1 X181.374 Y89.179 E1.13593
G1 X181.374 Y89.713 E.01679
G1 X155.287 Y63.626 E1.15967
G1 X154.752 Y63.626 E.01682
G1 X181.374 Y90.248 E1.18345
G1 X181.374 Y90.782 E.01679
G1 X154.218 Y63.626 E1.20719
G1 X153.683 Y63.626 E.01682
G1 X181.374 Y91.317 E1.23097
G1 X181.374 Y91.852 E.01682
G1 X153.148 Y63.626 E1.25476
G1 X152.614 Y63.626 E.01679
G1 X181.374 Y92.386 E1.27849
G1 X181.374 Y92.921 E.01682
G1 X152.079 Y63.626 E1.30228
G1 X151.544 Y63.626 E.01682
G1 X181.374 Y93.456 E1.32606
G1 X181.374 Y93.99 E.01679
G1 X151.01 Y63.626 E1.3498
G1 X150.475 Y63.626 E.01682
G1 X181.374 Y94.525 E1.37358
G1 X181.374 Y95.059 E.01679
G1 X149.941 Y63.626 E1.39732
G1 X149.406 Y63.626 E.01682
G1 X181.374 Y95.594 E1.4211
G1 X181.374 Y96.129 E.01682
G1 X148.871 Y63.626 E1.44489
G1 X148.337 Y63.626 E.01679
G1 X181.374 Y96.663 E1.46862
G1 X181.374 Y97.198 E.01682
M73 Q1 S290
G1 X147.802 Y63.626 E1.49241
G1 X147.268 Y63.626 E.01679
G1 X181.374 Y97.732 E1.51614
G1 X181.374 Y98.267 E.01682
G1 X146.733 Y63.626 E1.53993
G1 X146.198 Y63.626 E.01682
G1 X181.374 Y98.802 E1.56371
G1 X181.374 Y99.336 E.01679
G1 X145.664 Y63.626 E1.58745
G1 X145.129 Y63.626 E.01682
G1 X181.374 Y99.871 E1.61123
G1 X181.374 Y100.406 E.01682
G1 X144.594 Y63.626 E1.63501
G1 X144.06 Y63.626 E.01679
G1 X181.374 Y100.94 E1.65875
G1 X181.374 Y101.475 E.01682
G1 X143.525 Y63.626 E1.68254
G1 X142.991 Y63.626 E.01679
M73 P1 R286
G1 X181.374 Y102.009 E1.70627
G1 X181.374 Y102.544 E.01682
G1 X142.456 Y63.626 E1.73006
G1 X141.921 Y63.626 E.01682
G1 X181.374 Y103.079 E1.75384
G1 X181.374 Y103.613 E.01679
G1 X141.387 Y63.626 E1.77758
G1 X140.852 Y63.626 E.01682
G1 X181.374 Y104.148 E1.80136
G1 X181.374 Y104.683 E.01682
G1 X140.317 Y63.626 E1.82514
G1 X139.783 Y63.626 E.01679
G1 X181.374 Y105.217 E1.84888
G1 X181.374 Y105.752 E.01682
G1 X139.248 Y63.626 E1.87267
G1 X138.714 Y63.626 E.01679
G1 X181.374 Y106.286 E1.8964
G1 X181.374 Y106.821 E.01682
G1 X138.179 Y63.626 E1.92019
G1 X137.644 Y63.626 E.01682
G1 X181.374 Y107.356 E1.94397
G1 X181.374 Y107.89 E.01679
G1 X137.11 Y63.626 E1.96771
G1 X136.575 Y63.626 E.01682
M73 Q1 S289
G1 X181.374 Y108.425 E1.99149
G1 X181.374 Y108.96 E.01682
G1 X136.04 Y63.626 E2.01527
G1 X135.506 Y63.626 E.01679
G1 X181.374 Y109.494 E2.03901
G1 X181.374 Y110.029 E.01682
G1 X134.971 Y63.626 E2.06279
G1 X134.437 Y63.626 E.01679
G1 X181.374 Y110.563 E2.08653
G1 X181.374 Y111.098 E.01682
G1 X133.902 Y63.626 E2.11032
G1 X133.367 Y63.626 E.01682
G1 X181.374 Y111.633 E2.1341
G1 X181.374 Y112.167 E.01679
M73 P1 R285
G1 X132.833 Y63.626 E2.15784
G1 X132.298 Y63.626 E.01682
G1 X181.374 Y112.702 E2.18162
G1 X181.374 Y113.236 E.01679
G1 X131.764 Y63.626 E2.20536
G1 X131.229 Y63.626 E.01682
G1 X181.374 Y113.771 E2.22914
G1 X181.374 Y114.306 E.01682
G1 X130.694 Y63.626 E2.25292
G1 X130.16 Y63.626 E.01679
G1 X181.374 Y114.84 E2.27666
G1 X181.374 Y115.375 E.01682
G1 X129.625 Y63.626 E2.30044
G1 X129.09 Y63.626 E.01682
G1 X181.374 Y115.91 E2.32423
G1 X181.374 Y116.444 E.01679
G1 X128.556 Y63.626 E2.34797
G1 X128.021 Y63.626 E.01682
G1 X181.374 Y116.979 E2.37175
G1 X181.374 Y117.513 E.01679
M73 Q1 S288
G1 X127.487 Y63.626 E2.39549
G1 X126.952 Y63.626 E.01682
G1 X181.374 Y118.048 E2.41927
G1 X181.374 Y118.583 E.01682
G1 X126.417 Y63.626 E2.44305
G1 X125.883 Y63.626 E.01679
G1 X181.374 Y119.117 E2.46679
G1 X181.374 Y119.652 E.01682
G1 X125.348 Y63.626 E2.49057
G1 X124.813 Y63.626 E.01682
G1 X181.374 Y120.187 E2.51436
G1 X181.374 Y120.721 E.01679
M73 P2 R284
G1 X124.279 Y63.626 E2.5381
G1 X123.744 Y63.626 E.01682
M73 Q2 S288
G1 X181.374 Y121.256 E2.56188
G1 X181.374 Y121.79 E.01679
G1 X123.21 Y63.626 E2.58562
G1 X122.675 Y63.626 E.01682
G1 X181.374 Y122.325 E2.6094
G1 X181.374 Y122.86 E.01682
G1 X122.14 Y63.626 E2.63318
G1 X121.606 Y63.626 E.01679
G1 X181.374 Y123.394 E2.65692
G1 X181.374 Y123.929 E.01682
G1 X121.071 Y63.626 E2.6807
G1 X120.536 Y63.626 E.01682
G1 X181.374 Y124.464 E2.70449
G1 X181.374 Y124.998 E.01679
G1 X120.002 Y63.626 E2.72822
G1 X119.467 Y63.626 E.01682
M73 Q2 S287
G1 X181.374 Y125.533 E2.75201
G1 X181.374 Y126.067 E.01679
G1 X118.933 Y63.626 E2.77575
G1 X118.398 Y63.626 E.01682
G1 X181.374 Y126.602 E2.79953
G1 X181.374 Y127.137 E.01682
G1 X117.863 Y63.626 E2.82331
