; generated by PrusaSlicer 2.9.2 on 2025-04-18 at 06:18:41 UTC


;
;
; 

; external perimeters extrusion width = 0.45mm
; perimeters extrusion width = 0.45mm
; infill extrusion width = 0.45mm
; solid infill extrusion width = 0.45mm
; top infill extrusion width = 0.40mm
; support material extrusion width = 0.35mm
; first layer extrusion width = 0.42mm

M73 P0 R292
M73 Q0 S296
M201 X1000 Y1000 Z200 E5000 ; sets maximum accelerations, mm/sec^2
M203 X200 Y200 Z12 E120 ; sets maximum feedrates, mm / sec
M204 S1250 T1250 ; sets acceleration (S) and retract acceleration (R), mm/sec^2
M205 X8.00 Y8.00 Z0.40 E4.50 ; sets the jerk limits, mm/sec
M205 S0 T0 ; sets the minimum extruding and travel feed rate, mm/sec

; printing object body middle front left.STL id:0 copy 0
; stop printing object body middle front left.STL id:0 copy 0

;TYPE:Custom
M862.3 P "MK3S" ; printer model check
M862.1 P0.4 ; nozzle diameter check
M115 U3.14.1 ; tell printer latest fw version
G90 ; use absolute coordinates
M83 ; extruder relative mode
M104 S215 ; set extruder temp
M140 S60 ; set bed temp
M190 S60 ; wait for bed temp
M109 S215 ; wait for extruder temp
G28 W ; home all without mesh bed level
G80 X30.1229 Y60.1229 W194.788 H89.7542 ; mesh bed levelling

G1 Z0.2 F720
G1 Y-3 F1000 ; go outside print area
G92 E0
G1 X60 E9 F1000 ; intro line
G1 X100 E12.5 F1000 ; intro line
M73 P0 R291

G92 E0
M221 S95

; Don't change E values below. Excessive value can damage the printer.

G21 ; set units to millimeters
G90 ; use absolute coordinates
M83 ; use relative distances for extrusion

M900 K0.05 ; Filament gcode LA 1.5
M900 K30 ; Filament gcode LA 1.0




M107
;LAYER_CHANGE
;Z:0.2
;HEIGHT:0.2
G1 E-.8 F2100
G1 Z.6 F720
G1 X55.952 Y60.952 F10800
G1 Z.2 F720
G1 E.8 F2100
M204 S800
;TYPE:Skirt/Brim
;WIDTH:0.42
G1 F1200
G1 X57.5 Y60.311 E.05253
G1 X182.5 Y60.311 E3.91929
G1 X183.748 Y60.702 E.04101
G1 X184.251 Y61.187 E.02191
G1 X224.285 Y114.586 E2.09257
G1 X224.722 Y115.899 E.04339
G1 X224.722 Y126.4 E.32925
G1 X224.331 Y127.648 E.04101
G1 X223.554 Y128.336 E.03254
G1 X183.52 Y149.436 E1.41891
G1 X182.5 Y149.689 E.03295
G1 X32.5 Y149.689 E4.70314
M73 Q0 S295
G1 X31.252 Y149.298 E.04101
G1 X30.449 Y148.265 E.04102
G1 X30.311 Y147.5 E.02437
G1 X30.311 Y87.5 E1.88126
G1 X30.952 Y85.952 E.05253
G1 X55.91 Y60.995 E1.10666
M204 S1000
;WIPE_START
G1 F8640
G1 X55.952 Y60.952 E-.01388
G1 X57.5 Y60.311 E-.38687
G1 X59.229 Y60.311 E-.39925
;WIPE_END
G1 Z.6 F720
; printing object body middle front left.STL id:0 copy 0
G1 X222.534 Y126.4 F10800
G1 Z.2 F720
G1 E.8 F2100
M204 S800
;TYPE:Support material
G1 F1200
G1 X182.98 Y126.4 E1.24019
G1 X182.98 Y115.899 E.32925
G1 X222.534 Y115.899 E1.24019
G1 X222.534 Y126.344 E.3275
M204 S1000
G1 X221.784 Y126.23 F10800
M204 S800
G1 F1200
G1 X221.784 Y116.238 E.31329
G1 X221.365 Y116.238 E.01314
G1 X221.365 Y126.061 E.30799
G1 X220.946 Y126.061 E.01314
G1 X220.946 Y116.238 E.30799
G1 X220.527 Y116.238 E.01314
G1 X220.527 Y126.061 E.30799
G1 X220.108 Y126.061 E.01314
G1 X220.108 Y116.238 E.30799
G1 X219.689 Y116.238 E.01314
G1 X219.689 Y126.061 E.30799
G1 X219.27 Y126.061 E.01314
G1 X219.27 Y116.238 E.30799
G1 X218.851 Y116.238 E.01314
G1 X218.851 Y126.061 E.30799
G1 X218.432 Y126.061 E.01314
G1 X218.432 Y116.238 E.30799
G1 X218.013 Y116.238 E.01314
G1 X218.013 Y126.061 E.30799
G1 X217.594 Y126.061 E.01314
G1 X217.594 Y116.238 E.30799
G1 X217.175 Y116.238 E.01314
G1 X217.175 Y126.061 E.30799
G1 X216.756 Y126.061 E.01314
G1 X216.756 Y116.238 E.30799
G1 X216.337 Y116.238 E.01314
G1 X216.337 Y126.061 E.30799
G1 X215.918 Y126.061 E.01314
G1 X215.918 Y116.238 E.30799
G1 X215.499 Y116.238 E.01314
G1 X215.499 Y126.061 E.30799
G1 X215.08 Y126.061 E.01314
G1 X215.08 Y116.238 E.30799
G1 X214.661 Y116.238 E.01314
G1 X214.661 Y126.061 E.30799
G1 X214.242 Y126.061 E.01314
G1 X214.242 Y116.238 E.30799
G1 X213.823 Y116.238 E.01314
G1 X213.823 Y126.061 E.30799
G1 X213.404 Y126.061 E.01314
G1 X213.404 Y116.238 E.30799
G1 X212.985 Y116.238 E.01314
G1 X212.985 Y126.061 E.30799
G1 X212.566 Y126.061 E.01314
G1 X212.566 Y116.238 E.30799
G1 X212.147 Y116.238 E.01314
G1 X212.147 Y126.061 E.30799
G1 X211.728 Y126.061 E.01314
G1 X211.728 Y116.238 E.30799
G1 X211.309 Y116.238 E.01314
G1 X211.309 Y126.061 E.30799
G1 X210.89 Y126.061 E.01314
G1 X210.89 Y116.238 E.30799
G1 X210.471 Y116.238 E.01314
G1 X210.471 Y126.061 E.30799
G1 X210.052 Y126.061 E.01314
G1 X210.052 Y116.238 E.30799
G1 X209.633 Y116.238 E.01314
G1 X209.633 Y126.061 E.30799
G1 X209.214 Y126.061 E.01314
G1 X209.214 Y116.238 E.30799
G1 X208.795 Y116.238 E.01314
G1 X208.795 Y126.061 E.30799
G1 X208.376 Y126.061 E.01314
G1 X208.376 Y116.238 E.30799
G1 X207.957 Y116.238 E.01314
G1 X207.957 Y126.061 E.30799
G1 X207.538 Y126.061 E.01314
G1 X207.538 Y116.238 E.30799
G1 X207.119 Y116.238 E.01314
G1 X207.119 Y126.061 E.30799
G1 X206.701 Y126.061 E.01311
G1 X206.701 Y116.238 E.30799
G1 X206.282 Y116.238 E.01314
G1 X206.282 Y126.061 E.30799
G1 X205.863 Y126.061 E.01314
G1 X205.863 Y116.238 E.30799
G1 X205.444 Y116.238 E.01314
G1 X205.444 Y126.061 E.30799
G1 X205.025 Y126.061 E.01314
G1 X205.025 Y116.238 E.30799
G1 X204.606 Y116.238 E.01314
M73 P0 R290
G1 X204.606 Y126.061 E.30799
G1 X204.187 Y126.061 E.01314
G1 X204.187 Y116.238 E.30799
G1 X203.768 Y116.238 E.01314
G1 X203.768 Y126.061 E.30799
G1 X203.349 Y126.061 E.01314
G1 X203.349 Y116.238 E.30799
G1 X202.93 Y116.238 E.01314
G1 X202.93 Y126.061 E.30799
G1 X202.511 Y126.061 E.01314
G1 X202.511 Y116.238 E.30799
G1 X202.092 Y116.238 E.01314
G1 X202.092 Y126.061 E.30799
G1 X201.673 Y126.061 E.01314
G1 X201.673 Y116.238 E.30799
G1 X201.254 Y116.238 E.01314
G1 X201.254 Y126.061 E.30799
G1 X200.835 Y126.061 E.01314
G1 X200.835 Y116.238 E.30799
G1 X200.416 Y116.238 E.01314
G1 X200.416 Y126.061 E.30799
G1 X199.997 Y126.061 E.01314
G1 X199.997 Y116.238 E.30799
G1 X199.578 Y116.238 E.01314
G1 X199.578 Y126.061 E.30799
G1 X199.159 Y126.061 E.01314
G1 X199.159 Y116.238 E.30799
G1 X198.74 Y116.238 E.01314
G1 X198.74 Y126.061 E.30799
G1 X198.321 Y126.061 E.01314
G1 X198.321 Y116.238 E.30799
G1 X197.902 Y116.238 E.01314
G1 X197.902 Y126.061 E.30799
G1 X197.483 Y126.061 E.01314
G1 X197.483 Y116.238 E.30799
G1 X197.064 Y116.238 E.01314
G1 X197.064 Y126.061 E.30799
G1 X196.645 Y126.061 E.01314
G1 X196.645 Y116.238 E.30799
G1 X196.226 Y116.238 E.01314
G1 X196.226 Y126.061 E.30799
G1 X195.807 Y126.061 E.01314
G1 X195.807 Y116.238 E.30799
G1 X195.388 Y116.238 E.01314
G1 X195.388 Y126.061 E.30799
G1 X194.969 Y126.061 E.01314
G1 X194.969 Y116.238 E.30799
G1 X194.55 Y116.238 E.01314
G1 X194.55 Y126.061 E.30799
G1 X194.131 Y126.061 E.01314
G1 X194.131 Y116.238 E.30799
G1 X193.712 Y116.238 E.01314
G1 X193.712 Y126.061 E.30799
G1 X193.293 Y126.061 E.01314
G1 X193.293 Y116.238 E.30799
G1 X192.874 Y116.238 E.01314
G1 X192.874 Y126.061 E.30799
G1 X192.455 Y126.061 E.01314
G1 X192.455 Y116.238 E.30799
G1 X192.036 Y116.238 E.01314
G1 X192.036 Y126.061 E.30799
G1 X191.617 Y126.061 E.01314
G1 X191.617 Y116.238 E.30799
G1 X191.198 Y116.238 E.01314
G1 X191.198 Y126.061 E.30799
G1 X190.779 Y126.061 E.01314
G1 X190.779 Y116.238 E.30799
G1 X190.36 Y116.238 E.01314
G1 X190.36 Y126.061 E.30799
G1 X189.941 Y126.061 E.01314
G1 X189.941 Y116.238 E.30799
G1 X189.522 Y116.238 E.01314
M73 Q0 S294
G1 X189.522 Y126.061 E.30799
G1 X189.103 Y126.061 E.01314
G1 X189.103 Y116.238 E.30799
G1 X188.685 Y116.238 E.01311
G1 X188.685 Y126.061 E.30799
G1 X188.266 Y126.061 E.01314
G1 X188.266 Y116.238 E.30799
G1 X187.847 Y116.238 E.01314
G1 X187.847 Y126.061 E.30799
G1 X187.428 Y126.061 E.01314
G1 X187.428 Y116.238 E.30799
G1 X187.009 Y116.238 E.01314
G1 X187.009 Y126.061 E.30799
G1 X186.59 Y126.061 E.01314
G1 X186.59 Y116.238 E.30799
G1 X186.171 Y116.238 E.01314
G1 X186.171 Y126.061 E.30799
G1 X185.752 Y126.061 E.01314
G1 X185.752 Y116.238 E.30799
G1 X185.333 Y116.238 E.01314
G1 X185.333 Y126.061 E.30799
G1 X184.914 Y126.061 E.01314
G1 X184.914 Y116.238 E.30799
G1 X184.495 Y116.238 E.01314
G1 X184.495 Y126.061 E.30799
G1 X184.076 Y126.061 E.01314
G1 X184.076 Y116.238 E.30799
G1 X183.657 Y116.238 E.01314
G1 X183.657 Y126.23 E.31329
M204 S1000
;WIPE_START
G1 F8640
G1 X183.657 Y122.765 E-.8
;WIPE_END
G1 Z.6 F720
G1 X58.19 Y63.287 F10800
G1 Z.2 F720
G1 E.8 F2100
M204 S800
;TYPE:Perimeter
;WIDTH:0.419999
G1 F1200
G1 X181.713 Y63.287 E3.87297
G1 X181.713 Y105 E1.30788
G1 X181.713 Y146.713 E1.30788
G1 X33.287 Y146.713 E4.65379
G1 X33.287 Y88.19 E1.83494
G1 X39.102 Y87.425 E.1839
G1 X39.245 Y87.386 E.00465
G1 X45.328 Y84.867 E.20643
G1 X45.456 Y84.793 E.00464
G1 X50.68 Y80.784 E.20647
G1 X50.784 Y80.68 E.00461
G1 X54.793 Y75.456 E.20647
G1 X54.867 Y75.328 E.00464
G1 X57.386 Y69.245 E.20643
G1 X57.425 Y69.102 E.00465
G1 X58.182 Y63.347 E.182
M204 S1000
G1 X57.86 Y62.91 F10800
M204 S800
;TYPE:External perimeter
G1 F1200
G1 X182.09 Y62.91 E3.89514
G1 X182.09 Y105 E1.3197
G1 X182.09 Y147.09 E1.3197
G1 X32.91 Y147.09 E4.67743
M73 P0 R289
G1 X32.91 Y87.86 E1.85711
G1 X39.1 Y87.038 E.19579
G1 X45.184 Y84.518 E.20648
G1 X50.45 Y80.485 E.20797
G1 X54.518 Y75.184 E.20951
G1 X57.038 Y69.1 E.20648
G1 X57.852 Y62.969 E.19392
M204 S1000
;WIPE_START
G1 F8640
G1 X57.86 Y62.91 E-.01375
G1 X61.265 Y62.91 E-.78625
;WIPE_END
G1 Z.6 F720
G1 X180.78 Y63.457 F10800
G1 Z.2 F720
G1 E.8 F2100
M204 S800
;TYPE:Solid infill
;WIDTH:0.420558
G1 F1200
G1 X181.374 Y64.051 E.02638
G1 X181.374 Y64.585 E.01677
G1 X180.415 Y63.626 E.04259
G1 X179.881 Y63.626 E.01677
G1 X181.374 Y65.119 E.0663
G1 X181.374 Y65.653 E.01677
G1 X179.347 Y63.626 E.09001
G1 X178.813 Y63.626 E.01677
G1 X181.374 Y66.187 E.11373
G1 X181.374 Y66.721 E.01677
G1 X178.279 Y63.626 E.13744
G1 X177.745 Y63.626 E.01677
G1 X181.374 Y67.255 E.16115
G1 X181.374 Y67.789 E.01677
G1 X177.211 Y63.626 E.18487
G1 X176.677 Y63.626 E.01677
G1 X181.374 Y68.323 E.20858
G1 X181.374 Y68.857 E.01677
G1 X176.143 Y63.626 E.23229
G1 X175.609 Y63.626 E.01677
G1 X181.374 Y69.391 E.25601
G1 X181.374 Y69.925 E.01677
M73 Q0 S293
G1 X175.075 Y63.626 E.27972
G1 X174.541 Y63.626 E.01677
G1 X181.374 Y70.459 E.30344
G1 X181.374 Y70.993 E.01677
G1 X174.007 Y63.626 E.32715
G1 X173.473 Y63.626 E.01677
G1 X181.374 Y71.527 E.35086
G1 X181.374 Y72.061 E.01677
G1 X172.939 Y63.626 E.37458
G1 X172.404 Y63.626 E.0168
G1 X181.374 Y72.596 E.39833
G1 X181.374 Y73.13 E.01677
G1 X171.87 Y63.626 E.42205
G1 X171.336 Y63.626 E.01677
G1 X181.374 Y73.664 E.44576
G1 X181.374 Y74.198 E.01677
G1 X170.802 Y63.626 E.46947
G1 X170.268 Y63.626 E.01677
G1 X181.374 Y74.732 E.49319
G1 X181.374 Y75.266 E.01677
G1 X169.734 Y63.626 E.5169
G1 X169.2 Y63.626 E.01677
G1 X181.374 Y75.8 E.54061
G1 X181.374 Y76.334 E.01677
G1 X168.666 Y63.626 E.56433
G1 X168.132 Y63.626 E.01677
G1 X181.374 Y76.868 E.58804
G1 X181.374 Y77.402 E.01677
G1 X167.598 Y63.626 E.61176
G1 X167.064 Y63.626 E.01677
G1 X181.374 Y77.936 E.63547
G1 X181.374 Y78.47 E.01677
G1 X166.53 Y63.626 E.65918
G1 X165.996 Y63.626 E.01677
G1 X181.374 Y79.004 E.6829
G1 X181.374 Y79.538 E.01677
G1 X165.462 Y63.626 E.70661
G1 X164.928 Y63.626 E.01677
G1 X181.374 Y80.072 E.73032
G1 X181.374 Y80.606 E.01677
G1 X164.394 Y63.626 E.75404
G1 X163.86 Y63.626 E.01677
G1 X181.374 Y81.14 E.77775
G1 X181.374 Y81.675 E.0168
G1 X163.325 Y63.626 E.80151
G1 X162.791 Y63.626 E.01677
G1 X181.374 Y82.209 E.82522
G1 X181.374 Y82.743 E.01677
G1 X162.257 Y63.626 E.84894
G1 X161.723 Y63.626 E.01677
G1 X181.374 Y83.277 E.87265
G1 X181.374 Y83.811 E.01677
G1 X161.189 Y63.626 E.89636
G1 X160.655 Y63.626 E.01677
G1 X181.374 Y84.345 E.92008
G1 X181.374 Y84.879 E.01677
G1 X160.121 Y63.626 E.94379
G1 X159.587 Y63.626 E.01677
G1 X181.374 Y85.413 E.9675
G1 X181.374 Y85.947 E.01677
G1 X159.053 Y63.626 E.99122
G1 X158.519 Y63.626 E.01677
G1 X181.374 Y86.481 E1.01493
G1 X181.374 Y87.015 E.01677
G1 X157.985 Y63.626 E1.03864
G1 X157.451 Y63.626 E.01677
G1 X181.374 Y87.549 E1.06236
G1 X181.374 Y88.083 E.01677
M73 P1 R289
G1 X156.917 Y63.626 E1.08607
G1 X156.383 Y63.626 E.01677
M73 Q1 S293
G1 X181.374 Y88.617 E1.10978
G1 X181.374 Y89.151 E.01677
G1 X155.849 Y63.626 E1.1335
G1 X155.315 Y63.626 E.01677
M73 P1 R288
G1 X181.374 Y89.685 E1.15721
G1 X181.374 Y90.22 E.0168
G1 X154.78 Y63.626 E1.18097
G1 X154.246 Y63.626 E.01677
G1 X181.374 Y90.754 E1.20468
G1 X181.374 Y91.288 E.01677
G1 X153.712 Y63.626 E1.2284
G1 X153.178 Y63.626 E.01677
G1 X181.374 Y91.822 E1.25211
G1 X181.374 Y92.356 E.01677
G1 X152.644 Y63.626 E1.27582
G1 X152.11 Y63.626 E.01677
G1 X181.374 Y92.89 E1.29954
G1 X181.374 Y93.424 E.01677
G1 X151.576 Y63.626 E1.32325
G1 X151.042 Y63.626 E.01677
G1 X181.374 Y93.958 E1.34696
G1 X181.374 Y94.492 E.01677
M73 Q1 S292
G1 X150.508 Y63.626 E1.37068
G1 X149.974 Y63.626 E.01677
G1 X181.374 Y95.026 E1.39439
G1 X181.374 Y95.56 E.01677
G1 X149.44 Y63.626 E1.4181
G1 X148.906 Y63.626 E.01677
G1 X181.374 Y96.094 E1.44182
G1 X181.374 Y96.628 E.01677
G1 X148.372 Y63.626 E1.46553
G1 X147.838 Y63.626 E.01677
G1 X181.374 Y97.162 E1.48924
G1 X181.374 Y97.696 E.01677
G1 X147.304 Y63.626 E1.51296
G1 X146.77 Y63.626 E.01677
G1 X181.374 Y98.23 E1.53667
G1 X181.374 Y98.764 E.01677
G1 X146.236 Y63.626 E1.56039
G1 X145.701 Y63.626 E.0168
G1 X181.374 Y99.299 E1.58414
G1 X181.374 Y99.833 E.01677
G1 X145.167 Y63.626 E1.60786
G1 X144.633 Y63.626 E.01677
G1 X181.374 Y100.367 E1.63157
G1 X181.374 Y100.901 E.01677
G1 X144.099 Y63.626 E1.65528
G1 X143.565 Y63.626 E.01677
G1 X181.374 Y101.435 E1.679
G1 X181.374 Y101.969 E.01677
G1 X143.031 Y63.626 E1.70271
G1 X142.497 Y63.626 E.01677
G1 X181.374 Y102.503 E1.72642
G1 X181.374 Y103.037 E.01677
G1 X141.963 Y63.626 E1.75014
G1 X141.429 Y63.626 E.01677
M73 P1 R287
G1 X181.374 Y103.571 E1.77385
G1 X181.374 Y104.105 E.01677
G1 X140.895 Y63.626 E1.79756
G1 X140.361 Y63.626 E.01677
G1 X181.374 Y104.639 E1.82128
G1 X181.374 Y105.173 E.01677
G1 X139.827 Y63.626 E1.84499
G1 X139.293 Y63.626 E.01677
G1 X181.374 Y105.707 E1.86871
G1 X181.374 Y106.241 E.01677
G1 X138.759 Y63.626 E1.89242
G1 X138.225 Y63.626 E.01677
M73 Q1 S291
G1 X181.374 Y106.775 E1.91613
G1 X181.374 Y107.309 E.01677
G1 X137.691 Y63.626 E1.93985
G1 X137.156 Y63.626 E.0168
G1 X181.374 Y107.844 E1.9636
G1 X181.374 Y108.378 E.01677
G1 X136.622 Y63.626 E1.98732
G1 X136.088 Y63.626 E.01677
G1 X181.374 Y108.912 E2.01103
G1 X181.374 Y109.446 E.01677
G1 X135.554 Y63.626 E2.03474
G1 X135.02 Y63.626 E.01677
G1 X181.374 Y109.98 E2.05846
G1 X181.374 Y110.514 E.01677
G1 X134.486 Y63.626 E2.08217
G1 X133.952 Y63.626 E.01677
G1 X181.374 Y111.048 E2.10588
G1 X181.374 Y111.582 E.01677
G1 X133.418 Y63.626 E2.1296
G1 X132.884 Y63.626 E.01677
G1 X181.374 Y112.116 E2.15331
G1 X181.374 Y112.65 E.01677
G1 X132.35 Y63.626 E2.17703
G1 X131.816 Y63.626 E.01677
G1 X181.374 Y113.184 E2.20074
G1 X181.374 Y113.718 E.01677
M73 P1 R286
G1 X131.282 Y63.626 E2.22445
G1 X130.748 Y63.626 E.01677
G1 X181.374 Y114.252 E2.24817
G1 X181.374 Y114.786 E.01677
G1 X130.214 Y63.626 E2.27188
G1 X129.68 Y63.626 E.01677
G1 X181.374 Y115.32 E2.29559
G1 X181.374 Y115.854 E.01677
G1 X129.146 Y63.626 E2.31931
G1 X128.612 Y63.626 E.01677
M73 Q1 S290
G1 X181.374 Y116.388 E2.34302
G1 X181.374 Y116.923 E.0168
G1 X128.077 Y63.626 E2.36678
G1 X127.543 Y63.626 E.01677
G1 X181.374 Y117.457 E2.39049
G1 X181.374 Y117.991 E.01677
G1 X127.009 Y63.626 E2.4142
G1 X126.475 Y63.626 E.01677
G1 X181.374 Y118.525 E2.43792
G1 X181.374 Y119.059 E.01677
G1 X125.941 Y63.626 E2.46163
G1 X125.407 Y63.626 E.01677
G1 X181.374 Y119.593 E2.48535
G1 X181.374 Y120.127 E.01677
G1 X124.873 Y63.626 E2.50906
G1 X124.339 Y63.626 E.01677
M73 P2 R286
G1 X181.374 Y120.661 E2.53277
G1 X181.374 Y121.195 E.01677
M73 Q2 S290
G1 X123.805 Y63.626 E2.55649
G1 X123.271 Y63.626 E.01677
M73 P2 R285
G1 X181.374 Y121.729 E2.5802
G1 X181.374 Y122.263 E.01677
G1 X122.737 Y63.626 E2.60391
G1 X122.203 Y63.626 E.01677
G1 X181.374 Y122.797 E2.62763
G1 X181.374 Y123.331 E.01677
G1 X121.669 Y63.626 E2.65134
G1 X121.135 Y63.626 E.01677
G1 X181.374 Y123.865 E2.67505
G1 X181.374 Y124.399 E.01677
M73 Q2 S289
G1 X120.601 Y63.626 E2.69877
G1 X120.067 Y63.626 E.01677
G1 X181.374 Y124.933 E2.72248
G1 X181.374 Y125.468 E.0168
G1 X119.532 Y63.626 E2.74624
