; generated by PrusaSlicer 2.9.2 on 2025-04-18 at 06:19:07 UTC


;
;
; 

; external perimeters extrusion width = 0.45mm
; perimeters extrusion width = 0.45mm
; infill extrusion width = 0.45mm
; solid infill extrusion width = 0.45mm
; top infill extrusion width = 0.40mm
; support material extrusion width = 0.35mm
; first layer extrusion width = 0.42mm

M73 P0 R275
M73 Q0 S279
M201 X1000 Y1000 Z200 E5000 ; sets maximum accelerations, mm/sec^2
M203 X200 Y200 Z12 E120 ; sets maximum feedrates, mm / sec
M204 S1250 T1250 ; sets acceleration (S) and retract acceleration (R), mm/sec^2
M205 X8.00 Y8.00 Z0.40 E4.50 ; sets the jerk limits, mm/sec
M205 S0 T0 ; sets the minimum extruding and travel feed rate, mm/sec

; printing object body middle back left.STL id:0 copy 0
; stop printing object body middle back left.STL id:0 copy 0

;TYPE:Custom
M862.3 P "MK3S" ; printer model check
M862.1 P0.4 ; nozzle diameter check
M115 U3.14.1 ; tell printer latest fw version
G90 ; use absolute coordinates
M83 ; extruder relative mode
M104 S215 ; set extruder temp
M140 S60 ; set bed temp
M190 S60 ; wait for bed temp
M109 S215 ; wait for extruder temp
G28 W ; home all without mesh bed level
G80 X47.6229 Y60.1229 W154.754 H89.7542 ; mesh bed levelling

G1 Z0.2 F720
G1 Y-3 F1000 ; go outside print area
G92 E0
G1 X60 E9 F1000 ; intro line
G1 X100 E12.5 F1000 ; intro line

G92 E0
M221 S95

; Don't change E values below. Excessive value can damage the printer.

G21 ; set units to millimeters
G90 ; use absolute coordinates
M83 ; use relative distances for extrusion

M900 K0.05 ; Filament gcode LA 1.5
M900 K30 ; Filament gcode LA 1.0




M107
;LAYER_CHANGE
;Z:0.2
;HEIGHT:0.2
G1 E-.8 F2100
G1 Z.6 F720
G1 X48.202 Y61.252 F10800
G1 Z.2 F720
G1 E.8 F2100
M204 S800
;TYPE:Skirt/Brim
;WIDTH:0.42
G1 F1200
G1 X49.235 Y60.449 E.04102
G1 X50 Y60.311 E.02437
G1 X175 Y60.311 E3.91929
G1 X176.548 Y60.952 E.05253
G1 X201.548 Y85.952 E1.10854
G1 X202.189 Y87.5 E.05253
G1 X202.189 Y147.5 E1.88126
G1 X201.798 Y148.748 E.04101
G1 X200.765 Y149.551 E.04102
G1 X200 Y149.689 E.02437
G1 X50 Y149.689 E4.70314
G1 X48.752 Y149.298 E.04101
M73 P0 R274
M73 Q0 S278
G1 X47.949 Y148.265 E.04102
G1 X47.811 Y147.5 E.02437
G1 X47.811 Y62.5 E2.66512
G1 X48.184 Y61.309 E.03913
M204 S1000
;WIPE_START
G1 F8640
G1 X48.202 Y61.252 E-.0138
G1 X49.235 Y60.449 E-.30211
G1 X50 Y60.311 E-.17949
G1 X51.319 Y60.311 E-.3046
;WIPE_END
G1 Z.6 F720
; printing object body middle back left.STL id:0 copy 0
G1 X199.213 Y88.203 F10800
G1 Z.2 F720
G1 E.8 F2100
M204 S800
;TYPE:Perimeter
;WIDTH:0.419999
G1 F1200
G1 X199.213 Y93.123 E.15426
G1 X199.213 Y146.713 E1.68027
G1 X50.787 Y146.713 E4.65379
G1 X50.787 Y63.287 E2.61576
G1 X174.297 Y63.287 E3.87256
G1 X174.847 Y68.176 E.15426
G1 X174.876 Y68.299 E.00396
G1 X176.741 Y73.631 E.17711
G1 X176.796 Y73.745 E.00397
G1 X179.801 Y78.527 E.17708
G1 X179.88 Y78.626 E.00397
G1 X183.874 Y82.62 E.1771
G1 X183.973 Y82.699 E.00397
G1 X188.755 Y85.704 E.17708
G1 X188.869 Y85.759 E.00397
G1 X194.201 Y87.624 E.17711
G1 X194.324 Y87.653 E.00396
G1 X199.153 Y88.197 E.15237
M204 S1000
G1 X199.59 Y87.866 F10800
M204 S800
;TYPE:External perimeter
G1 F1200
G1 X199.59 Y93.123 E.16483
G1 X199.59 Y147.09 E1.69209
G1 X50.41 Y147.09 E4.67743
G1 X50.41 Y62.91 E2.6394
G1 X174.634 Y62.91 E3.89495
G1 X175.232 Y68.175 E.16614
G1 X177.097 Y73.506 E.17708
G1 X180.147 Y78.36 E.17974
G1 X184.14 Y82.353 E.17706
G1 X188.956 Y85.385 E.17844
G1 X194.325 Y87.268 E.17839
G1 X199.53 Y87.86 E.16425
M204 S1000
;WIPE_START
G1 F8640
G1 X199.59 Y87.866 E-.01392
G1 X199.59 Y91.27 E-.78608
;WIPE_END
G1 Z.6 F720
G1 X199.043 Y89.121 F10800
G1 Z.2 F720
G1 E.8 F2100
M204 S800
;TYPE:Solid infill
;WIDTH:0.420925
G1 F1200
G1 X198.371 Y88.449 E.02987
G1 X197.768 Y88.381 E.01907
G1 X198.874 Y89.486 E.04914
G1 X198.874 Y90.021 E.01682
G1 X197.165 Y88.312 E.07597
G1 X196.562 Y88.243 E.01908
G1 X198.874 Y90.555 E.10277
G1 X198.874 Y91.09 E.01682
G1 X195.958 Y88.175 E.1296
G1 X195.355 Y88.106 E.01908
G1 X198.874 Y91.625 E.15642
G1 X198.874 Y92.159 E.01678
G1 X194.752 Y88.037 E.18322
G1 X194.137 Y87.957 E.01949
G1 X198.874 Y92.694 E.21056
G1 X198.874 Y93.228 E.01678
G1 X193.314 Y87.669 E.24712
G1 X192.491 Y87.38 E.02742
G1 X198.874 Y93.763 E.28373
G1 X198.874 Y94.297 E.01678
G1 X191.668 Y87.091 E.32031
G1 X190.844 Y86.803 E.02744
G1 X198.874 Y94.832 E.35692
G1 X198.874 Y95.367 E.01682
G1 X190.021 Y86.514 E.39352
G1 X189.198 Y86.225 E.02742
M73 Q0 S277
G1 X198.874 Y95.901 E.4301
G1 X198.874 Y96.436 E.01682
G1 X188.175 Y85.737 E.47558
G1 X186.735 Y84.832 E.05346
G1 X198.874 Y96.97 E.53956
G1 X198.874 Y97.505 E.01682
M73 P0 R273
G1 X184.755 Y83.387 E.62757
M204 S1000
;WIPE_START
G1 F8640
G1 X187.205 Y85.837 E-.8
;WIPE_END
G1 Z.6 F720
G1 X174.243 Y64.321 F10800
G1 Z.2 F720
G1 E.8 F2100
M204 S800
G1 F1200
G1 X173.548 Y63.626 E.03089
G1 X173.014 Y63.626 E.01678
G1 X174.119 Y64.732 E.04914
G1 X174.188 Y65.335 E.01908
G1 X172.479 Y63.626 E.07597
G1 X171.945 Y63.626 E.01678
G1 X174.257 Y65.938 E.10277
G1 X174.325 Y66.542 E.0191
G1 X171.41 Y63.626 E.1296
G1 X170.876 Y63.626 E.01678
G1 X174.394 Y67.145 E.1564
G1 X174.463 Y67.748 E.01908
G1 X170.341 Y63.626 E.18322
G1 X169.806 Y63.626 E.01682
G1 X174.543 Y68.363 E.21056
G1 X174.829 Y69.184 E.02733
G1 X169.272 Y63.626 E.24703
G1 X168.737 Y63.626 E.01682
G1 X175.116 Y70.005 E.28355
G1 X175.403 Y70.827 E.02737
G1 X168.203 Y63.626 E.32007
G1 X167.668 Y63.626 E.01682
G1 X175.689 Y71.648 E.35656
G1 X175.976 Y72.469 E.02734
G1 X167.133 Y63.626 E.39308
G1 X166.599 Y63.626 E.01678
G1 X176.263 Y73.291 E.42959
G1 X176.424 Y73.751 E.01532
G1 X176.504 Y73.918 E.00582
G1 X176.755 Y74.317 E.01482
G1 X166.064 Y63.626 E.47522
G1 X165.53 Y63.626 E.01678
G1 X177.659 Y75.755 E.53914
G1 X178.562 Y77.194 E.0534
G1 X164.995 Y63.626 E.60308
G1 X164.461 Y63.626 E.01678
G1 X198.874 Y98.039 E1.52967
G1 X198.874 Y98.574 E.01682
G1 X163.926 Y63.626 E1.55346
G1 X163.391 Y63.626 E.01682
G1 X198.874 Y99.109 E1.57724
G1 X198.874 Y99.643 E.01678
G1 X162.857 Y63.626 E1.60097
G1 X162.322 Y63.626 E.01682
G1 X198.874 Y100.178 E1.62475
G1 X198.874 Y100.712 E.01678
G1 X161.788 Y63.626 E1.64849
G1 X161.253 Y63.626 E.01682
G1 X198.874 Y101.247 E1.67227
G1 X198.874 Y101.782 E.01682
G1 X160.718 Y63.626 E1.69605
G1 X160.184 Y63.626 E.01678
G1 X198.874 Y102.316 E1.71979
G1 X198.874 Y102.851 E.01682
G1 X159.649 Y63.626 E1.74357
G1 X159.115 Y63.626 E.01678
G1 X198.874 Y103.385 E1.76731
G1 X198.874 Y103.92 E.01682
G1 X158.58 Y63.626 E1.79109
G1 X158.046 Y63.626 E.01678
G1 X198.874 Y104.454 E1.81482
G1 X198.874 Y104.989 E.01682
G1 X157.511 Y63.626 E1.83861
G1 X156.976 Y63.626 E.01682
G1 X198.874 Y105.524 E1.86239
G1 X198.874 Y106.058 E.01678
G1 X156.442 Y63.626 E1.88612
G1 X155.907 Y63.626 E.01682
G1 X198.874 Y106.593 E1.9099
G1 X198.874 Y107.127 E.01678
G1 X155.373 Y63.626 E1.93364
M73 Q0 S276
G1 X154.838 Y63.626 E.01682
M73 P0 R272
G1 X198.874 Y107.662 E1.95742
G1 X198.874 Y108.196 E.01678
G1 X154.304 Y63.626 E1.98116
G1 X153.769 Y63.626 E.01682
G1 X198.874 Y108.731 E2.00494
G1 X198.874 Y109.266 E.01682
G1 X153.234 Y63.626 E2.02872
G1 X152.7 Y63.626 E.01678
G1 X198.874 Y109.8 E2.05246
G1 X198.874 Y110.335 E.01682
G1 X152.165 Y63.626 E2.07624
G1 X151.631 Y63.626 E.01678
G1 X198.874 Y110.869 E2.09997
G1 X198.874 Y111.404 E.01682
M73 P1 R272
M73 Q1 S276
G1 X151.096 Y63.626 E2.12376
G1 X150.561 Y63.626 E.01682
G1 X198.874 Y111.939 E2.14754
G1 X198.874 Y112.473 E.01678
G1 X150.027 Y63.626 E2.17127
G1 X149.492 Y63.626 E.01682
G1 X198.874 Y113.008 E2.19505
G1 X198.874 Y113.542 E.01678
G1 X148.958 Y63.626 E2.21879
G1 X148.423 Y63.626 E.01682
G1 X198.874 Y114.077 E2.24257
G1 X198.874 Y114.611 E.01678
G1 X147.889 Y63.626 E2.26631
G1 X147.354 Y63.626 E.01682
G1 X198.874 Y115.146 E2.29009
G1 X198.874 Y115.681 E.01682
G1 X146.819 Y63.626 E2.31387
G1 X146.285 Y63.626 E.01678
G1 X198.874 Y116.215 E2.33761
G1 X198.874 Y116.75 E.01682
M73 Q1 S275
G1 X145.75 Y63.626 E2.36139
G1 X145.216 Y63.626 E.01678
M73 P1 R271
G1 X198.874 Y117.284 E2.38512
G1 X198.874 Y117.819 E.01682
G1 X144.681 Y63.626 E2.40891
G1 X144.147 Y63.626 E.01678
G1 X198.874 Y118.353 E2.43264
G1 X198.874 Y118.888 E.01682
G1 X143.612 Y63.626 E2.45642
G1 X143.077 Y63.626 E.01682
G1 X198.874 Y119.423 E2.4802
G1 X198.874 Y119.957 E.01678
G1 X142.543 Y63.626 E2.50394
G1 X142.008 Y63.626 E.01682
G1 X198.874 Y120.492 E2.52772
G1 X198.874 Y121.026 E.01678
G1 X141.474 Y63.626 E2.55146
G1 X140.939 Y63.626 E.01682
G1 X198.874 Y121.561 E2.57524
G1 X198.874 Y122.096 E.01682
G1 X140.404 Y63.626 E2.59902
G1 X139.87 Y63.626 E.01678
G1 X198.874 Y122.63 E2.62276
G1 X198.874 Y123.165 E.01682
G1 X139.335 Y63.626 E2.64654
G1 X138.801 Y63.626 E.01678
G1 X198.874 Y123.699 E2.67027
G1 X198.874 Y124.234 E.01682
G1 X138.266 Y63.626 E2.69406
G1 X137.732 Y63.626 E.01678
M73 P1 R270
M73 Q1 S274
G1 X198.874 Y124.768 E2.71779
G1 X198.874 Y125.303 E.01682
G1 X137.197 Y63.626 E2.74157
G1 X136.662 Y63.626 E.01682
G1 X198.874 Y125.838 E2.76535
G1 X198.874 Y126.372 E.01678
G1 X136.128 Y63.626 E2.78909
G1 X135.593 Y63.626 E.01682
G1 X198.874 Y126.907 E2.81287
G1 X198.874 Y127.441 E.01678
G1 X135.059 Y63.626 E2.83661
G1 X134.524 Y63.626 E.01682
G1 X198.874 Y127.976 E2.86039
G1 X198.874 Y128.511 E.01682
G1 X133.989 Y63.626 E2.88417
G1 X133.455 Y63.626 E.01678
G1 X198.874 Y129.045 E2.90791
G1 X198.874 Y129.58 E.01682
G1 X132.92 Y63.626 E2.93169
G1 X132.386 Y63.626 E.01678
G1 X198.874 Y130.114 E2.95542
G1 X198.874 Y130.649 E.01682
G1 X131.851 Y63.626 E2.97921
G1 X131.317 Y63.626 E.01678
G1 X198.874 Y131.183 E3.00294
G1 X198.874 Y131.718 E.01682
M73 P1 R269
M73 Q1 S273
G1 X130.782 Y63.626 E3.02672
G1 X130.247 Y63.626 E.01682
G1 X198.874 Y132.253 E3.0505
G1 X198.874 Y132.787 E.01678
M73 P2 R269
G1 X129.713 Y63.626 E3.07424
G1 X129.178 Y63.626 E.01682
M73 Q2 S273
G1 X198.874 Y133.322 E3.09802
G1 X198.874 Y133.856 E.01678
G1 X128.644 Y63.626 E3.12176
G1 X128.109 Y63.626 E.01682
G1 X198.874 Y134.391 E3.14554
G1 X198.874 Y134.925 E.01678
G1 X127.575 Y63.626 E3.16928
G1 X127.04 Y63.626 E.01682
G1 X198.874 Y135.46 E3.19306
G1 X198.874 Y135.995 E.01682
G1 X126.505 Y63.626 E3.21684
G1 X125.971 Y63.626 E.01678
G1 X198.874 Y136.529 E3.24057
G1 X198.874 Y137.064 E.01682
G1 X125.436 Y63.626 E3.26436
G1 X124.902 Y63.626 E.01678
G1 X198.874 Y137.598 E3.28809
G1 X198.874 Y138.133 E.01682
M73 P2 R268
M73 Q2 S272
G1 X124.367 Y63.626 E3.31187
G1 X123.832 Y63.626 E.01682
G1 X198.874 Y138.668 E3.33565
G1 X198.874 Y139.202 E.01678
G1 X123.298 Y63.626 E3.35939
G1 X122.763 Y63.626 E.01682
G1 X198.874 Y139.737 E3.38317
G1 X198.874 Y140.271 E.01678
G1 X122.229 Y63.626 E3.40691
G1 X121.694 Y63.626 E.01682
G1 X198.874 Y140.806 E3.43069
G1 X198.874 Y141.34 E.01678
G1 X121.16 Y63.626 E3.45443
G1 X120.625 Y63.626 E.01682
G1 X198.874 Y141.875 E3.47821
G1 X198.874 Y142.41 E.01682
G1 X120.09 Y63.626 E3.50199
G1 X119.556 Y63.626 E.01678
G1 X198.874 Y142.944 E3.52572
G1 X198.874 Y143.479 E.01682
G1 X119.021 Y63.626 E3.54951
G1 X118.487 Y63.626 E.01678
M73 P2 R267
M73 Q2 S271
G1 X198.874 Y144.013 E3.57324
G1 X198.874 Y144.548 E.01682
G1 X117.952 Y63.626 E3.59702
G1 X117.418 Y63.626 E.01678
G1 X198.874 Y145.082 E3.62076
G1 X198.874 Y145.617 E.01682
G1 X116.883 Y63.626 E3.64454
G1 X116.348 Y63.626 E.01682
G1 X198.874 Y146.152 E3.66832
G1 X198.874 Y146.374 E.00698
G1 X198.561 Y146.374 E.00984
G1 X115.814 Y63.626 E3.67817
G1 X115.279 Y63.626 E.01682
G1 X198.026 Y146.374 E3.67817
G1 X197.492 Y146.374 E.01678
G1 X114.745 Y63.626 E3.67817
G1 X114.21 Y63.626 E.01682
G1 X196.957 Y146.374 E3.67817
G1 X196.423 Y146.374 E.01678
M73 P3 R267
G1 X113.675 Y63.626 E3.67819
G1 X113.141 Y63.626 E.01678
M73 Q3 S270
G1 X195.888 Y146.374 E3.67817
G1 X195.353 Y146.374 E.01682
M73 P3 R266
G1 X112.606 Y63.626 E3.67817
G1 X112.072 Y63.626 E.01678
G1 X194.819 Y146.374 E3.67817
G1 X194.284 Y146.374 E.01682
G1 X111.537 Y63.626 E3.67817
G1 X111.003 Y63.626 E.01678
G1 X193.75 Y146.374 E3.67817
G1 X193.215 Y146.374 E.01682
G1 X110.468 Y63.626 E3.67817
G1 X109.933 Y63.626 E.01682
G1 X192.681 Y146.374 E3.67819
G1 X192.146 Y146.374 E.01682
G1 X109.399 Y63.626 E3.67817
G1 X108.864 Y63.626 E.01682
G1 X191.611 Y146.374 E3.67817
G1 X191.077 Y146.374 E.01678
G1 X108.33 Y63.626 E3.67817
G1 X107.795 Y63.626 E.01682
M73 Q3 S269
G1 X190.542 Y146.374 E3.67817
G1 X190.008 Y146.374 E.01678
M73 P3 R265
G1 X107.261 Y63.626 E3.67817
G1 X106.726 Y63.626 E.01682
G1 X189.473 Y146.374 E3.67817
G1 X188.938 Y146.374 E.01682
G1 X106.191 Y63.626 E3.67817
G1 X105.657 Y63.626 E.01678
G1 X188.404 Y146.374 E3.67817
G1 X187.869 Y146.374 E.01682
G1 X105.122 Y63.626 E3.67817
G1 X104.588 Y63.626 E.01678
G1 X187.335 Y146.374 E3.67817
G1 X186.8 Y146.374 E.01682
G1 X104.053 Y63.626 E3.67817
G1 X103.518 Y63.626 E.01682
G1 X186.266 Y146.374 E3.67819
G1 X185.731 Y146.374 E.01682
G1 X102.984 Y63.626 E3.67817
G1 X102.449 Y63.626 E.01682
G1 X185.196 Y146.374 E3.67817
M73 Q3 S268
G1 X184.662 Y146.374 E.01678
M73 P3 R264
G1 X101.915 Y63.626 E3.67817
G1 X101.38 Y63.626 E.01682
G1 X184.127 Y146.374 E3.67817
G1 X183.593 Y146.374 E.01678
G1 X100.846 Y63.626 E3.67817
G1 X100.311 Y63.626 E.01682
G1 X183.058 Y146.374 E3.67817
G1 X182.523 Y146.374 E.01682
G1 X99.776 Y63.626 E3.67817
G1 X99.242 Y63.626 E.01678
G1 X181.989 Y146.374 E3.67817
G1 X181.454 Y146.374 E.01682
M73 P4 R264
G1 X98.707 Y63.626 E3.67817
G1 X98.173 Y63.626 E.01678
G1 X180.92 Y146.374 E3.67817
G1 X180.385 Y146.374 E.01682
M73 Q4 S268
G1 X97.638 Y63.626 E3.67817
G1 X97.103 Y63.626 E.01682
G1 X179.851 Y146.374 E3.67819
G1 X179.316 Y146.374 E.01682
M73 P4 R263
M73 Q4 S267
G1 X96.569 Y63.626 E3.67817
G1 X96.034 Y63.626 E.01682
G1 X178.781 Y146.374 E3.67817
G1 X178.247 Y146.374 E.01678
G1 X95.5 Y63.626 E3.67817
G1 X94.965 Y63.626 E.01682
G1 X177.712 Y146.374 E3.67817
G1 X177.178 Y146.374 E.01678
G1 X94.431 Y63.626 E3.67817
G1 X93.896 Y63.626 E.01682
G1 X176.643 Y146.374 E3.67817
G1 X176.109 Y146.374 E.01678
G1 X93.361 Y63.626 E3.67819
G1 X92.827 Y63.626 E.01678
G1 X175.574 Y146.374 E3.67817
G1 X175.039 Y146.374 E.01682
G1 X92.292 Y63.626 E3.67817
G1 X91.758 Y63.626 E.01678
G1 X174.505 Y146.374 E3.67817
G1 X173.97 Y146.374 E.01682
M73 P4 R262
M73 Q4 S266
G1 X91.223 Y63.626 E3.67817
G1 X90.689 Y63.626 E.01678
G1 X173.436 Y146.374 E3.67817
G1 X172.901 Y146.374 E.01682
G1 X90.154 Y63.626 E3.67817
G1 X89.619 Y63.626 E.01682
G1 X172.366 Y146.374 E3.67817
G1 X171.832 Y146.374 E.01678
G1 X89.085 Y63.626 E3.67817
G1 X88.55 Y63.626 E.01682
G1 X171.297 Y146.374 E3.67817
G1 X170.763 Y146.374 E.01678
G1 X88.016 Y63.626 E3.67817
G1 X87.481 Y63.626 E.01682
G1 X170.228 Y146.374 E3.67817
G1 X169.694 Y146.374 E.01678
G1 X86.946 Y63.626 E3.67819
G1 X86.412 Y63.626 E.01678
G1 X169.159 Y146.374 E3.67817
G1 X168.624 Y146.374 E.01682
M73 P4 R261
M73 Q4 S265
G1 X85.877 Y63.626 E3.67817
G1 X85.343 Y63.626 E.01678
G1 X168.09 Y146.374 E3.67817
G1 X167.555 Y146.374 E.01682
G1 X84.808 Y63.626 E3.67817
G1 X84.274 Y63.626 E.01678
G1 X167.021 Y146.374 E3.67817
G1 X166.486 Y146.374 E.01682
M73 P5 R261
G1 X83.739 Y63.626 E3.67817
G1 X83.204 Y63.626 E.01682
G1 X165.952 Y146.374 E3.67819
G1 X165.417 Y146.374 E.01682
M73 Q5 S265
G1 X82.67 Y63.626 E3.67817
G1 X82.135 Y63.626 E.01682
G1 X164.882 Y146.374 E3.67817
G1 X164.348 Y146.374 E.01678
G1 X81.601 Y63.626 E3.67817
G1 X81.066 Y63.626 E.01682
G1 X163.813 Y146.374 E3.67817
G1 X163.279 Y146.374 E.01678
M73 Q5 S264
G1 X80.532 Y63.626 E3.67817
G1 X79.997 Y63.626 E.01682
M73 P5 R260
G1 X162.744 Y146.374 E3.67817
G1 X162.209 Y146.374 E.01682
G1 X79.462 Y63.626 E3.67817
G1 X78.928 Y63.626 E.01678
G1 X161.675 Y146.374 E3.67817
G1 X161.14 Y146.374 E.01682
G1 X78.393 Y63.626 E3.67817
G1 X77.859 Y63.626 E.01678
G1 X160.606 Y146.374 E3.67817
G1 X160.071 Y146.374 E.01682
G1 X77.324 Y63.626 E3.67817
G1 X76.789 Y63.626 E.01682
G1 X159.537 Y146.374 E3.67819
G1 X159.002 Y146.374 E.01682
G1 X76.255 Y63.626 E3.67817
G1 X75.72 Y63.626 E.01682
G1 X158.467 Y146.374 E3.67817
G1 X157.933 Y146.374 E.01678
M73 Q5 S263
G1 X75.186 Y63.626 E3.67817
G1 X74.651 Y63.626 E.01682
M73 P5 R259
G1 X157.398 Y146.374 E3.67817
G1 X156.864 Y146.374 E.01678
