; generated by PrusaSlicer 2.9.2 on 2025-04-18 at 06:19:53 UTC


;
;
; 

; external perimeters extrusion width = 0.45mm
; perimeters extrusion width = 0.45mm
; infill extrusion width = 0.45mm
; solid infill extrusion width = 0.45mm
; top infill extrusion width = 0.40mm
; support material extrusion width = 0.35mm
; first layer extrusion width = 0.42mm

M73 P0 R229
M73 Q0 S233
M201 X1000 Y1000 Z200 E5000 ; sets maximum accelerations, mm/sec^2
M203 X200 Y200 Z12 E120 ; sets maximum feedrates, mm / sec
M204 S1250 T1250 ; sets acceleration (S) and retract acceleration (R), mm/sec^2
M205 X8.00 Y8.00 Z0.40 E4.50 ; sets the jerk limits, mm/sec
M205 S0 T0 ; sets the minimum extruding and travel feed rate, mm/sec

; printing object body back 2.STL id:0 copy 0
; stop printing object body back 2.STL id:0 copy 0

;TYPE:Custom
M862.3 P "MK3S" ; printer model check
M862.1 P0.4 ; nozzle diameter check
M115 U3.14.1 ; tell printer latest fw version
G90 ; use absolute coordinates
M83 ; extruder relative mode
M104 S215 ; set extruder temp
M140 S60 ; set bed temp
M190 S60 ; wait for bed temp
M109 S215 ; wait for extruder temp
G28 W ; home all without mesh bed level
G80 X43.5459 Y42.6229 W162.908 H124.754 ; mesh bed levelling

G1 Z0.2 F720
G1 Y-3 F1000 ; go outside print area
G92 E0
G1 X60 E9 F1000 ; intro line
G1 X100 E12.5 F1000 ; intro line
M73 Q0 S232

G92 E0
M221 S95

; Don't change E values below. Excessive value can damage the printer.

G21 ; set units to millimeters
G90 ; use absolute coordinates
M83 ; use relative distances for extrusion

M900 K0.05 ; Filament gcode LA 1.5
M900 K30 ; Filament gcode LA 1.0




M107
;LAYER_CHANGE
;Z:0.2
;HEIGHT:0.2
G1 E-.8 F2100
G1 Z.6 F720
G1 X51.372 Y67.472 F10800
G1 Z.2 F720
G1 E.8 F2100
M204 S800
;TYPE:Skirt/Brim
;WIDTH:0.42
G1 F1200
G1 X83.174 Y43.259 E1.25325
G1 X84.5 Y42.811 E.04388
M73 P0 R228
G1 X119.5 Y42.811 E1.0974
G1 X120.653 Y43.14 E.03759
G1 X205.23 Y95.582 E3.12025
G1 X206.085 Y96.572 E.04101
G1 X206.266 Y97.442 E.02786
G1 X206.266 Y112.558 E.47395
G1 X205.875 Y113.806 E.04101
G1 X205.23 Y114.418 E.02788
G1 X120.653 Y166.86 E3.12025
G1 X119.5 Y167.189 E.03759
G1 X84.5 Y167.189 E1.0974
G1 X83.174 Y166.741 E.04388
G1 X44.597 Y137.37 E1.52023
G1 X43.841 Y136.303 E.041
G1 X43.734 Y135.628 E.02143
G1 X43.734 Y74.372 E1.92064
G1 X44.125 Y73.123 E.04104
G1 X44.597 Y72.63 E.0214
G1 X51.324 Y67.509 E.26508
M204 S1000
;WIPE_START
G1 F8640
G1 X51.372 Y67.472 E-.01399
G1 X54.08 Y65.41 E-.78601
;WIPE_END
G1 Z.6 F720
; printing object body back 2.STL id:0 copy 0
G1 X127.943 Y158.699 F10800
G1 Z.2 F720
G1 E.8 F2100
M204 S800
;TYPE:Support material
G1 F1200
G1 X119.98 Y158.699 E.24967
G1 X119.98 Y145.891 E.40159
G1 X127.943 Y145.891 E.24967
G1 X127.943 Y158.643 E.39983
M204 S1000
G1 X127.514 Y158.53 F10800
M204 S800
G1 F1200
G1 X127.514 Y146.23 E.38566
G1 X127.095 Y146.23 E.01314
G1 X127.095 Y158.36 E.38033
G1 X126.676 Y158.36 E.01314
G1 X126.676 Y146.23 E.38033
G1 X126.257 Y146.23 E.01314
G1 X126.257 Y158.36 E.38033
G1 X125.838 Y158.36 E.01314
G1 X125.838 Y146.23 E.38033
G1 X125.419 Y146.23 E.01314
G1 X125.419 Y158.36 E.38033
G1 X125 Y158.36 E.01314
G1 X125 Y146.23 E.38033
G1 X124.581 Y146.23 E.01314
G1 X124.581 Y158.36 E.38033
G1 X124.162 Y158.36 E.01314
G1 X124.162 Y146.23 E.38033
G1 X123.743 Y146.23 E.01314
G1 X123.743 Y158.36 E.38033
G1 X123.324 Y158.36 E.01314
G1 X123.324 Y146.23 E.38033
G1 X122.905 Y146.23 E.01314
G1 X122.905 Y158.36 E.38033
G1 X122.486 Y158.36 E.01314
G1 X122.486 Y146.23 E.38033
G1 X122.067 Y146.23 E.01314
G1 X122.067 Y158.36 E.38033
G1 X121.648 Y158.36 E.01314
G1 X121.648 Y146.23 E.38033
G1 X121.229 Y146.23 E.01314
G1 X121.229 Y158.36 E.38033
G1 X120.81 Y158.36 E.01314
G1 X120.81 Y146.23 E.38033
G1 X120.391 Y146.23 E.01314
G1 X120.391 Y158.53 E.38566
M204 S1000
;WIPE_START
G1 F8640
G1 X120.391 Y155.065 E-.8
;WIPE_END
G1 Z.6 F720
G1 X84.02 Y135.628 F10800
G1 Z.2 F720
G1 E.8 F2100
M204 S800
G1 F1200
G1 X45.923 Y135.628 E1.1945
G1 X45.923 Y125.127 E.32925
G1 X84.02 Y125.127 E1.1945
G1 X84.02 Y135.572 E.3275
M204 S1000
G1 X83.521 Y135.459 F10800
M204 S800
G1 F1200
G1 X83.521 Y125.467 E.31329
G1 X83.102 Y125.467 E.01314
G1 X83.102 Y135.289 E.30796
G1 X82.683 Y135.289 E.01314
G1 X82.683 Y125.467 E.30796
G1 X82.264 Y125.467 E.01314
G1 X82.264 Y135.289 E.30796
G1 X81.845 Y135.289 E.01314
G1 X81.845 Y125.467 E.30796
G1 X81.426 Y125.467 E.01314
G1 X81.426 Y135.289 E.30796
G1 X81.007 Y135.289 E.01314
G1 X81.007 Y125.467 E.30796
G1 X80.588 Y125.467 E.01314
G1 X80.588 Y135.289 E.30796
G1 X80.169 Y135.289 E.01314
G1 X80.169 Y125.467 E.30796
G1 X79.75 Y125.467 E.01314
G1 X79.75 Y135.289 E.30796
G1 X79.332 Y135.289 E.01311
G1 X79.332 Y125.467 E.30796
G1 X78.913 Y125.467 E.01314
G1 X78.913 Y135.289 E.30796
G1 X78.494 Y135.289 E.01314
G1 X78.494 Y125.467 E.30796
G1 X78.075 Y125.467 E.01314
G1 X78.075 Y135.289 E.30796
G1 X77.656 Y135.289 E.01314
G1 X77.656 Y125.467 E.30796
G1 X77.237 Y125.467 E.01314
G1 X77.237 Y135.289 E.30796
G1 X76.818 Y135.289 E.01314
G1 X76.818 Y125.467 E.30796
G1 X76.399 Y125.467 E.01314
G1 X76.399 Y135.289 E.30796
G1 X75.98 Y135.289 E.01314
G1 X75.98 Y125.467 E.30796
G1 X75.561 Y125.467 E.01314
G1 X75.561 Y135.289 E.30796
G1 X75.142 Y135.289 E.01314
G1 X75.142 Y125.467 E.30796
G1 X74.723 Y125.467 E.01314
G1 X74.723 Y135.289 E.30796
G1 X74.304 Y135.289 E.01314
G1 X74.304 Y125.467 E.30796
G1 X73.885 Y125.467 E.01314
G1 X73.885 Y135.289 E.30796
G1 X73.466 Y135.289 E.01314
G1 X73.466 Y125.467 E.30796
M73 Q0 S231
G1 X73.047 Y125.467 E.01314
G1 X73.047 Y135.289 E.30796
G1 X72.628 Y135.289 E.01314
G1 X72.628 Y125.467 E.30796
G1 X72.209 Y125.467 E.01314
G1 X72.209 Y135.289 E.30796
G1 X71.79 Y135.289 E.01314
G1 X71.79 Y125.467 E.30796
G1 X71.371 Y125.467 E.01314
G1 X71.371 Y135.289 E.30796
G1 X70.952 Y135.289 E.01314
G1 X70.952 Y125.467 E.30796
G1 X70.533 Y125.467 E.01314
G1 X70.533 Y135.289 E.30796
G1 X70.114 Y135.289 E.01314
G1 X70.114 Y125.467 E.30796
G1 X69.695 Y125.467 E.01314
G1 X69.695 Y135.289 E.30796
G1 X69.276 Y135.289 E.01314
G1 X69.276 Y125.467 E.30796
G1 X68.857 Y125.467 E.01314
M73 P0 R227
G1 X68.857 Y135.289 E.30796
G1 X68.438 Y135.289 E.01314
G1 X68.438 Y125.467 E.30796
G1 X68.019 Y125.467 E.01314
G1 X68.019 Y135.289 E.30796
G1 X67.6 Y135.289 E.01314
G1 X67.6 Y125.467 E.30796
G1 X67.181 Y125.467 E.01314
G1 X67.181 Y135.289 E.30796
G1 X66.762 Y135.289 E.01314
G1 X66.762 Y125.467 E.30796
G1 X66.343 Y125.467 E.01314
G1 X66.343 Y135.289 E.30796
G1 X65.924 Y135.289 E.01314
G1 X65.924 Y125.467 E.30796
G1 X65.505 Y125.467 E.01314
G1 X65.505 Y135.289 E.30796
G1 X65.086 Y135.289 E.01314
G1 X65.086 Y125.467 E.30796
G1 X64.667 Y125.467 E.01314
G1 X64.667 Y135.289 E.30796
G1 X64.248 Y135.289 E.01314
G1 X64.248 Y125.467 E.30796
G1 X63.829 Y125.467 E.01314
G1 X63.829 Y135.289 E.30796
G1 X63.41 Y135.289 E.01314
G1 X63.41 Y125.467 E.30796
G1 X62.991 Y125.467 E.01314
G1 X62.991 Y135.289 E.30796
G1 X62.572 Y135.289 E.01314
G1 X62.572 Y125.467 E.30796
G1 X62.153 Y125.467 E.01314
G1 X62.153 Y135.289 E.30796
G1 X61.734 Y135.289 E.01314
G1 X61.734 Y125.467 E.30796
G1 X61.315 Y125.467 E.01314
G1 X61.315 Y135.289 E.30796
G1 X60.897 Y135.289 E.01311
G1 X60.897 Y125.467 E.30796
G1 X60.478 Y125.467 E.01314
G1 X60.478 Y135.289 E.30796
G1 X60.059 Y135.289 E.01314
G1 X60.059 Y125.467 E.30796
G1 X59.64 Y125.467 E.01314
G1 X59.64 Y135.289 E.30796
G1 X59.221 Y135.289 E.01314
G1 X59.221 Y125.467 E.30796
G1 X58.802 Y125.467 E.01314
G1 X58.802 Y135.289 E.30796
G1 X58.383 Y135.289 E.01314
G1 X58.383 Y125.467 E.30796
G1 X57.964 Y125.467 E.01314
G1 X57.964 Y135.289 E.30796
G1 X57.545 Y135.289 E.01314
G1 X57.545 Y125.467 E.30796
G1 X57.126 Y125.467 E.01314
G1 X57.126 Y135.289 E.30796
G1 X56.707 Y135.289 E.01314
G1 X56.707 Y125.467 E.30796
G1 X56.288 Y125.467 E.01314
G1 X56.288 Y135.289 E.30796
G1 X55.869 Y135.289 E.01314
G1 X55.869 Y125.467 E.30796
G1 X55.45 Y125.467 E.01314
G1 X55.45 Y135.289 E.30796
G1 X55.031 Y135.289 E.01314
G1 X55.031 Y125.467 E.30796
G1 X54.612 Y125.467 E.01314
G1 X54.612 Y135.289 E.30796
G1 X54.193 Y135.289 E.01314
G1 X54.193 Y125.467 E.30796
G1 X53.774 Y125.467 E.01314
G1 X53.774 Y135.289 E.30796
G1 X53.355 Y135.289 E.01314
G1 X53.355 Y125.467 E.30796
G1 X52.936 Y125.467 E.01314
G1 X52.936 Y135.289 E.30796
G1 X52.517 Y135.289 E.01314
G1 X52.517 Y125.467 E.30796
G1 X52.098 Y125.467 E.01314
G1 X52.098 Y135.289 E.30796
G1 X51.679 Y135.289 E.01314
G1 X51.679 Y125.467 E.30796
G1 X51.26 Y125.467 E.01314
G1 X51.26 Y135.289 E.30796
G1 X50.841 Y135.289 E.01314
G1 X50.841 Y125.467 E.30796
G1 X50.422 Y125.467 E.01314
G1 X50.422 Y135.289 E.30796
G1 X50.003 Y135.289 E.01314
G1 X50.003 Y125.467 E.30796
G1 X49.584 Y125.467 E.01314
G1 X49.584 Y135.289 E.30796
G1 X49.165 Y135.289 E.01314
G1 X49.165 Y125.467 E.30796
G1 X48.746 Y125.467 E.01314
G1 X48.746 Y135.289 E.30796
G1 X48.327 Y135.289 E.01314
G1 X48.327 Y125.467 E.30796
G1 X47.908 Y125.467 E.01314
G1 X47.908 Y135.289 E.30796
G1 X47.489 Y135.289 E.01314
G1 X47.489 Y125.467 E.30796
G1 X47.07 Y125.467 E.01314
G1 X47.07 Y135.289 E.30796
G1 X46.651 Y135.289 E.01314
G1 X46.651 Y125.297 E.31329
M204 S1000
;WIPE_START
G1 F8640
G1 X46.651 Y128.762 E-.8
;WIPE_END
G1 Z.6 F720
G1 X84.02 Y84.873 F10800
G1 Z.2 F720
G1 E.8 F2100
M204 S800
G1 F1200
G1 X45.923 Y84.873 E1.1945
G1 X45.923 Y74.372 E.32925
G1 X84.02 Y74.372 E1.1945
G1 X84.02 Y84.816 E.32746
M204 S1000
G1 X83.521 Y84.703 F10800
M204 S800
G1 F1200
G1 X83.521 Y74.711 E.31329
G1 X83.102 Y74.711 E.01314
G1 X83.102 Y84.533 E.30796
G1 X82.683 Y84.533 E.01314
G1 X82.683 Y74.711 E.30796
G1 X82.264 Y74.711 E.01314
G1 X82.264 Y84.533 E.30796
G1 X81.845 Y84.533 E.01314
G1 X81.845 Y74.711 E.30796
G1 X81.426 Y74.711 E.01314
G1 X81.426 Y84.533 E.30796
G1 X81.007 Y84.533 E.01314
G1 X81.007 Y74.711 E.30796
G1 X80.588 Y74.711 E.01314
G1 X80.588 Y84.533 E.30796
G1 X80.169 Y84.533 E.01314
G1 X80.169 Y74.711 E.30796
G1 X79.75 Y74.711 E.01314
G1 X79.75 Y84.533 E.30796
G1 X79.332 Y84.533 E.01311
G1 X79.332 Y74.711 E.30796
G1 X78.913 Y74.711 E.01314
G1 X78.913 Y84.533 E.30796
G1 X78.494 Y84.533 E.01314
G1 X78.494 Y74.711 E.30796
G1 X78.075 Y74.711 E.01314
G1 X78.075 Y84.533 E.30796
G1 X77.656 Y84.533 E.01314
G1 X77.656 Y74.711 E.30796
G1 X77.237 Y74.711 E.01314
G1 X77.237 Y84.533 E.30796
G1 X76.818 Y84.533 E.01314
G1 X76.818 Y74.711 E.30796
G1 X76.399 Y74.711 E.01314
G1 X76.399 Y84.533 E.30796
G1 X75.98 Y84.533 E.01314
G1 X75.98 Y74.711 E.30796
G1 X75.561 Y74.711 E.01314
G1 X75.561 Y84.533 E.30796
G1 X75.142 Y84.533 E.01314
G1 X75.142 Y74.711 E.30796
G1 X74.723 Y74.711 E.01314
G1 X74.723 Y84.533 E.30796
G1 X74.304 Y84.533 E.01314
G1 X74.304 Y74.711 E.30796
G1 X73.885 Y74.711 E.01314
G1 X73.885 Y84.533 E.30796
G1 X73.466 Y84.533 E.01314
G1 X73.466 Y74.711 E.30796
G1 X73.047 Y74.711 E.01314
G1 X73.047 Y84.533 E.30796
G1 X72.628 Y84.533 E.01314
G1 X72.628 Y74.711 E.30796
G1 X72.209 Y74.711 E.01314
G1 X72.209 Y84.533 E.30796
G1 X71.79 Y84.533 E.01314
G1 X71.79 Y74.711 E.30796
G1 X71.371 Y74.711 E.01314
G1 X71.371 Y84.533 E.30796
G1 X70.952 Y84.533 E.01314
G1 X70.952 Y74.711 E.30796
G1 X70.533 Y74.711 E.01314
G1 X70.533 Y84.533 E.30796
G1 X70.114 Y84.533 E.01314
G1 X70.114 Y74.711 E.30796
G1 X69.695 Y74.711 E.01314
G1 X69.695 Y84.533 E.30796
G1 X69.276 Y84.533 E.01314
G1 X69.276 Y74.711 E.30796
G1 X68.857 Y74.711 E.01314
G1 X68.857 Y84.533 E.30796
G1 X68.438 Y84.533 E.01314
G1 X68.438 Y74.711 E.30796
G1 X68.019 Y74.711 E.01314
G1 X68.019 Y84.533 E.30796
G1 X67.6 Y84.533 E.01314
M73 Q0 S230
G1 X67.6 Y74.711 E.30796
G1 X67.181 Y74.711 E.01314
G1 X67.181 Y84.533 E.30796
G1 X66.762 Y84.533 E.01314
G1 X66.762 Y74.711 E.30796
G1 X66.343 Y74.711 E.01314
G1 X66.343 Y84.533 E.30796
G1 X65.924 Y84.533 E.01314
G1 X65.924 Y74.711 E.30796
G1 X65.505 Y74.711 E.01314
G1 X65.505 Y84.533 E.30796
G1 X65.086 Y84.533 E.01314
G1 X65.086 Y74.711 E.30796
G1 X64.667 Y74.711 E.01314
G1 X64.667 Y84.533 E.30796
G1 X64.248 Y84.533 E.01314
G1 X64.248 Y74.711 E.30796
G1 X63.829 Y74.711 E.01314
G1 X63.829 Y84.533 E.30796
G1 X63.41 Y84.533 E.01314
G1 X63.41 Y74.711 E.30796
G1 X62.991 Y74.711 E.01314
M73 P0 R226
G1 X62.991 Y84.533 E.30796
G1 X62.572 Y84.533 E.01314
G1 X62.572 Y74.711 E.30796
G1 X62.153 Y74.711 E.01314
G1 X62.153 Y84.533 E.30796
G1 X61.734 Y84.533 E.01314
G1 X61.734 Y74.711 E.30796
G1 X61.315 Y74.711 E.01314
G1 X61.315 Y84.533 E.30796
G1 X60.897 Y84.533 E.01311
G1 X60.897 Y74.711 E.30796
G1 X60.478 Y74.711 E.01314
G1 X60.478 Y84.533 E.30796
G1 X60.059 Y84.533 E.01314
G1 X60.059 Y74.711 E.30796
G1 X59.64 Y74.711 E.01314
G1 X59.64 Y84.533 E.30796
G1 X59.221 Y84.533 E.01314
G1 X59.221 Y74.711 E.30796
G1 X58.802 Y74.711 E.01314
G1 X58.802 Y84.533 E.30796
G1 X58.383 Y84.533 E.01314
G1 X58.383 Y74.711 E.30796
G1 X57.964 Y74.711 E.01314
G1 X57.964 Y84.533 E.30796
G1 X57.545 Y84.533 E.01314
G1 X57.545 Y74.711 E.30796
G1 X57.126 Y74.711 E.01314
G1 X57.126 Y84.533 E.30796
G1 X56.707 Y84.533 E.01314
G1 X56.707 Y74.711 E.30796
G1 X56.288 Y74.711 E.01314
M73 P1 R226
G1 X56.288 Y84.533 E.30796
G1 X55.869 Y84.533 E.01314
G1 X55.869 Y74.711 E.30796
G1 X55.45 Y74.711 E.01314
G1 X55.45 Y84.533 E.30796
G1 X55.031 Y84.533 E.01314
G1 X55.031 Y74.711 E.30796
M73 Q1 S230
G1 X54.612 Y74.711 E.01314
G1 X54.612 Y84.533 E.30796
G1 X54.193 Y84.533 E.01314
G1 X54.193 Y74.711 E.30796
G1 X53.774 Y74.711 E.01314
G1 X53.774 Y84.533 E.30796
G1 X53.355 Y84.533 E.01314
G1 X53.355 Y74.711 E.30796
G1 X52.936 Y74.711 E.01314
G1 X52.936 Y84.533 E.30796
G1 X52.517 Y84.533 E.01314
G1 X52.517 Y74.711 E.30796
G1 X52.098 Y74.711 E.01314
G1 X52.098 Y84.533 E.30796
G1 X51.679 Y84.533 E.01314
G1 X51.679 Y74.711 E.30796
G1 X51.26 Y74.711 E.01314
G1 X51.26 Y84.533 E.30796
G1 X50.841 Y84.533 E.01314
G1 X50.841 Y74.711 E.30796
G1 X50.422 Y74.711 E.01314
G1 X50.422 Y84.533 E.30796
G1 X50.003 Y84.533 E.01314
G1 X50.003 Y74.711 E.30796
G1 X49.584 Y74.711 E.01314
G1 X49.584 Y84.533 E.30796
G1 X49.165 Y84.533 E.01314
G1 X49.165 Y74.711 E.30796
G1 X48.746 Y74.711 E.01314
G1 X48.746 Y84.533 E.30796
G1 X48.327 Y84.533 E.01314
G1 X48.327 Y74.711 E.30796
G1 X47.908 Y74.711 E.01314
G1 X47.908 Y84.533 E.30796
G1 X47.489 Y84.533 E.01314
G1 X47.489 Y74.711 E.30796
G1 X47.07 Y74.711 E.01314
G1 X47.07 Y84.533 E.30796
G1 X46.651 Y84.533 E.01314
G1 X46.651 Y74.541 E.31329
M204 S1000
;WIPE_START
G1 F8640
G1 X46.651 Y78.006 E-.8
;WIPE_END
G1 Z.6 F720
G1 X127.943 Y64.109 F10800
G1 Z.2 F720
G1 E.8 F2100
M204 S800
G1 F1200
G1 X119.98 Y64.109 E.24967
G1 X119.98 Y51.301 E.40159
G1 X127.943 Y51.301 E.24967
G1 X127.943 Y64.052 E.3998
M204 S1000
G1 X127.514 Y63.939 F10800
M204 S800
G1 F1200
G1 X127.514 Y51.64 E.38563
G1 X127.095 Y51.64 E.01314
G1 X127.095 Y63.77 E.38033
G1 X126.676 Y63.77 E.01314
G1 X126.676 Y51.64 E.38033
G1 X126.257 Y51.64 E.01314
G1 X126.257 Y63.77 E.38033
G1 X125.838 Y63.77 E.01314
G1 X125.838 Y51.64 E.38033
G1 X125.419 Y51.64 E.01314
G1 X125.419 Y63.77 E.38033
G1 X125 Y63.77 E.01314
G1 X125 Y51.64 E.38033
G1 X124.581 Y51.64 E.01314
G1 X124.581 Y63.77 E.38033
G1 X124.162 Y63.77 E.01314
G1 X124.162 Y51.64 E.38033
G1 X123.743 Y51.64 E.01314
G1 X123.743 Y63.77 E.38033
G1 X123.324 Y63.77 E.01314
G1 X123.324 Y51.64 E.38033
G1 X122.905 Y51.64 E.01314
G1 X122.905 Y63.77 E.38033
G1 X122.486 Y63.77 E.01314
G1 X122.486 Y51.64 E.38033
G1 X122.067 Y51.64 E.01314
G1 X122.067 Y63.77 E.38033
G1 X121.648 Y63.77 E.01314
G1 X121.648 Y51.64 E.38033
G1 X121.229 Y51.64 E.01314
G1 X121.229 Y63.77 E.38033
G1 X120.81 Y63.77 E.01314
G1 X120.81 Y51.64 E.38033
G1 X120.391 Y51.64 E.01314
G1 X120.391 Y63.939 E.38563
M204 S1000
;WIPE_START
G1 F8640
G1 X120.391 Y60.474 E-.8
;WIPE_END
G1 Z.6 F720
G1 X204.077 Y112.558 F10800
G1 Z.2 F720
G1 E.8 F2100
M204 S800
G1 F1200
G1 X165.98 Y112.558 E1.1945
G1 X165.98 Y97.442 E.47395
G1 X204.077 Y97.442 E1.1945
G1 X204.077 Y112.501 E.47216
M204 S1000
G1 X203.349 Y112.388 F10800
M204 S800
G1 F1200
G1 X203.349 Y97.782 E.45796
G1 X202.93 Y97.782 E.01314
G1 X202.93 Y112.218 E.45263
G1 X202.511 Y112.218 E.01314
G1 X202.511 Y97.782 E.45263
G1 X202.092 Y97.782 E.01314
G1 X202.092 Y112.218 E.45263
G1 X201.673 Y112.218 E.01314
G1 X201.673 Y97.782 E.45263
