; generated by PrusaSlicer 2.9.2 on 2025-04-18 at 06:19:29 UTC


;
;
; 

; external perimeters extrusion width = 0.45mm
; perimeters extrusion width = 0.45mm
; infill extrusion width = 0.45mm
; solid infill extrusion width = 0.45mm
; top infill extrusion width = 0.40mm
; support material extrusion width = 0.35mm
; first layer extrusion width = 0.42mm

M73 P0 R232
M73 Q0 S235
M201 X1000 Y1000 Z200 E5000 ; sets maximum accelerations, mm/sec^2
M203 X200 Y200 Z12 E120 ; sets maximum feedrates, mm / sec
M204 S1250 T1250 ; sets acceleration (S) and retract acceleration (R), mm/sec^2
M205 X8.00 Y8.00 Z0.40 E4.50 ; sets the jerk limits, mm/sec
M205 S0 T0 ; sets the minimum extruding and travel feed rate, mm/sec

; printing object body front 2.STL id:0 copy 0
; stop printing object body front 2.STL id:0 copy 0

;TYPE:Custom
M862.3 P "MK3S" ; printer model check
M862.1 P0.4 ; nozzle diameter check
M115 U3.14.1 ; tell printer latest fw version
G90 ; use absolute coordinates
M83 ; extruder relative mode
M104 S215 ; set extruder temp
M140 S60 ; set bed temp
M190 S60 ; wait for bed temp
M109 S215 ; wait for extruder temp
G28 W ; home all without mesh bed level
G80 X43.5459 Y42.0025 W162.908 H125.995 ; mesh bed levelling

G1 Z0.2 F720
G1 Y-3 F1000 ; go outside print area
G92 E0
G1 X60 E9 F1000 ; intro line
G1 X100 E12.5 F1000 ; intro line
M73 P0 R231

G92 E0
M221 S95

; Don't change E values below. Excessive value can damage the printer.

G21 ; set units to millimeters
G90 ; use absolute coordinates
M83 ; use relative distances for extrusion

M900 K0.05 ; Filament gcode LA 1.5
M900 K30 ; Filament gcode LA 1.0




M107
;LAYER_CHANGE
;Z:0.2
;HEIGHT:0.2
G1 E-.8 F2100
G1 Z.6 F720
G1 X57.37 Y87.302 F10800
G1 Z.2 F720
G1 E.8 F2100
M204 S800
;TYPE:Skirt/Brim
;WIDTH:0.42
G1 F1200
G1 X125.469 Y42.551 E2.55497
G1 X126.671 Y42.191 E.03934
G1 X130.809 Y42.191 E.12974
G1 X165.539 Y42.812 E1.08911
G1 X166.826 Y43.259 E.04272
G1 X205.403 Y72.63 E1.52023
G1 X206.159 Y73.697 E.041
G1 X206.266 Y74.372 E.02143
G1 X206.266 Y135.628 E1.92064
G1 X205.875 Y136.877 E.04104
G1 X205.403 Y137.37 E.0214
G1 X166.826 Y166.741 E1.52023
G1 X165.539 Y167.188 E.04272
G1 X130.77 Y167.809 E1.09033
G1 X126.671 Y167.809 E.12852
G1 X125.469 Y167.449 E.03934
G1 X44.721 Y114.387 E3.02952
G1 X43.893 Y113.374 E.04102
G1 X43.734 Y112.558 E.02607
G1 X43.734 Y97.442 E.47395
G1 X44.125 Y96.194 E.04101
G1 X44.721 Y95.613 E.0261
G1 X57.319 Y87.334 E.47266
M204 S1000
;WIPE_START
G1 F8640
G1 X57.37 Y87.302 E-.0139
G1 X60.215 Y85.432 E-.7861
;WIPE_END
G1 Z.6 F720
; printing object body front 2.STL id:0 copy 0
G1 X130.02 Y165.199 F10800
G1 Z.2 F720
G1 E.8 F2100
M204 S800
;TYPE:Support material
G1 F1200
G1 X130.301 Y165.48 E.01246
G1 X130.77 Y165.48 E.01471
G1 X130.77 Y165.62 E.00439
G1 X126.671 Y165.62 E.12852
G1 X126.671 Y141.277 E.76326
G1 X130.02 Y141.277 E.10501
G1 X130.02 Y165.142 E.74827
M204 S1000
G1 X129.609 Y165.451 F10800
M204 S800
G1 F1200
G1 X129.609 Y141.616 E.74733
G1 X129.19 Y141.616 E.01314
G1 X129.19 Y165.281 E.742
G1 X128.771 Y165.281 E.01314
G1 X128.771 Y141.616 E.742
G1 X128.352 Y141.616 E.01314
G1 X128.352 Y165.281 E.742
G1 X127.933 Y165.281 E.01314
G1 X127.933 Y141.616 E.742
G1 X127.514 Y141.616 E.01314
G1 X127.514 Y165.281 E.742
G1 X127.095 Y165.281 E.01314
G1 X127.095 Y141.447 E.7473
M204 S1000
;WIPE_START
G1 F8640
M73 Q0 S234
G1 X127.095 Y144.912 E-.8
;WIPE_END
G1 Z.6 F720
G1 X84.02 Y112.558 F10800
G1 Z.2 F720
G1 E.8 F2100
M204 S800
G1 F1200
G1 X45.923 Y112.558 E1.1945
G1 X45.923 Y97.442 E.47395
G1 X84.02 Y97.442 E1.1945
G1 X84.02 Y112.501 E.47216
M204 S1000
G1 X83.521 Y112.388 F10800
M204 S800
G1 F1200
G1 X83.521 Y97.782 E.45796
G1 X83.102 Y97.782 E.01314
G1 X83.102 Y112.218 E.45263
G1 X82.683 Y112.218 E.01314
G1 X82.683 Y97.782 E.45263
G1 X82.264 Y97.782 E.01314
G1 X82.264 Y112.218 E.45263
G1 X81.845 Y112.218 E.01314
G1 X81.845 Y97.782 E.45263
G1 X81.426 Y97.782 E.01314
G1 X81.426 Y112.218 E.45263
G1 X81.007 Y112.218 E.01314
G1 X81.007 Y97.782 E.45263
G1 X80.588 Y97.782 E.01314
G1 X80.588 Y112.218 E.45263
G1 X80.169 Y112.218 E.01314
G1 X80.169 Y97.782 E.45263
G1 X79.75 Y97.782 E.01314
G1 X79.75 Y112.218 E.45263
G1 X79.332 Y112.218 E.01311
G1 X79.332 Y97.782 E.45263
G1 X78.913 Y97.782 E.01314
G1 X78.913 Y112.218 E.45263
G1 X78.494 Y112.218 E.01314
G1 X78.494 Y97.782 E.45263
G1 X78.075 Y97.782 E.01314
G1 X78.075 Y112.218 E.45263
G1 X77.656 Y112.218 E.01314
G1 X77.656 Y97.782 E.45263
G1 X77.237 Y97.782 E.01314
G1 X77.237 Y112.218 E.45263
G1 X76.818 Y112.218 E.01314
G1 X76.818 Y97.782 E.45263
G1 X76.399 Y97.782 E.01314
G1 X76.399 Y112.218 E.45263
G1 X75.98 Y112.218 E.01314
G1 X75.98 Y97.782 E.45263
G1 X75.561 Y97.782 E.01314
M73 P0 R230
G1 X75.561 Y112.218 E.45263
G1 X75.142 Y112.218 E.01314
G1 X75.142 Y97.782 E.45263
G1 X74.723 Y97.782 E.01314
G1 X74.723 Y112.218 E.45263
G1 X74.304 Y112.218 E.01314
G1 X74.304 Y97.782 E.45263
G1 X73.885 Y97.782 E.01314
G1 X73.885 Y112.218 E.45263
G1 X73.466 Y112.218 E.01314
G1 X73.466 Y97.782 E.45263
G1 X73.047 Y97.782 E.01314
G1 X73.047 Y112.218 E.45263
G1 X72.628 Y112.218 E.01314
G1 X72.628 Y97.782 E.45263
G1 X72.209 Y97.782 E.01314
G1 X72.209 Y112.218 E.45263
G1 X71.79 Y112.218 E.01314
G1 X71.79 Y97.782 E.45263
G1 X71.371 Y97.782 E.01314
G1 X71.371 Y112.218 E.45263
G1 X70.952 Y112.218 E.01314
G1 X70.952 Y97.782 E.45263
G1 X70.533 Y97.782 E.01314
G1 X70.533 Y112.218 E.45263
G1 X70.114 Y112.218 E.01314
G1 X70.114 Y97.782 E.45263
G1 X69.695 Y97.782 E.01314
G1 X69.695 Y112.218 E.45263
G1 X69.276 Y112.218 E.01314
G1 X69.276 Y97.782 E.45263
G1 X68.857 Y97.782 E.01314
G1 X68.857 Y112.218 E.45263
G1 X68.438 Y112.218 E.01314
G1 X68.438 Y97.782 E.45263
G1 X68.019 Y97.782 E.01314
G1 X68.019 Y112.218 E.45263
G1 X67.6 Y112.218 E.01314
G1 X67.6 Y97.782 E.45263
G1 X67.181 Y97.782 E.01314
G1 X67.181 Y112.218 E.45263
G1 X66.762 Y112.218 E.01314
G1 X66.762 Y97.782 E.45263
G1 X66.343 Y97.782 E.01314
G1 X66.343 Y112.218 E.45263
G1 X65.924 Y112.218 E.01314
G1 X65.924 Y97.782 E.45263
G1 X65.505 Y97.782 E.01314
G1 X65.505 Y112.218 E.45263
G1 X65.086 Y112.218 E.01314
G1 X65.086 Y97.782 E.45263
G1 X64.667 Y97.782 E.01314
G1 X64.667 Y112.218 E.45263
G1 X64.248 Y112.218 E.01314
G1 X64.248 Y97.782 E.45263
G1 X63.829 Y97.782 E.01314
G1 X63.829 Y112.218 E.45263
G1 X63.41 Y112.218 E.01314
G1 X63.41 Y97.782 E.45263
G1 X62.991 Y97.782 E.01314
G1 X62.991 Y112.218 E.45263
G1 X62.572 Y112.218 E.01314
G1 X62.572 Y97.782 E.45263
G1 X62.153 Y97.782 E.01314
G1 X62.153 Y112.218 E.45263
G1 X61.734 Y112.218 E.01314
G1 X61.734 Y97.782 E.45263
G1 X61.315 Y97.782 E.01314
G1 X61.315 Y112.218 E.45263
G1 X60.897 Y112.218 E.01311
G1 X60.897 Y97.782 E.45263
G1 X60.478 Y97.782 E.01314
G1 X60.478 Y112.218 E.45263
G1 X60.059 Y112.218 E.01314
G1 X60.059 Y97.782 E.45263
G1 X59.64 Y97.782 E.01314
G1 X59.64 Y112.218 E.45263
G1 X59.221 Y112.218 E.01314
G1 X59.221 Y97.782 E.45263
G1 X58.802 Y97.782 E.01314
G1 X58.802 Y112.218 E.45263
G1 X58.383 Y112.218 E.01314
G1 X58.383 Y97.782 E.45263
G1 X57.964 Y97.782 E.01314
G1 X57.964 Y112.218 E.45263
G1 X57.545 Y112.218 E.01314
G1 X57.545 Y97.782 E.45263
G1 X57.126 Y97.782 E.01314
G1 X57.126 Y112.218 E.45263
G1 X56.707 Y112.218 E.01314
G1 X56.707 Y97.782 E.45263
G1 X56.288 Y97.782 E.01314
G1 X56.288 Y112.218 E.45263
G1 X55.869 Y112.218 E.01314
G1 X55.869 Y97.782 E.45263
G1 X55.45 Y97.782 E.01314
G1 X55.45 Y112.218 E.45263
G1 X55.031 Y112.218 E.01314
G1 X55.031 Y97.782 E.45263
G1 X54.612 Y97.782 E.01314
G1 X54.612 Y112.218 E.45263
G1 X54.193 Y112.218 E.01314
M73 Q0 S233
G1 X54.193 Y97.782 E.45263
G1 X53.774 Y97.782 E.01314
G1 X53.774 Y112.218 E.45263
G1 X53.355 Y112.218 E.01314
G1 X53.355 Y97.782 E.45263
G1 X52.936 Y97.782 E.01314
G1 X52.936 Y112.218 E.45263
G1 X52.517 Y112.218 E.01314
G1 X52.517 Y97.782 E.45263
G1 X52.098 Y97.782 E.01314
G1 X52.098 Y112.218 E.45263
G1 X51.679 Y112.218 E.01314
G1 X51.679 Y97.782 E.45263
G1 X51.26 Y97.782 E.01314
G1 X51.26 Y112.218 E.45263
G1 X50.841 Y112.218 E.01314
G1 X50.841 Y97.782 E.45263
G1 X50.422 Y97.782 E.01314
G1 X50.422 Y112.218 E.45263
G1 X50.003 Y112.218 E.01314
G1 X50.003 Y97.782 E.45263
G1 X49.584 Y97.782 E.01314
G1 X49.584 Y112.218 E.45263
G1 X49.165 Y112.218 E.01314
G1 X49.165 Y97.782 E.45263
G1 X48.746 Y97.782 E.01314
G1 X48.746 Y112.218 E.45263
G1 X48.327 Y112.218 E.01314
G1 X48.327 Y97.782 E.45263
G1 X47.908 Y97.782 E.01314
G1 X47.908 Y112.218 E.45263
G1 X47.489 Y112.218 E.01314
G1 X47.489 Y97.782 E.45263
G1 X47.07 Y97.782 E.01314
G1 X47.07 Y112.218 E.45263
G1 X46.651 Y112.218 E.01314
G1 X46.651 Y97.612 E.45796
M204 S1000
;WIPE_START
G1 F8640
G1 X46.651 Y101.077 E-.8
;WIPE_END
G1 Z.6 F720
G1 X130.77 Y44.52 F10800
G1 Z.2 F720
G1 E.8 F2100
M204 S800
G1 F1200
G1 X130.301 Y44.52 E.01471
G1 X130.02 Y44.801 E.01246
G1 X130.02 Y68.723 E.75006
G1 X126.671 Y68.723 E.10501
G1 X126.671 Y44.38 E.76326
G1 X130.77 Y44.38 E.12852
G1 X130.77 Y44.463 E.0026
M204 S1000
;WIPE_START
G1 F8640
G1 X130.77 Y44.38 E-.01916
G1 X127.388 Y44.38 E-.78084
;WIPE_END
G1 Z.6 F720
G1 X129.609 Y68.553 F10800
G1 Z.2 F720
G1 E.8 F2100
M204 S800
G1 F1200
G1 X129.609 Y44.719 E.7473
G1 X129.19 Y44.719 E.01314
G1 X129.19 Y68.384 E.742
G1 X128.771 Y68.384 E.01314
M73 P0 R229
G1 X128.771 Y44.719 E.742
G1 X128.352 Y44.719 E.01314
G1 X128.352 Y68.384 E.742
G1 X127.933 Y68.384 E.01314
G1 X127.933 Y44.719 E.742
G1 X127.514 Y44.719 E.01314
G1 X127.514 Y68.384 E.742
G1 X127.095 Y68.384 E.01314
G1 X127.095 Y44.549 E.74733
M204 S1000
;WIPE_START
G1 F8640
G1 X127.095 Y48.014 E-.8
;WIPE_END
G1 Z.6 F720
G1 X204.077 Y84.873 F10800
G1 Z.2 F720
G1 E.8 F2100
M204 S800
G1 F1200
G1 X165.98 Y84.873 E1.1945
G1 X165.98 Y74.372 E.32925
G1 X204.077 Y74.372 E1.1945
G1 X204.077 Y84.816 E.32746
M204 S1000
G1 X203.349 Y84.703 F10800
M204 S800
G1 F1200
G1 X203.349 Y74.711 E.31329
G1 X202.93 Y74.711 E.01314
G1 X202.93 Y84.533 E.30796
G1 X202.511 Y84.533 E.01314
G1 X202.511 Y74.711 E.30796
G1 X202.092 Y74.711 E.01314
G1 X202.092 Y84.533 E.30796
G1 X201.673 Y84.533 E.01314
G1 X201.673 Y74.711 E.30796
G1 X201.254 Y74.711 E.01314
G1 X201.254 Y84.533 E.30796
G1 X200.835 Y84.533 E.01314
G1 X200.835 Y74.711 E.30796
G1 X200.416 Y74.711 E.01314
G1 X200.416 Y84.533 E.30796
G1 X199.997 Y84.533 E.01314
M73 P1 R229
G1 X199.997 Y74.711 E.30796
G1 X199.578 Y74.711 E.01314
G1 X199.578 Y84.533 E.30796
G1 X199.159 Y84.533 E.01314
M73 Q1 S233
G1 X199.159 Y74.711 E.30796
G1 X198.74 Y74.711 E.01314
G1 X198.74 Y84.533 E.30796
G1 X198.321 Y84.533 E.01314
G1 X198.321 Y74.711 E.30796
G1 X197.902 Y74.711 E.01314
G1 X197.902 Y84.533 E.30796
G1 X197.483 Y84.533 E.01314
G1 X197.483 Y74.711 E.30796
G1 X197.064 Y74.711 E.01314
G1 X197.064 Y84.533 E.30796
G1 X196.645 Y84.533 E.01314
G1 X196.645 Y74.711 E.30796
G1 X196.226 Y74.711 E.01314
G1 X196.226 Y84.533 E.30796
G1 X195.807 Y84.533 E.01314
G1 X195.807 Y74.711 E.30796
G1 X195.388 Y74.711 E.01314
G1 X195.388 Y84.533 E.30796
G1 X194.969 Y84.533 E.01314
G1 X194.969 Y74.711 E.30796
G1 X194.55 Y74.711 E.01314
G1 X194.55 Y84.533 E.30796
G1 X194.131 Y84.533 E.01314
G1 X194.131 Y74.711 E.30796
G1 X193.712 Y74.711 E.01314
G1 X193.712 Y84.533 E.30796
G1 X193.293 Y84.533 E.01314
G1 X193.293 Y74.711 E.30796
G1 X192.874 Y74.711 E.01314
G1 X192.874 Y84.533 E.30796
G1 X192.455 Y84.533 E.01314
G1 X192.455 Y74.711 E.30796
G1 X192.036 Y74.711 E.01314
G1 X192.036 Y84.533 E.30796
G1 X191.617 Y84.533 E.01314
G1 X191.617 Y74.711 E.30796
G1 X191.198 Y74.711 E.01314
G1 X191.198 Y84.533 E.30796
G1 X190.779 Y84.533 E.01314
G1 X190.779 Y74.711 E.30796
G1 X190.36 Y74.711 E.01314
G1 X190.36 Y84.533 E.30796
G1 X189.941 Y84.533 E.01314
G1 X189.941 Y74.711 E.30796
G1 X189.522 Y74.711 E.01314
G1 X189.522 Y84.533 E.30796
G1 X189.103 Y84.533 E.01314
G1 X189.103 Y74.711 E.30796
G1 X188.685 Y74.711 E.01311
G1 X188.685 Y84.533 E.30796
G1 X188.266 Y84.533 E.01314
G1 X188.266 Y74.711 E.30796
G1 X187.847 Y74.711 E.01314
G1 X187.847 Y84.533 E.30796
G1 X187.428 Y84.533 E.01314
G1 X187.428 Y74.711 E.30796
G1 X187.009 Y74.711 E.01314
G1 X187.009 Y84.533 E.30796
G1 X186.59 Y84.533 E.01314
G1 X186.59 Y74.711 E.30796
G1 X186.171 Y74.711 E.01314
G1 X186.171 Y84.533 E.30796
G1 X185.752 Y84.533 E.01314
G1 X185.752 Y74.711 E.30796
G1 X185.333 Y74.711 E.01314
G1 X185.333 Y84.533 E.30796
G1 X184.914 Y84.533 E.01314
G1 X184.914 Y74.711 E.30796
G1 X184.495 Y74.711 E.01314
G1 X184.495 Y84.533 E.30796
G1 X184.076 Y84.533 E.01314
G1 X184.076 Y74.711 E.30796
G1 X183.657 Y74.711 E.01314
G1 X183.657 Y84.533 E.30796
G1 X183.238 Y84.533 E.01314
G1 X183.238 Y74.711 E.30796
G1 X182.819 Y74.711 E.01314
M73 Q1 S232
G1 X182.819 Y84.533 E.30796
G1 X182.4 Y84.533 E.01314
G1 X182.4 Y74.711 E.30796
G1 X181.981 Y74.711 E.01314
G1 X181.981 Y84.533 E.30796
G1 X181.562 Y84.533 E.01314
G1 X181.562 Y74.711 E.30796
G1 X181.143 Y74.711 E.01314
G1 X181.143 Y84.533 E.30796
G1 X180.724 Y84.533 E.01314
G1 X180.724 Y74.711 E.30796
G1 X180.305 Y74.711 E.01314
G1 X180.305 Y84.533 E.30796
G1 X179.886 Y84.533 E.01314
G1 X179.886 Y74.711 E.30796
G1 X179.467 Y74.711 E.01314
G1 X179.467 Y84.533 E.30796
G1 X179.048 Y84.533 E.01314
G1 X179.048 Y74.711 E.30796
G1 X178.629 Y74.711 E.01314
G1 X178.629 Y84.533 E.30796
G1 X178.21 Y84.533 E.01314
G1 X178.21 Y74.711 E.30796
G1 X177.791 Y74.711 E.01314
G1 X177.791 Y84.533 E.30796
G1 X177.372 Y84.533 E.01314
G1 X177.372 Y74.711 E.30796
G1 X176.953 Y74.711 E.01314
G1 X176.953 Y84.533 E.30796
G1 X176.534 Y84.533 E.01314
G1 X176.534 Y74.711 E.30796
G1 X176.115 Y74.711 E.01314
G1 X176.115 Y84.533 E.30796
G1 X175.696 Y84.533 E.01314
G1 X175.696 Y74.711 E.30796
G1 X175.277 Y74.711 E.01314
G1 X175.277 Y84.533 E.30796
G1 X174.858 Y84.533 E.01314
G1 X174.858 Y74.711 E.30796
G1 X174.439 Y74.711 E.01314
G1 X174.439 Y84.533 E.30796
G1 X174.02 Y84.533 E.01314
G1 X174.02 Y74.711 E.30796
G1 X173.601 Y74.711 E.01314
G1 X173.601 Y84.533 E.30796
G1 X173.182 Y84.533 E.01314
G1 X173.182 Y74.711 E.30796
G1 X172.763 Y74.711 E.01314
G1 X172.763 Y84.533 E.30796
G1 X172.344 Y84.533 E.01314
G1 X172.344 Y74.711 E.30796
G1 X171.925 Y74.711 E.01314
G1 X171.925 Y84.533 E.30796
G1 X171.506 Y84.533 E.01314
G1 X171.506 Y74.711 E.30796
G1 X171.087 Y74.711 E.01314
G1 X171.087 Y84.533 E.30796
G1 X170.668 Y84.533 E.01314
G1 X170.668 Y74.711 E.30796
G1 X170.25 Y74.711 E.01311
G1 X170.25 Y84.533 E.30796
G1 X169.831 Y84.533 E.01314
G1 X169.831 Y74.711 E.30796
G1 X169.412 Y74.711 E.01314
G1 X169.412 Y84.533 E.30796
G1 X168.993 Y84.533 E.01314
G1 X168.993 Y74.711 E.30796
G1 X168.574 Y74.711 E.01314
G1 X168.574 Y84.533 E.30796
G1 X168.155 Y84.533 E.01314
G1 X168.155 Y74.711 E.30796
G1 X167.736 Y74.711 E.01314
G1 X167.736 Y84.533 E.30796
G1 X167.317 Y84.533 E.01314
G1 X167.317 Y74.711 E.30796
G1 X166.898 Y74.711 E.01314
G1 X166.898 Y84.533 E.30796
G1 X166.479 Y84.533 E.01314
G1 X166.479 Y74.541 E.31329
M204 S1000
;WIPE_START
G1 F8640
G1 X166.479 Y78.006 E-.8
;WIPE_END
G1 Z.6 F720
M73 P1 R228
G1 X204.077 Y135.628 F10800
G1 Z.2 F720
G1 E.8 F2100
M204 S800
G1 F1200
G1 X165.98 Y135.628 E1.1945
G1 X165.98 Y125.127 E.32925
G1 X204.077 Y125.127 E1.1945
G1 X204.077 Y135.572 E.3275
M204 S1000
G1 X203.349 Y135.459 F10800
M204 S800
G1 F1200
G1 X203.349 Y125.467 E.31329
G1 X202.93 Y125.467 E.01314
G1 X202.93 Y135.289 E.30796
G1 X202.511 Y135.289 E.01314
G1 X202.511 Y125.467 E.30796
G1 X202.092 Y125.467 E.01314
G1 X202.092 Y135.289 E.30796
G1 X201.673 Y135.289 E.01314
G1 X201.673 Y125.467 E.30796
G1 X201.254 Y125.467 E.01314
G1 X201.254 Y135.289 E.30796
G1 X200.835 Y135.289 E.01314
G1 X200.835 Y125.467 E.30796
G1 X200.416 Y125.467 E.01314
G1 X200.416 Y135.289 E.30796
G1 X199.997 Y135.289 E.01314
G1 X199.997 Y125.467 E.30796
G1 X199.578 Y125.467 E.01314
G1 X199.578 Y135.289 E.30796
G1 X199.159 Y135.289 E.01314
G1 X199.159 Y125.467 E.30796
G1 X198.74 Y125.467 E.01314
G1 X198.74 Y135.289 E.30796
G1 X198.321 Y135.289 E.01314
G1 X198.321 Y125.467 E.30796
G1 X197.902 Y125.467 E.01314
G1 X197.902 Y135.289 E.30796
G1 X197.483 Y135.289 E.01314
G1 X197.483 Y125.467 E.30796
G1 X197.064 Y125.467 E.01314
G1 X197.064 Y135.289 E.30796
G1 X196.645 Y135.289 E.01314
G1 X196.645 Y125.467 E.30796
G1 X196.226 Y125.467 E.01314
