; generated by PrusaSlicer 2.2.0+win64 on 2023-01-07 at 17:53:01 UTC

; 

; external perimeters extrusion width = 0.45mm
; perimeters extrusion width = 0.45mm
; infill extrusion width = 0.45mm
; solid infill extrusion width = 0.45mm
; top infill extrusion width = 0.40mm
; support material extrusion width = 0.35mm
; first layer extrusion width = 0.42mm

M73 P0 R162
M73 Q0 S165
M201 X1000 Y1000 Z200 E5000 ; sets maximum accelerations, mm/sec^2
M203 X200 Y200 Z12 E120 ; sets maximum feedrates, mm/sec
M204 P1250 R1250 T1250 ; sets acceleration (P, T) and retract acceleration (R), mm/sec^2
M205 X8.00 Y8.00 Z0.40 E4.50 ; sets the jerk limits, mm/sec
M205 S0 T0 ; sets the minimum extruding and travel feed rate, mm/sec
M107
M862.3 P "MK3S" ; printer model check
M862.1 P0.4 ; nozzle diameter check
M115 U3.11.0 ; tell printer latest fw version
G90 ; use absolute coordinates
M83 ; extruder relative mode
M104 S220 ; set extruder temp
M140 S80 ; set bed temp
M190 S80 ; wait for bed temp
M109 S220 ; wait for extruder temp
G28 W ; home all without mesh bed level
G80 ; mesh bed leveling
G1 Y-3.0 F1000.0 ; go outside print area
G92 E0.0
G1 X60.0 E9.0 F1000.0 ; intro line
M73 Q0 S165
M73 P0 R162
G1 X100.0 E12.5 F1000.0 ; intro line
G92 E0.0
M221 S95

; Don't change E values below. Excessive value can damage the printer.
M907 E430 ; set extruder motor current
G21 ; set units to millimeters
G90 ; use absolute coordinates
M83 ; use relative distances for extrusion
M900 K0.05 ; Filament gcode LA 1.5
M900 K30 ; Filament gcode LA 1.0
;BEFORE_LAYER_CHANGE
G92 E0.0
;0.2


G1 E-0.80000 F2100.00000
G1 Z0.400 F10800.000
;AFTER_LAYER_CHANGE
;0.2
G1 X43.939 Y86.661
G1 Z0.200
G1 E0.80000 F2100.00000
M204 S1000
G1 F1200.000
G1 X44.426 Y86.193 E0.02119
G1 X78.819 Y61.937 E1.31956
G1 X79.373 Y61.707 E0.01882
G1 X79.964 Y61.623 E0.01870
G1 X202.683 Y60.080 E3.84807
G1 X208.809 Y60.252 E0.19216
G1 X209.397 Y60.351 E0.01870
G1 X210.076 Y60.680 E0.02367
G1 X210.618 Y61.206 E0.02367
G1 X210.967 Y61.875 E0.02367
G1 X211.089 Y62.617 E0.02355
G1 X211.079 Y143.120 E2.52413
G1 X210.888 Y143.862 E0.02402
G1 X210.474 Y144.502 E0.02390
G1 X203.612 Y151.535 E0.30808
G1 X203.106 Y151.923 E0.02000
G1 X202.537 Y152.157 E0.01929
G1 X201.931 Y152.238 E0.01917
G1 X45.802 Y152.238 E4.89531
G1 X45.188 Y152.154 E0.01941
G1 X44.614 Y151.913 E0.01953
G1 X44.125 Y151.534 E0.01941
G1 X43.750 Y151.041 E0.01941
G1 X43.473 Y150.278 E0.02543
G1 X42.623 Y144.706 E0.17674
G1 X42.623 Y91.508 E1.66798
G1 X42.683 Y91.017 E0.01550
G1 X43.602 Y87.251 E0.12156
G1 X43.909 Y86.713 E0.01942
; printing object body middle front left.STL id:0 copy 0
G1 F8640.000
G1 X44.426 Y86.193 E-0.16936
G1 X46.516 Y84.718 E-0.59064
G1 E-0.04000 F2100.00000
G1 Z0.600 F10800.000
G1 X45.813 Y91.306
G1 Z0.200
G1 E0.80000 F2100.00000
G1 F1200.000
G1 X45.813 Y88.123 E0.09981
G1 X46.567 Y88.123 E0.02365
G1 X46.567 Y91.136 E0.09449
G1 X47.322 Y91.136 E0.02365
G1 X47.322 Y88.123 E0.09449
G1 X48.076 Y88.123 E0.02365
G1 X48.076 Y91.136 E0.09449
G1 X48.830 Y91.136 E0.02365
G1 X48.830 Y88.123 E0.09449
G1 X49.584 Y88.123 E0.02365
G1 X49.584 Y91.136 E0.09449
G1 X50.338 Y91.136 E0.02365
G1 X50.338 Y88.123 E0.09449
G1 X51.092 Y88.123 E0.02365
G1 X51.092 Y91.136 E0.09449
G1 X51.847 Y91.136 E0.02365
G1 X51.847 Y88.123 E0.09449
G1 X52.601 Y88.123 E0.02365
G1 X52.601 Y91.136 E0.09449
G1 X53.355 Y91.136 E0.02365
G1 X53.355 Y88.123 E0.09449
G1 X54.109 Y88.123 E0.02365
G1 X54.109 Y91.136 E0.09449
G1 X54.586 Y91.136 E0.01497
G1 X54.586 Y88.838 E0.07206
G1 X54.806 Y88.600 E0.01015
G1 X54.863 Y88.596 E0.00179
G1 X54.863 Y88.123 E0.01483
G1 X55.617 Y88.123 E0.02365
G1 X55.617 Y88.707 E0.01831
G1 F8640.000
G1 X55.617 Y88.123 E-0.13484
G1 X54.863 Y88.123 E-0.17414
G1 X54.863 Y88.596 E-0.10924
G1 X54.806 Y88.600 E-0.01321
G1 X54.586 Y88.838 E-0.07475
G1 X54.586 Y89.937 E-0.25383
G1 E-0.04000 F2100.00000
G1 Z0.600 F10800.000
G1 X54.109 Y98.869
G1 Z0.200
G1 E0.80000 F2100.00000
G1 F1200.000
G1 X54.109 Y94.364 E0.14126
G1 X53.355 Y94.364 E0.02365
G1 X53.355 Y98.699 E0.13594
G1 X52.601 Y98.699 E0.02365
G1 X52.601 Y94.364 E0.13594
G1 X51.847 Y94.364 E0.02365
G1 X51.847 Y98.699 E0.13594
G1 X51.092 Y98.699 E0.02365
G1 X51.092 Y94.364 E0.13594
G1 X50.338 Y94.364 E0.02365
G1 X50.338 Y98.699 E0.13594
G1 X49.584 Y98.699 E0.02365
G1 X49.584 Y94.364 E0.13594
G1 X48.830 Y94.364 E0.02365
G1 X48.830 Y98.699 E0.13594
G1 X48.076 Y98.699 E0.02365
G1 X48.076 Y94.364 E0.13594
G1 X47.322 Y94.364 E0.02365
G1 X47.322 Y98.699 E0.13594
G1 X46.567 Y98.699 E0.02365
G1 X46.567 Y94.364 E0.13594
G1 X45.813 Y94.364 E0.02365
G1 X45.813 Y98.869 E0.14126
G1 F8640.000
G1 X45.813 Y95.577 E-0.76000
G1 E-0.04000 F2100.00000
G1 Z0.600 F10800.000
G1 X54.109 Y142.006
G1 Z0.200
G1 E0.80000 F2100.00000
G1 F1200.000
G1 X54.109 Y139.115 E0.09066
G1 X53.355 Y139.115 E0.02365
G1 X53.355 Y141.836 E0.08534
G1 X52.601 Y141.836 E0.02365
G1 X52.601 Y139.115 E0.08534
G1 X51.847 Y139.115 E0.02365
G1 X51.847 Y141.836 E0.08534
G1 X51.092 Y141.836 E0.02365
G1 X51.092 Y139.115 E0.08534
G1 X50.338 Y139.115 E0.02365
G1 X50.338 Y141.836 E0.08534
G1 X49.584 Y141.836 E0.02365
G1 X49.584 Y139.115 E0.08534
G1 X48.830 Y139.115 E0.02365
G1 X48.830 Y141.836 E0.08534
G1 X48.076 Y141.836 E0.02365
G1 X48.076 Y139.115 E0.08534
G1 X47.322 Y139.115 E0.02365
G1 X47.322 Y141.836 E0.08534
G1 X46.567 Y141.836 E0.02365
G1 X46.567 Y139.115 E0.08534
G1 X45.813 Y139.115 E0.02365
G1 X45.813 Y142.006 E0.09066
G1 F8640.000
G1 X45.813 Y139.115 E-0.66766
G1 X46.213 Y139.115 E-0.09234
G1 E-0.04000 F2100.00000
G1 Z0.600 F10800.000
G1 X45.813 Y149.861
G1 Z0.200
G1 E0.80000 F2100.00000
G1 F1200.000
G1 X45.813 Y145.114 E0.14884
G1 X46.567 Y145.114 E0.02365
G1 X46.567 Y149.691 E0.14352
G1 X47.322 Y149.691 E0.02365
G1 X47.322 Y145.114 E0.14352
G1 X48.076 Y145.114 E0.02365
G1 X48.076 Y149.691 E0.14352
G1 X48.830 Y149.691 E0.02365
G1 X48.830 Y145.114 E0.14352
G1 X49.584 Y145.114 E0.02365
G1 X49.584 Y149.691 E0.14352
G1 X50.338 Y149.691 E0.02365
G1 X50.338 Y145.114 E0.14352
G1 X51.092 Y145.114 E0.02365
G1 X51.092 Y149.691 E0.14352
G1 X51.847 Y149.691 E0.02365
G1 X51.847 Y145.114 E0.14352
G1 X52.601 Y145.114 E0.02365
G1 X52.601 Y149.691 E0.14352
G1 X53.355 Y149.691 E0.02365
G1 X53.355 Y145.114 E0.14352
G1 X54.109 Y145.114 E0.02365
G1 X54.109 Y149.691 E0.14352
G1 X54.863 Y149.691 E0.02365
G1 X54.863 Y146.414 E0.10276
G1 X55.617 Y146.414 E0.02365
G1 X55.617 Y149.861 E0.10808
G1 F8640.000
G1 X55.617 Y146.569 E-0.76000
G1 E-0.04000 F2100.00000
G1 Z0.600 F10800.000
G1 X192.120 Y149.861
G1 Z0.200
G1 E0.80000 F2100.00000
G1 F1200.000
G1 X192.120 Y146.414 E0.10808
G1 X192.874 Y146.414 E0.02365
G1 X192.874 Y149.691 E0.10276
G1 X193.628 Y149.691 E0.02365
G1 X193.628 Y146.414 E0.10276
G1 X194.383 Y146.414 E0.02365
G1 X194.383 Y149.691 E0.10276
G1 X195.137 Y149.691 E0.02365
G1 X195.137 Y146.414 E0.10276
G1 X195.891 Y146.414 E0.02365
G1 X195.891 Y149.691 E0.10276
G1 X196.645 Y149.691 E0.02365
G1 X196.645 Y146.414 E0.10276
G1 X197.399 Y146.414 E0.02365
G1 X197.399 Y149.691 E0.10276
G1 X198.153 Y149.691 E0.02365
G1 X198.153 Y146.414 E0.10276
G1 X198.908 Y146.414 E0.02365
G1 X198.908 Y149.691 E0.10276
G1 X199.662 Y149.691 E0.02365
G1 X199.662 Y146.414 E0.10276
G1 X200.416 Y146.414 E0.02365
G1 X200.416 Y149.691 E0.10276
G1 X201.170 Y149.691 E0.02365
G1 X201.170 Y146.414 E0.10276
G1 X201.924 Y146.414 E0.02365
G1 X201.924 Y149.861 E0.10808
G1 F8640.000
G1 X201.924 Y146.569 E-0.76000
G1 E-0.04000 F2100.00000
G1 Z0.600 F10800.000
G1 X208.712 Y142.907
G1 Z0.200
G1 E0.80000 F2100.00000
G1 F1200.000
G1 X208.712 Y134.479 E0.26426
G1 X207.957 Y134.479 E0.02365
G1 X207.957 Y142.737 E0.25894
G1 X207.203 Y142.737 E0.02365
G1 X207.203 Y134.479 E0.25894
G1 X206.449 Y134.479 E0.02365
G1 X206.449 Y142.737 E0.25894
G1 X205.695 Y142.737 E0.02365
G1 X205.695 Y134.309 E0.26426
G1 F8640.000
G1 X205.695 Y137.601 E-0.76000
G1 E-0.04000 F2100.00000
G1 Z0.600 F10800.000
G1 X208.712 Y73.373
G1 Z0.200
G1 E0.80000 F2100.00000
G1 F1200.000
G1 X208.712 Y62.627 E0.33693
G1 X207.957 Y62.627 E0.02365
G1 X207.957 Y73.203 E0.33161
G1 X207.203 Y73.203 E0.02365
G1 X207.203 Y62.627 E0.33161
G1 X206.449 Y62.627 E0.02365
G1 X206.449 Y73.203 E0.33161
G1 X205.695 Y73.203 E0.02365
G1 X205.695 Y62.627 E0.33161
G1 X204.941 Y62.627 E0.02365
G1 X204.941 Y63.586 E0.03009
G1 X204.187 Y63.586 E0.02365
G1 X204.187 Y62.627 E0.03009
G1 X203.433 Y62.627 E0.02365
G1 X203.433 Y63.586 E0.03009
G1 X202.678 Y63.586 E0.02365
G1 X202.678 Y62.457 E0.03541
G1 F8640.000
G1 X202.678 Y63.586 E-0.26074
G1 X203.433 Y63.586 E-0.17414
G1 X203.433 Y62.627 E-0.22156
G1 X203.881 Y62.627 E-0.10357
G1 E-0.04000 F2100.00000
G1 Z0.600 F10800.000
G1 X55.787 Y143.913
G1 Z0.200
G1 E0.80000 F2100.00000
G1 F1200.000
G1 X45.787 Y143.913 E0.31354
G1 X45.787 Y143.037 E0.02746
G1 X55.787 Y143.037 E0.31354
G1 X55.787 Y93.163 E1.56377
M73 Q0 S164
G1 X45.787 Y93.163 E0.31354
G1 X45.787 Y92.337 E0.02589
G1 X55.787 Y92.337 E0.31354
G1 X55.787 Y89.728 E0.08182
G1 X59.034 Y89.472 E0.10213
G1 X62.969 Y88.527 E0.12689
G1 X66.708 Y86.979 E0.12689
M73 P0 R161
G1 X70.159 Y84.864 E0.12689
G1 X73.236 Y82.236 E0.12689
G1 X75.864 Y79.159 E0.12689
G1 X77.979 Y75.708 E0.12689
G1 X79.527 Y71.969 E0.12689
G1 X80.472 Y68.034 E0.12689
G1 X80.728 Y64.787 E0.10213
G1 X204.213 Y64.787 E3.87180
G1 X204.213 Y145.213 E2.52170
G1 X55.787 Y145.213 E4.65379
G1 X55.787 Y143.973 E0.03888
G1 X55.410 Y144.290 F10800.000
G1 F1200.000
G1 X45.410 Y144.290 E0.31354
G1 X45.410 Y142.660 E0.05111
G1 X55.410 Y142.660 E0.31354
G1 X55.410 Y93.540 E1.54012
G1 X45.410 Y93.540 E0.31354
G1 X45.410 Y91.960 E0.04954
G1 X55.410 Y91.960 E0.31354
G1 X55.410 Y89.379 E0.08093
G1 X58.975 Y89.098 E0.11213
G1 X62.853 Y88.168 E0.12503
G1 X66.536 Y86.642 E0.12503
G1 X69.936 Y84.558 E0.12502
G1 X72.968 Y81.968 E0.12502
G1 X75.558 Y78.936 E0.12503
G1 X77.642 Y75.536 E0.12502
G1 X79.168 Y71.853 E0.12502
G1 X80.098 Y67.975 E0.12503
G1 X80.379 Y64.410 E0.11213
G1 X204.590 Y64.410 E3.89455
G1 X204.590 Y145.590 E2.54534
G1 X55.410 Y145.590 E4.67743
G1 X55.410 Y144.350 E0.03888
G1 X55.211 Y143.943 F10800.000
G1 F8640.000
G1 X52.119 Y144.330 E-0.76000
G1 E-0.04000 F2100.00000
G1 Z0.600 F10800.000
G1 X56.511 Y145.100
G1 Z0.200
G1 E0.80000 F2100.00000
G1 F1200.000
G1 X56.070 Y144.659 E0.01958
G1 X56.070 Y144.125 E0.01678
G1 X57.045 Y145.100 E0.04331
G1 F8640.000
G1 X56.070 Y144.125 E-0.31838
G1 X56.070 Y144.659 E-0.12334
G1 X56.511 Y145.100 E-0.14394
G1 E-0.21434 F2100.00000
G1 Z0.600 F10800.000
G1 X46.014 Y143.150
G1 Z0.200
G1 E0.80000 F2100.00000
G1 F1200.000
G1 X46.494 Y143.630 E0.02132
G1 X47.028 Y143.630 E0.01678
G1 X46.718 Y143.320 E0.01378
G1 X47.252 Y143.320 E0.01678
G1 X47.563 Y143.630 E0.01378
G1 X48.097 Y143.630 E0.01678
G1 X47.786 Y143.320 E0.01378
G1 X48.321 Y143.320 E0.01678
G1 X48.631 Y143.630 E0.01378
G1 X49.165 Y143.630 E0.01678
G1 X48.855 Y143.320 E0.01378
G1 X49.389 Y143.320 E0.01678
G1 X49.699 Y143.630 E0.01378
G1 X50.233 Y143.630 E0.01678
G1 X49.923 Y143.320 E0.01378
G1 X50.457 Y143.320 E0.01678
G1 X50.768 Y143.630 E0.01378
G1 X51.302 Y143.630 E0.01678
G1 X50.992 Y143.320 E0.01378
G1 X51.526 Y143.320 E0.01678
G1 X51.836 Y143.630 E0.01378
G1 X52.370 Y143.630 E0.01678
G1 X52.060 Y143.320 E0.01378
G1 X52.594 Y143.320 E0.01678
G1 X52.904 Y143.630 E0.01378
G1 X53.438 Y143.630 E0.01678
G1 X53.128 Y143.320 E0.01378
G1 X53.662 Y143.320 E0.01678
G1 X53.973 Y143.630 E0.01378
G1 X54.507 Y143.630 E0.01678
G1 X54.197 Y143.320 E0.01378
G1 X54.731 Y143.320 E0.01678
G1 X55.041 Y143.630 E0.01378
G1 X55.575 Y143.630 E0.01678
G1 X55.265 Y143.320 E0.01378
G1 X55.799 Y143.320 E0.01678
G1 X57.409 Y144.930 E0.07152
G1 X57.944 Y144.930 E0.01678
G1 X56.070 Y143.056 E0.08322
G1 X56.070 Y142.522 E0.01678
G1 X58.478 Y144.930 E0.10695
G1 X59.012 Y144.930 E0.01678
G1 X56.070 Y141.988 E0.13067
G1 X56.070 Y141.454 E0.01678
G1 X59.546 Y144.930 E0.15440
G1 X60.080 Y144.930 E0.01678
G1 X56.070 Y140.920 E0.17813
G1 X56.070 Y140.386 E0.01678
G1 X60.614 Y144.930 E0.20185
G1 X61.149 Y144.930 E0.01678
G1 X56.070 Y139.851 E0.22558
G1 X56.070 Y139.317 E0.01678
G1 X61.683 Y144.930 E0.24931
G1 X62.217 Y144.930 E0.01678
G1 X56.070 Y138.783 E0.27303
G1 X56.070 Y138.249 E0.01678
G1 X62.751 Y144.930 E0.29676
G1 X63.285 Y144.930 E0.01678
G1 X56.070 Y137.715 E0.32049
G1 X56.070 Y137.181 E0.01678
G1 X63.819 Y144.930 E0.34421
G1 X64.354 Y144.930 E0.01678
G1 X56.070 Y136.646 E0.36794
G1 X56.070 Y136.112 E0.01678
G1 X64.888 Y144.930 E0.39167
G1 X65.422 Y144.930 E0.01678
G1 X56.070 Y135.578 E0.41539
G1 X56.070 Y135.044 E0.01678
G1 X65.956 Y144.930 E0.43912
G1 X66.490 Y144.930 E0.01678
G1 X56.070 Y134.510 E0.46285
G1 X56.070 Y133.975 E0.01678
G1 X67.025 Y144.930 E0.48657
G1 X67.559 Y144.930 E0.01678
G1 X56.070 Y133.441 E0.51030
G1 X56.070 Y132.907 E0.01678
G1 X68.093 Y144.930 E0.53403
G1 X68.627 Y144.930 E0.01678
G1 X56.070 Y132.373 E0.55775
G1 X56.070 Y131.839 E0.01678
G1 X69.161 Y144.930 E0.58148
M73 Q1 S163
G1 X69.695 Y144.930 E0.01678
G1 X56.070 Y131.305 E0.60521
G1 X56.070 Y130.770 E0.01678
G1 X70.230 Y144.930 E0.62893
M73 P1 R160
G1 X70.764 Y144.930 E0.01678
G1 X56.070 Y130.236 E0.65266
G1 X56.070 Y129.702 E0.01678
G1 X71.298 Y144.930 E0.67638
G1 X71.832 Y144.930 E0.01678
G1 X56.070 Y129.168 E0.70011
G1 X56.070 Y128.634 E0.01678
G1 X72.366 Y144.930 E0.72384
G1 X72.900 Y144.930 E0.01678
G1 X56.070 Y128.100 E0.74756
G1 X56.070 Y127.565 E0.01678
G1 X73.435 Y144.930 E0.77129
G1 X73.969 Y144.930 E0.01678
G1 X56.070 Y127.031 E0.79502
G1 X56.070 Y126.497 E0.01678
G1 X74.503 Y144.930 E0.81874
G1 X75.037 Y144.930 E0.01678
G1 X56.070 Y125.963 E0.84247
G1 X56.070 Y125.429 E0.01678
G1 X75.571 Y144.930 E0.86620
G1 X76.106 Y144.930 E0.01678
G1 X56.070 Y124.894 E0.88992
G1 X56.070 Y124.360 E0.01678
G1 X76.640 Y144.930 E0.91365
G1 X77.174 Y144.930 E0.01678
G1 X56.070 Y123.826 E0.93738
G1 X56.070 Y123.292 E0.01678
G1 X77.708 Y144.930 E0.96110
G1 X78.242 Y144.930 E0.01678
G1 X56.070 Y122.758 E0.98483
G1 X56.070 Y122.224 E0.01678
G1 X78.776 Y144.930 E1.00856
G1 X79.311 Y144.930 E0.01678
G1 X56.070 Y121.689 E1.03228
G1 X56.070 Y121.155 E0.01678
G1 X79.845 Y144.930 E1.05601
G1 X80.379 Y144.930 E0.01678
G1 X56.070 Y120.621 E1.07974
G1 X56.070 Y120.087 E0.01678
G1 X80.913 Y144.930 E1.10346
G1 X81.447 Y144.930 E0.01678
G1 X56.070 Y119.553 E1.12719
G1 X56.070 Y119.019 E0.01678
G1 X81.981 Y144.930 E1.15091
G1 X82.516 Y144.930 E0.01678
G1 X56.070 Y118.484 E1.17464
G1 X56.070 Y117.950 E0.01678
G1 X83.050 Y144.930 E1.19837
G1 X83.584 Y144.930 E0.01678
G1 X56.070 Y117.416 E1.22209
G1 X56.070 Y116.882 E0.01678
G1 X84.118 Y144.930 E1.24582
G1 X84.652 Y144.930 E0.01678
G1 X56.070 Y116.348 E1.26955
G1 X56.070 Y115.813 E0.01678
G1 X85.187 Y144.930 E1.29327
G1 X85.721 Y144.930 E0.01678
G1 X56.070 Y115.279 E1.31700
G1 X56.070 Y114.745 E0.01678
G1 X86.255 Y144.930 E1.34073
G1 X86.789 Y144.930 E0.01678
G1 X56.070 Y114.211 E1.36445
G1 X56.070 Y113.677 E0.01678
G1 X87.323 Y144.930 E1.38818
G1 X87.857 Y144.930 E0.01678
G1 X56.070 Y113.143 E1.41191
G1 X56.070 Y112.608 E0.01678
G1 X88.392 Y144.930 E1.43563
G1 X88.926 Y144.930 E0.01678
G1 X56.070 Y112.074 E1.45936
M73 Q1 S162
M73 P1 R159
G1 X56.070 Y111.540 E0.01678
G1 X89.460 Y144.930 E1.48309
G1 X89.994 Y144.930 E0.01678
G1 X56.070 Y111.006 E1.50681
G1 X56.070 Y110.472 E0.01678
G1 X90.528 Y144.930 E1.53054
G1 X91.062 Y144.930 E0.01678
G1 X56.070 Y109.938 E1.55427
G1 X56.070 Y109.403 E0.01678
G1 X91.597 Y144.930 E1.57799
G1 X92.131 Y144.930 E0.01678
G1 X56.070 Y108.869 E1.60172
G1 X56.070 Y108.335 E0.01678
G1 X92.665 Y144.930 E1.62545
G1 X93.199 Y144.930 E0.01678
G1 X56.070 Y107.801 E1.64917
G1 X56.070 Y107.267 E0.01678
G1 X93.733 Y144.930 E1.67290
G1 X94.268 Y144.930 E0.01678
G1 X56.070 Y106.732 E1.69662
G1 X56.070 Y106.198 E0.01678
G1 X94.802 Y144.930 E1.72035
G1 X95.336 Y144.930 E0.01678
G1 X56.070 Y105.664 E1.74408
G1 X56.070 Y105.130 E0.01678
G1 X95.870 Y144.930 E1.76780
G1 X96.404 Y144.930 E0.01678
G1 X56.070 Y104.596 E1.79153
G1 X56.070 Y104.062 E0.01678
G1 X96.938 Y144.930 E1.81526
G1 X97.473 Y144.930 E0.01678
G1 X56.070 Y103.527 E1.83898
G1 X56.070 Y102.993 E0.01678
