; generated by PrusaSlicer 2.2.0+win64 on 2023-01-07 at 17:53:25 UTC

; 

; external perimeters extrusion width = 0.45mm
; perimeters extrusion width = 0.45mm
; infill extrusion width = 0.45mm
; solid infill extrusion width = 0.45mm
; top infill extrusion width = 0.40mm
; support material extrusion width = 0.35mm
; first layer extrusion width = 0.42mm

M73 P0 R162
M73 Q0 S165
M201 X1000 Y1000 Z200 E5000 ; sets maximum accelerations, mm/sec^2
M203 X200 Y200 Z12 E120 ; sets maximum feedrates, mm/sec
M204 P1250 R1250 T1250 ; sets acceleration (P, T) and retract acceleration (R), mm/sec^2
M205 X8.00 Y8.00 Z0.40 E4.50 ; sets the jerk limits, mm/sec
M205 S0 T0 ; sets the minimum extruding and travel feed rate, mm/sec
M107
M862.3 P "MK3S" ; printer model check
M862.1 P0.4 ; nozzle diameter check
M115 U3.11.0 ; tell printer latest fw version
G90 ; use absolute coordinates
M83 ; extruder relative mode
M104 S220 ; set extruder temp
M140 S80 ; set bed temp
M190 S80 ; wait for bed temp
M109 S220 ; wait for extruder temp
G28 W ; home all without mesh bed level
G80 ; mesh bed leveling
G1 Y-3.0 F1000.0 ; go outside print area
G92 E0.0
G1 X60.0 E9.0 F1000.0 ; intro line
M73 Q0 S165
M73 P0 R162
G1 X100.0 E12.5 F1000.0 ; intro line
G92 E0.0
M221 S95

; Don't change E values below. Excessive value can damage the printer.
M907 E430 ; set extruder motor current
G21 ; set units to millimeters
G90 ; use absolute coordinates
M83 ; use relative distances for extrusion
M900 K0.05 ; Filament gcode LA 1.5
M900 K30 ; Filament gcode LA 1.0
;BEFORE_LAYER_CHANGE
G92 E0.0
;0.2


G1 E-0.80000 F2100.00000
G1 Z0.400 F10800.000
;AFTER_LAYER_CHANGE
;0.2
G1 X44.909 Y58.111
G1 Z0.200
G1 E0.80000 F2100.00000
M204 S1000
G1 F1200.000
G1 X45.808 Y57.932 E0.02872
G1 X201.924 Y57.932 E4.89492
G1 X202.834 Y58.113 E0.02907
G1 X203.602 Y58.625 E0.02896
G1 X210.491 Y65.686 E0.30929
G1 X210.897 Y66.326 E0.02378
G1 X211.080 Y67.062 E0.02378
G1 X211.088 Y147.585 E2.52472
G1 X210.977 Y148.263 E0.02154
G1 X210.674 Y148.884 E0.02166
G1 X210.206 Y149.391 E0.02166
G1 X209.615 Y149.741 E0.02154
G1 X208.686 Y149.920 E0.02966
G1 X79.623 Y148.347 E4.04699
G1 X79.110 Y148.204 E0.01668
G1 X78.645 Y147.953 E0.01657
G1 X44.443 Y123.989 E1.30941
G1 X43.954 Y123.528 E0.02107
G1 X43.614 Y122.949 E0.02107
G1 X42.623 Y118.491 E0.14318
G1 X42.623 Y65.250 E1.66932
G1 X43.550 Y59.583 E0.18007
G1 X43.761 Y59.111 E0.01621
G1 X44.066 Y58.698 E0.01609
G1 X44.455 Y58.358 E0.01621
G1 X44.857 Y58.139 E0.01433
; printing object body middle front right.STL id:0 copy 0
G1 F8640.000
G1 X45.808 Y57.932 E-0.22477
G1 X48.126 Y57.932 E-0.53523
G1 E-0.04000 F2100.00000
G1 Z0.600 F10800.000
G1 X45.813 Y65.056
G1 Z0.200
G1 E0.80000 F2100.00000
G1 F1200.000
G1 X45.813 Y60.309 E0.14884
G1 X46.567 Y60.309 E0.02365
G1 X46.567 Y64.886 E0.14352
G1 X47.322 Y64.886 E0.02365
G1 X47.322 Y60.309 E0.14352
G1 X48.076 Y60.309 E0.02365
G1 X48.076 Y64.886 E0.14352
G1 X48.830 Y64.886 E0.02365
G1 X48.830 Y60.309 E0.14352
G1 X49.584 Y60.309 E0.02365
G1 X49.584 Y64.886 E0.14352
G1 X50.338 Y64.886 E0.02365
G1 X50.338 Y60.309 E0.14352
G1 X51.092 Y60.309 E0.02365
G1 X51.092 Y64.886 E0.14352
G1 X51.847 Y64.886 E0.02365
G1 X51.847 Y60.309 E0.14352
G1 X52.601 Y60.309 E0.02365
G1 X52.601 Y64.886 E0.14352
G1 X53.355 Y64.886 E0.02365
G1 X53.355 Y60.309 E0.14352
G1 X54.109 Y60.309 E0.02365
G1 X54.109 Y64.886 E0.14352
G1 X54.586 Y64.886 E0.01497
G1 X54.586 Y63.829 E0.03317
G1 X54.829 Y63.586 E0.01074
G1 X54.863 Y63.586 E0.00108
G1 X54.863 Y60.309 E0.10276
G1 X55.617 Y60.309 E0.02365
G1 X55.617 Y63.756 E0.10808
G1 F8640.000
G1 X55.617 Y60.465 E-0.76000
G1 E-0.04000 F2100.00000
G1 Z0.600 F10800.000
G1 X54.109 Y71.055
G1 Z0.200
G1 E0.80000 F2100.00000
G1 F1200.000
G1 X54.109 Y68.164 E0.09066
G1 X53.355 Y68.164 E0.02365
G1 X53.355 Y70.885 E0.08534
G1 X52.601 Y70.885 E0.02365
G1 X52.601 Y68.164 E0.08534
G1 X51.847 Y68.164 E0.02365
G1 X51.847 Y70.885 E0.08534
G1 X51.092 Y70.885 E0.02365
G1 X51.092 Y68.164 E0.08534
G1 X50.338 Y68.164 E0.02365
G1 X50.338 Y70.885 E0.08534
G1 X49.584 Y70.885 E0.02365
G1 X49.584 Y68.164 E0.08534
G1 X48.830 Y68.164 E0.02365
G1 X48.830 Y70.885 E0.08534
G1 X48.076 Y70.885 E0.02365
G1 X48.076 Y68.164 E0.08534
G1 X47.322 Y68.164 E0.02365
G1 X47.322 Y70.885 E0.08534
G1 X46.567 Y70.885 E0.02365
G1 X46.567 Y68.164 E0.08534
G1 X45.813 Y68.164 E0.02365
G1 X45.813 Y71.055 E0.09066
G1 F8640.000
G1 X45.813 Y68.164 E-0.66765
G1 X46.213 Y68.164 E-0.09235
G1 E-0.04000 F2100.00000
G1 Z0.600 F10800.000
G1 X54.109 Y115.806
G1 Z0.200
G1 E0.80000 F2100.00000
G1 F1200.000
G1 X54.109 Y111.301 E0.14126
G1 X53.355 Y111.301 E0.02365
G1 X53.355 Y115.636 E0.13594
G1 X52.601 Y115.636 E0.02365
G1 X52.601 Y111.301 E0.13594
G1 X51.847 Y111.301 E0.02365
G1 X51.847 Y115.636 E0.13594
G1 X51.092 Y115.636 E0.02365
G1 X51.092 Y111.301 E0.13594
G1 X50.338 Y111.301 E0.02365
G1 X50.338 Y115.636 E0.13594
G1 X49.584 Y115.636 E0.02365
G1 X49.584 Y111.301 E0.13594
G1 X48.830 Y111.301 E0.02365
G1 X48.830 Y115.636 E0.13594
G1 X48.076 Y115.636 E0.02365
G1 X48.076 Y111.301 E0.13594
G1 X47.322 Y111.301 E0.02365
G1 X47.322 Y115.636 E0.13594
G1 X46.567 Y115.636 E0.02365
G1 X46.567 Y111.301 E0.13594
G1 X45.813 Y111.301 E0.02365
G1 X45.813 Y115.806 E0.14126
G1 F8640.000
G1 X45.813 Y112.515 E-0.76000
G1 E-0.04000 F2100.00000
G1 Z0.600 F10800.000
G1 X45.813 Y122.047
G1 Z0.200
G1 E0.80000 F2100.00000
G1 F1200.000
G1 X45.813 Y118.864 E0.09981
G1 X46.567 Y118.864 E0.02365
G1 X46.567 Y121.877 E0.09449
G1 X47.322 Y121.877 E0.02365
G1 X47.322 Y118.864 E0.09449
G1 X48.076 Y118.864 E0.02365
G1 X48.076 Y121.877 E0.09449
G1 X48.830 Y121.877 E0.02365
G1 X48.830 Y118.864 E0.09449
G1 X49.584 Y118.864 E0.02365
G1 X49.584 Y121.877 E0.09449
G1 X50.338 Y121.877 E0.02365
G1 X50.338 Y118.864 E0.09449
G1 X51.092 Y118.864 E0.02365
G1 X51.092 Y121.877 E0.09449
G1 X51.847 Y121.877 E0.02365
G1 X51.847 Y118.864 E0.09449
G1 X52.601 Y118.864 E0.02365
G1 X52.601 Y121.877 E0.09449
G1 X53.355 Y121.877 E0.02365
G1 X53.355 Y118.864 E0.09449
G1 X54.109 Y118.864 E0.02365
G1 X54.109 Y121.877 E0.09449
G1 X54.863 Y121.877 E0.02365
G1 X54.863 Y121.404 E0.01483
G1 X55.617 Y121.463 E0.02372
G1 X55.617 Y122.047 E0.01829
G1 F8640.000
G1 X55.617 Y121.463 E-0.13471
G1 X54.863 Y121.404 E-0.17468
G1 X54.863 Y121.877 E-0.10924
G1 X54.109 Y121.877 E-0.17414
G1 X54.109 Y121.153 E-0.16724
G1 E-0.04000 F2100.00000
G1 Z0.600 F10800.000
G1 X192.120 Y63.756
G1 Z0.200
G1 E0.80000 F2100.00000
G1 F1200.000
G1 X192.120 Y60.309 E0.10808
G1 X192.874 Y60.309 E0.02365
G1 X192.874 Y63.586 E0.10276
G1 X193.628 Y63.586 E0.02365
G1 X193.628 Y60.309 E0.10276
G1 X194.383 Y60.309 E0.02365
G1 X194.383 Y63.586 E0.10276
G1 X195.137 Y63.586 E0.02365
G1 X195.137 Y60.309 E0.10276
G1 X195.891 Y60.309 E0.02365
G1 X195.891 Y63.586 E0.10276
G1 X196.645 Y63.586 E0.02365
G1 X196.645 Y60.309 E0.10276
G1 X197.399 Y60.309 E0.02365
G1 X197.399 Y63.586 E0.10276
G1 X198.153 Y63.586 E0.02365
G1 X198.153 Y60.309 E0.10276
G1 X198.908 Y60.309 E0.02365
G1 X198.908 Y63.586 E0.10276
G1 X199.662 Y63.586 E0.02365
G1 X199.662 Y60.309 E0.10276
G1 X200.416 Y60.309 E0.02365
G1 X200.416 Y63.586 E0.10276
G1 X201.170 Y63.586 E0.02365
G1 X201.170 Y60.309 E0.10276
G1 X201.924 Y60.309 E0.02365
G1 X201.924 Y63.756 E0.10808
G1 F8640.000
G1 X201.924 Y60.465 E-0.76000
G1 E-0.04000 F2100.00000
G1 Z0.600 F10800.000
G1 X205.695 Y67.093
G1 Z0.200
G1 E0.80000 F2100.00000
G1 F1200.000
G1 X205.695 Y75.521 E0.26426
G1 X206.449 Y75.521 E0.02365
G1 X206.449 Y67.263 E0.25894
G1 X207.203 Y67.263 E0.02365
G1 X207.203 Y75.521 E0.25894
G1 X207.957 Y75.521 E0.02365
G1 X207.957 Y67.263 E0.25894
G1 X208.712 Y67.263 E0.02365
G1 X208.712 Y75.691 E0.26426
G1 F8640.000
G1 X208.712 Y72.399 E-0.76000
G1 E-0.04000 F2100.00000
G1 Z0.600 F10800.000
G1 X202.678 Y146.244
G1 Z0.200
G1 E0.80000 F2100.00000
G1 F1200.000
G1 X202.678 Y147.373 E0.03540
G1 X203.433 Y147.373 E0.02365
G1 X203.433 Y146.414 E0.03008
G1 X204.187 Y146.414 E0.02365
G1 X204.187 Y147.373 E0.03008
G1 X204.941 Y147.373 E0.02365
G1 X204.941 Y146.414 E0.03008
G1 X205.171 Y146.414 E0.00723
G1 X205.414 Y146.171 E0.01074
G1 X205.414 Y136.797 E0.29393
G1 X205.695 Y136.797 E0.00883
G1 X205.695 Y147.373 E0.33161
G1 X206.449 Y147.373 E0.02365
G1 X206.449 Y136.797 E0.33161
G1 X207.203 Y136.797 E0.02365
G1 X207.203 Y147.373 E0.33161
G1 X207.957 Y147.373 E0.02365
G1 X207.957 Y136.797 E0.33161
G1 X208.712 Y136.797 E0.02365
G1 X208.712 Y147.543 E0.33693
G1 F8640.000
G1 X208.712 Y144.251 E-0.76000
G1 E-0.04000 F2100.00000
G1 Z0.600 F10800.000
G1 X204.213 Y145.213
G1 Z0.200
G1 E0.80000 F2100.00000
G1 F1200.000
G1 X80.728 Y145.213 E3.87180
M73 Q0 S164
M73 P0 R161
G1 X80.472 Y141.966 E0.10213
G1 X79.527 Y138.031 E0.12689
G1 X77.979 Y134.292 E0.12689
G1 X75.864 Y130.841 E0.12689
G1 X75.111 Y129.959 E0.03638
G1 X73.236 Y127.764 E0.09050
G1 X70.159 Y125.136 E0.12689
G1 X66.708 Y123.021 E0.12689
G1 X62.969 Y121.473 E0.12689
G1 X59.034 Y120.528 E0.12689
G1 X55.787 Y120.272 E0.10213
G1 X55.787 Y117.663 E0.08182
G1 X45.787 Y117.663 E0.31354
G1 X45.787 Y116.837 E0.02589
G1 X55.787 Y116.837 E0.31354
G1 X55.787 Y66.963 E1.56377
G1 X45.787 Y66.963 E0.31354
G1 X45.787 Y66.087 E0.02746
G1 X55.787 Y66.087 E0.31354
G1 X55.787 Y64.787 E0.04076
G1 X204.213 Y64.787 E4.65379
G1 X204.213 Y145.153 E2.51981
G1 F8640.000
G1 X200.921 Y145.155 E-0.76000
G1 E-0.04000 F2100.00000
G1 Z0.600 F10800.000
G1 X55.410 Y118.040
G1 Z0.200
G1 E0.80000 F2100.00000
G1 F1200.000
G1 X45.410 Y118.040 E0.31354
G1 X45.410 Y116.460 E0.04954
G1 X55.410 Y116.460 E0.31354
G1 X55.410 Y67.340 E1.54012
G1 X45.410 Y67.340 E0.31354
G1 X45.410 Y65.710 E0.05111
G1 X55.410 Y65.710 E0.31354
G1 X55.410 Y64.410 E0.04076
G1 X204.590 Y64.410 E4.67743
G1 X204.590 Y145.590 E2.54534
G1 X80.379 Y145.590 E3.89455
G1 X80.098 Y142.025 E0.11213
G1 X79.168 Y138.147 E0.12503
G1 X77.642 Y134.464 E0.12503
G1 X75.558 Y131.064 E0.12502
G1 X72.968 Y128.032 E0.12503
G1 X69.936 Y125.442 E0.12502
G1 X66.536 Y123.358 E0.12502
G1 X62.853 Y121.832 E0.12503
G1 X58.975 Y120.902 E0.12503
G1 X55.410 Y120.621 E0.11213
G1 X55.410 Y118.100 E0.07904
G1 X55.292 Y117.658 F10800.000
G1 F8640.000
G1 X52.119 Y118.080 E-0.76000
G1 E-0.04000 F2100.00000
G1 Z0.600 F10800.000
G1 X56.831 Y120.241
G1 Z0.200
G1 E0.80000 F2100.00000
G1 F1200.000
G1 X56.070 Y119.480 E0.03378
G1 X56.070 Y118.946 E0.01677
G1 X57.226 Y120.102 E0.05131
G1 X57.805 Y120.148 E0.01825
G1 X56.070 Y118.412 E0.07705
G1 X56.070 Y117.878 E0.01677
G1 X58.570 Y120.378 E0.11099
G1 F8640.000
G1 X56.242 Y118.051 E-0.76000
G1 E-0.04000 F2100.00000
G1 Z0.600 F10800.000
G1 X70.102 Y124.968
G1 Z0.200
G1 E0.80000 F2100.00000
G1 F1200.000
G1 X56.070 Y110.936 E0.62302
G1 X56.070 Y111.470 E0.01677
G1 X68.209 Y123.609 E0.53897
G1 X66.832 Y122.767 E0.05067
G1 X56.070 Y112.004 E0.47785
G1 X56.070 Y112.538 E0.01677
G1 X65.920 Y122.389 E0.43737
G1 X65.009 Y122.011 E0.03098
G1 X56.070 Y113.072 E0.39690
G1 X56.070 Y113.606 E0.01677
G1 X64.097 Y121.634 E0.35643
G1 X63.186 Y121.256 E0.03098
G1 X56.070 Y114.140 E0.31595
G1 X56.070 Y114.674 E0.01677
G1 X62.454 Y121.058 E0.28344
G1 X61.751 Y120.889 E0.02269
G1 X56.070 Y115.208 E0.25224
G1 X56.070 Y115.742 E0.01677
G1 X61.048 Y120.721 E0.22104
G1 X60.345 Y120.552 E0.02269
G1 X56.070 Y116.276 E0.18984
G1 X56.070 Y116.810 E0.01677
G1 X59.643 Y120.383 E0.15864
G1 X59.079 Y120.248 E0.01821
G1 X58.964 Y120.239 E0.00360
G1 X55.845 Y117.120 E0.13848
G1 X55.311 Y117.120 E0.01677
G1 X55.572 Y117.380 E0.01156
G1 X55.038 Y117.380 E0.01677
G1 X54.777 Y117.120 E0.01156
G1 X54.243 Y117.120 E0.01677
G1 X54.504 Y117.380 E0.01156
G1 X53.970 Y117.380 E0.01677
G1 X53.710 Y117.120 E0.01156
G1 X53.176 Y117.120 E0.01677
G1 X53.436 Y117.380 E0.01156
G1 X52.902 Y117.380 E0.01677
G1 X52.642 Y117.120 E0.01156
G1 X52.108 Y117.120 E0.01677
G1 X52.368 Y117.380 E0.01156
G1 X51.834 Y117.380 E0.01677
G1 X51.574 Y117.120 E0.01156
G1 X51.040 Y117.120 E0.01677
G1 X51.300 Y117.380 E0.01156
G1 X50.766 Y117.380 E0.01677
G1 X50.506 Y117.120 E0.01156
G1 X49.972 Y117.120 E0.01677
G1 X50.232 Y117.380 E0.01156
G1 X49.698 Y117.380 E0.01677
G1 X49.438 Y117.120 E0.01156
G1 X48.904 Y117.120 E0.01677
G1 X49.164 Y117.380 E0.01156
G1 X48.630 Y117.380 E0.01677
G1 X48.370 Y117.120 E0.01156
G1 X47.836 Y117.120 E0.01677
G1 X48.096 Y117.380 E0.01156
G1 X47.562 Y117.380 E0.01677
G1 X47.302 Y117.120 E0.01156
G1 X46.768 Y117.120 E0.01677
G1 X47.028 Y117.380 E0.01156
G1 X46.494 Y117.380 E0.01677
G1 X46.064 Y116.950 E0.01909
G1 F8640.000
G1 X46.494 Y117.380 E-0.14039
G1 X47.028 Y117.380 E-0.12330
G1 X46.768 Y117.120 E-0.08498
G1 X47.302 Y117.120 E-0.12330
G1 X47.562 Y117.380 E-0.08498
G1 X48.096 Y117.380 E-0.12330
G1 X47.852 Y117.136 E-0.07974
G1 E-0.04000 F2100.00000
G1 Z0.600 F10800.000
G1 X80.759 Y144.169
G1 Z0.200
G1 E0.80000 F2100.00000
G1 F1200.000
G1 X81.520 Y144.930 E0.03378
G1 X82.054 Y144.930 E0.01677
G1 X80.898 Y143.774 E0.05131
G1 X80.852 Y143.195 E0.01825
G1 X82.588 Y144.930 E0.07705
G1 X83.122 Y144.930 E0.01677
G1 X80.807 Y142.615 E0.10278
G1 X80.761 Y142.036 E0.01825
G1 X83.656 Y144.930 E0.12852
G1 X84.190 Y144.930 E0.01677
G1 X80.617 Y141.357 E0.15864
G1 X80.448 Y140.655 E0.02269
G1 X84.724 Y144.930 E0.18984
G1 X85.258 Y144.930 E0.01677
G1 X80.279 Y139.952 E0.22104
G1 X80.111 Y139.249 E0.02269
G1 X85.792 Y144.930 E0.25224
G1 X86.326 Y144.930 E0.01677
G1 X79.942 Y138.546 E0.28344
G1 X79.797 Y137.943 E0.01949
G1 X79.744 Y137.814 E0.00437
G1 X86.860 Y144.930 E0.31595
G1 X87.394 Y144.930 E0.01677
G1 X79.366 Y136.903 E0.35643
G1 X78.989 Y135.991 E0.03098
G1 X87.928 Y144.930 E0.39690
M73 Q1 S163
G1 X88.462 Y144.930 E0.01677
G1 X78.611 Y135.080 E0.43737
M73 P1 R160
G1 X78.233 Y134.168 E0.03098
G1 X88.996 Y144.930 E0.47785
G1 X89.530 Y144.930 E0.01677
G1 X77.391 Y132.791 E0.53897
G1 X76.546 Y131.412 E0.05078
G1 X90.064 Y144.930 E0.60020
G1 X90.598 Y144.930 E0.01677
G1 X56.070 Y110.402 E1.53306
G1 X56.070 Y109.868 E0.01677
G1 X91.131 Y144.930 E1.55677
G1 X91.665 Y144.930 E0.01677
G1 X56.070 Y109.335 E1.58048
G1 X56.070 Y108.801 E0.01677
G1 X92.199 Y144.930 E1.60419
G1 X92.733 Y144.930 E0.01677
G1 X56.070 Y108.267 E1.62790
G1 X56.070 Y107.733 E0.01677
G1 X93.267 Y144.930 E1.65161
G1 X93.801 Y144.930 E0.01677
G1 X56.070 Y107.199 E1.67532
G1 X56.070 Y106.665 E0.01677
G1 X94.335 Y144.930 E1.69903
G1 X94.869 Y144.930 E0.01677
G1 X56.070 Y106.131 E1.72274
G1 X56.070 Y105.597 E0.01677
G1 X95.403 Y144.930 E1.74645
G1 X95.937 Y144.930 E0.01677
G1 X56.070 Y105.063 E1.77016
G1 X56.070 Y104.529 E0.01677
G1 X96.471 Y144.930 E1.79387
G1 X97.005 Y144.930 E0.01677
G1 X56.070 Y103.995 E1.81758
G1 X56.070 Y103.461 E0.01677
G1 X97.539 Y144.930 E1.84129
G1 X98.073 Y144.930 E0.01677
G1 X56.070 Y102.927 E1.86500
G1 X56.070 Y102.393 E0.01677
G1 X98.607 Y144.930 E1.88871
G1 X99.141 Y144.930 E0.01677
G1 X56.070 Y101.859 E1.91242
G1 X56.070 Y101.325 E0.01677
G1 X99.675 Y144.930 E1.93613
G1 X100.209 Y144.930 E0.01677
G1 X56.070 Y100.791 E1.95984
G1 X56.070 Y100.257 E0.01677
G1 X100.743 Y144.930 E1.98355
M73 Q1 S162
G1 X101.277 Y144.930 E0.01677
G1 X56.070 Y99.723 E2.00726
M73 P1 R159
G1 X56.070 Y99.189 E0.01677
G1 X101.811 Y144.930 E2.03097
G1 X102.345 Y144.930 E0.01677
G1 X56.070 Y98.655 E2.05468
G1 X56.070 Y98.121 E0.01677
G1 X102.879 Y144.930 E2.07838
G1 X103.413 Y144.930 E0.01677
G1 X56.070 Y97.587 E2.10209
G1 X56.070 Y97.053 E0.01677
G1 X103.947 Y144.930 E2.12580
G1 X104.481 Y144.930 E0.01677
G1 X56.070 Y96.519 E2.14951
G1 X56.070 Y95.985 E0.01677
G1 X105.015 Y144.930 E2.17322
G1 X105.549 Y144.930 E0.01677
G1 X56.070 Y95.451 E2.19693
G1 X56.070 Y94.917 E0.01677
G1 X106.083 Y144.930 E2.22064
G1 X106.617 Y144.930 E0.01677
G1 X56.070 Y94.383 E2.24435
G1 X56.070 Y93.849 E0.01677
G1 X107.151 Y144.930 E2.26806
G1 X107.685 Y144.930 E0.01677
G1 X56.070 Y93.315 E2.29177
G1 X56.070 Y92.781 E0.01677
G1 X108.219 Y144.930 E2.31548
G1 X108.753 Y144.930 E0.01677
G1 X56.070 Y92.247 E2.33919
G1 X56.070 Y91.713 E0.01677
G1 X109.287 Y144.930 E2.36290
G1 X109.821 Y144.930 E0.01677
G1 X56.070 Y91.179 E2.38661
M73 Q2 S161
G1 X56.070 Y90.645 E0.01677
G1 X110.355 Y144.930 E2.41032
M73 P2 R158
G1 X110.889 Y144.930 E0.01677
