; generated by PrusaSlicer 2.2.0+win64 on 2023-01-05 at 14:01:49 UTC

; 

; external perimeters extrusion width = 0.45mm
; perimeters extrusion width = 0.45mm
; infill extrusion width = 0.45mm
; solid infill extrusion width = 0.45mm
; top infill extrusion width = 0.40mm
; support material extrusion width = 0.35mm
; first layer extrusion width = 0.42mm

M73 P0 R125
M73 Q0 S126
M201 X1000 Y1000 Z200 E5000 ; sets maximum accelerations, mm/sec^2
M203 X200 Y200 Z12 E120 ; sets maximum feedrates, mm/sec
M204 P1250 R1250 T1250 ; sets acceleration (P, T) and retract acceleration (R), mm/sec^2
M205 X8.00 Y8.00 Z0.40 E4.50 ; sets the jerk limits, mm/sec
M205 S0 T0 ; sets the minimum extruding and travel feed rate, mm/sec
M107
M862.3 P "MK3S" ; printer model check
M862.1 P0.4 ; nozzle diameter check
M115 U3.11.0 ; tell printer latest fw version
G90 ; use absolute coordinates
M83 ; extruder relative mode
M104 S220 ; set extruder temp
M140 S80 ; set bed temp
M190 S80 ; wait for bed temp
M109 S220 ; wait for extruder temp
G28 W ; home all without mesh bed level
G80 ; mesh bed leveling
G1 Y-3.0 F1000.0 ; go outside print area
G92 E0.0
G1 X60.0 E9.0 F1000.0 ; intro line
M73 Q0 S126
M73 P0 R125
G1 X100.0 E12.5 F1000.0 ; intro line
G92 E0.0
M221 S95

; Don't change E values below. Excessive value can damage the printer.
M907 E430 ; set extruder motor current
G21 ; set units to millimeters
G90 ; use absolute coordinates
M83 ; use relative distances for extrusion
M900 K0.05 ; Filament gcode LA 1.5
M900 K30 ; Filament gcode LA 1.0
;BEFORE_LAYER_CHANGE
G92 E0.0
;0.2


G1 E-0.80000 F2100.00000
G1 Z0.400 F10800.000
;AFTER_LAYER_CHANGE
;0.2
G1 X69.571 Y73.317
G1 Z0.200
G1 E0.80000 F2100.00000
M204 S1000
G1 F1200.000
G1 X70.056 Y72.944 E0.01917
G1 X70.628 Y72.706 E0.01941
G1 X71.241 Y72.623 E0.01941
G1 X178.754 Y72.623 E3.37098
G1 X179.652 Y72.801 E0.02872
G1 X180.417 Y73.305 E0.02872
G1 X180.934 Y74.062 E0.02872
G1 X181.127 Y74.957 E0.02872
G1 X181.127 Y135.046 E1.88404
G1 X181.037 Y135.647 E0.01906
G1 X180.799 Y136.206 E0.01906
G1 X180.426 Y136.686 E0.01906
G1 X179.944 Y137.056 E0.01906
G1 X179.372 Y137.294 E0.01941
G1 X178.759 Y137.377 E0.01941
G1 X71.231 Y137.377 E3.37146
G1 X70.625 Y137.293 E0.01917
G1 X70.057 Y137.056 E0.01929
G1 X69.570 Y136.681 E0.01929
G1 X69.194 Y136.194 E0.01929
G1 X68.956 Y135.622 E0.01941
G1 X68.873 Y135.013 E0.01929
G1 X68.873 Y74.970 E1.88261
G1 X68.960 Y74.364 E0.01917
G1 X69.198 Y73.801 E0.01917
G1 X69.535 Y73.364 E0.01729
; printing object L shoulder connector arm.STL id:0 copy 0
G1 F8640.000
G1 X70.056 Y72.944 E-0.15465
G1 X70.628 Y72.706 E-0.14295
G1 X71.241 Y72.623 E-0.14295
G1 X72.625 Y72.623 E-0.31945
G1 E-0.04000 F2100.00000
G1 Z0.600 F10800.000
G1 X90.309 Y111.131
G1 Z0.200
G1 E0.80000 F2100.00000
G1 F1200.000
G1 X90.309 Y121.877 E0.33693
G1 X91.063 Y121.877 E0.02365
G1 X91.063 Y111.301 E0.33161
G1 X91.817 Y111.301 E0.02365
G1 X91.817 Y121.877 E0.33161
G1 X92.571 Y121.877 E0.02365
G1 X92.571 Y111.301 E0.33161
G1 X93.325 Y111.301 E0.02365
G1 X93.325 Y121.877 E0.33161
G1 X93.336 Y114.829 E0.22100
G1 X93.579 Y114.586 E0.01074
G1 X94.079 Y114.586 E0.01570
G1 X94.079 Y111.301 E0.10302
G1 X94.834 Y111.301 E0.02365
G1 X94.834 Y114.586 E0.10302
G1 X95.588 Y114.586 E0.02365
G1 X95.588 Y111.301 E0.10302
G1 X96.342 Y111.301 E0.02365
G1 X96.342 Y114.586 E0.10302
G1 X97.096 Y114.586 E0.02365
G1 X97.096 Y111.301 E0.10302
G1 X97.850 Y111.301 E0.02365
G1 X97.850 Y114.586 E0.10302
G1 X98.421 Y114.586 E0.01790
G1 X98.604 Y114.770 E0.00812
G1 X98.604 Y111.301 E0.10876
G1 X99.359 Y111.301 E0.02365
G1 X99.359 Y121.877 E0.33161
G1 X100.113 Y121.877 E0.02365
G1 X100.113 Y111.301 E0.33161
G1 X100.867 Y111.301 E0.02365
G1 X100.867 Y121.877 E0.33161
G1 X101.621 Y121.877 E0.02365
G1 X101.621 Y111.301 E0.33161
G1 X102.375 Y111.301 E0.02365
G1 X102.375 Y122.047 E0.33693
G1 F8640.000
G1 X102.375 Y118.755 E-0.76000
G1 E-0.04000 F2100.00000
G1 Z0.600 F10800.000
G1 X159.691 Y96.551
G1 Z0.200
G1 E0.80000 F2100.00000
G1 F1200.000
G1 X159.691 Y83.487 E0.40960
G1 X160.445 Y83.487 E0.02365
G1 X160.445 Y96.381 E0.40428
G1 X161.200 Y96.381 E0.02365
G1 X161.200 Y83.487 E0.40428
G1 X161.954 Y83.487 E0.02365
G1 X161.954 Y96.381 E0.40428
G1 X162.708 Y96.381 E0.02365
G1 X162.708 Y83.487 E0.40428
G1 X163.462 Y83.487 E0.02365
G1 X163.462 Y96.381 E0.40428
G1 X164.216 Y96.381 E0.02365
G1 X164.216 Y83.487 E0.40428
G1 X164.970 Y83.487 E0.02365
G1 X164.970 Y96.381 E0.40428
G1 X165.725 Y96.381 E0.02365
G1 X165.725 Y83.487 E0.40428
G1 X166.479 Y83.487 E0.02365
G1 X166.479 Y96.381 E0.40428
G1 X167.233 Y96.381 E0.02365
G1 X167.233 Y83.487 E0.40428
G1 X167.987 Y83.487 E0.02365
G1 X167.987 Y96.551 E0.40960
G1 F8640.000
G1 X167.987 Y93.259 E-0.76000
G1 E-0.04000 F2100.00000
G1 Z0.600 F10800.000
G1 X80.463 Y115.787
G1 Z0.200
G1 E0.80000 F2100.00000
G1 F1200.000
G1 X84.963 Y115.787 E0.14109
G1 X84.963 Y125.787 E0.31354
G1 X94.537 Y125.787 E0.30019
G1 X94.537 Y115.787 E0.31354
G1 X97.463 Y115.787 E0.09174
G1 X97.463 Y125.787 E0.31354
G1 X107.037 Y125.787 E0.30019
G1 X107.037 Y115.787 E0.31354
G1 X169.537 Y115.787 E1.95964
G1 X169.537 Y75.787 E1.25417
G1 X177.963 Y75.787 E0.26419
G1 X177.963 Y134.213 E1.83190
G1 X72.037 Y134.213 E3.32123
G1 X72.037 Y75.787 E1.83190
M73 Q0 S125
G1 X80.463 Y75.787 E0.26419
G1 X80.463 Y115.727 E1.25229
M73 P0 R124
G1 X80.840 Y115.410 F10800.000
G1 F1200.000
G1 X85.340 Y115.410 E0.14109
G1 X85.340 Y125.410 E0.31354
G1 X94.160 Y125.410 E0.27654
G1 X94.160 Y115.410 E0.31354
G1 X97.840 Y115.410 E0.11538
G1 X97.840 Y125.410 E0.31354
G1 X106.660 Y125.410 E0.27654
G1 X106.660 Y115.410 E0.31354
G1 X169.160 Y115.410 E1.95964
G1 X169.160 Y75.410 E1.25417
G1 X178.340 Y75.410 E0.28783
G1 X178.340 Y134.590 E1.85555
G1 X71.660 Y134.590 E3.34488
G1 X71.660 Y75.410 E1.85555
G1 X80.840 Y75.410 E0.28783
G1 X80.840 Y115.350 E1.25229
G1 X80.870 Y115.809 F10800.000
G1 F8640.000
G1 X84.131 Y115.394 E-0.76000
G1 E-0.04000 F2100.00000
G1 Z0.600 F10800.000
G1 X84.850 Y116.659
G1 Z0.200
G1 E0.80000 F2100.00000
G1 F1200.000
G1 X84.260 Y116.070 E0.02618
G1 X83.726 Y116.070 E0.01677
G1 X84.680 Y117.024 E0.04236
G1 X84.680 Y117.558 E0.01677
G1 X83.192 Y116.070 E0.06608
G1 X82.658 Y116.070 E0.01677
G1 X84.680 Y118.092 E0.08981
G1 X84.680 Y118.626 E0.01677
G1 X82.124 Y116.070 E0.11353
G1 X81.590 Y116.070 E0.01677
G1 X84.680 Y119.160 E0.13725
G1 X84.680 Y119.694 E0.01677
G1 X81.056 Y116.070 E0.16097
G1 X80.522 Y116.070 E0.01677
G1 X84.680 Y120.228 E0.18469
G1 X84.680 Y120.763 E0.01677
G1 X72.320 Y108.402 E0.54894
G1 X72.320 Y107.868 E0.01677
G1 X80.180 Y115.728 E0.34909
G1 X80.180 Y115.194 E0.01677
G1 X72.320 Y107.334 E0.34909
G1 X72.320 Y106.800 E0.01677
G1 X80.180 Y114.660 E0.34909
G1 X80.180 Y114.126 E0.01677
G1 X72.320 Y106.266 E0.34909
G1 X72.320 Y105.732 E0.01677
G1 X80.180 Y113.592 E0.34909
G1 X80.180 Y113.058 E0.01677
G1 X72.320 Y105.198 E0.34909
G1 X72.320 Y104.664 E0.01677
G1 X80.180 Y112.524 E0.34909
G1 X80.180 Y111.990 E0.01677
G1 X72.320 Y104.129 E0.34909
G1 X72.320 Y103.595 E0.01677
G1 X80.180 Y111.455 E0.34909
G1 X80.180 Y110.921 E0.01677
G1 X72.320 Y103.061 E0.34909
G1 X72.320 Y102.527 E0.01677
G1 X80.180 Y110.387 E0.34909
G1 X80.180 Y109.853 E0.01677
G1 X72.320 Y101.993 E0.34909
G1 X72.320 Y101.459 E0.01677
G1 X80.180 Y109.319 E0.34909
G1 X80.180 Y108.785 E0.01677
G1 X72.320 Y100.925 E0.34909
G1 X72.320 Y100.391 E0.01677
G1 X80.180 Y108.251 E0.34909
G1 X80.180 Y107.717 E0.01677
G1 X72.320 Y99.856 E0.34909
G1 X72.320 Y99.322 E0.01677
G1 X80.180 Y107.183 E0.34909
G1 X80.180 Y106.648 E0.01677
G1 X72.320 Y98.788 E0.34909
G1 X72.320 Y98.254 E0.01677
G1 X80.180 Y106.114 E0.34909
G1 X80.180 Y105.580 E0.01677
G1 X72.320 Y97.720 E0.34909
G1 X72.320 Y97.186 E0.01677
G1 X80.180 Y105.046 E0.34909
G1 X80.180 Y104.512 E0.01677
G1 X72.320 Y96.652 E0.34909
G1 X72.320 Y96.118 E0.01677
G1 X80.180 Y103.978 E0.34909
G1 X80.180 Y103.444 E0.01677
G1 X72.320 Y95.583 E0.34909
G1 X72.320 Y95.049 E0.01677
G1 X80.180 Y102.910 E0.34909
G1 X80.180 Y102.375 E0.01677
G1 X72.320 Y94.515 E0.34909
G1 X72.320 Y93.981 E0.01677
G1 X80.180 Y101.841 E0.34909
G1 X80.180 Y101.307 E0.01677
G1 X72.320 Y93.447 E0.34909
G1 X72.320 Y92.913 E0.01677
G1 X80.180 Y100.773 E0.34909
G1 X80.180 Y100.239 E0.01677
G1 X72.320 Y92.379 E0.34909
G1 X72.320 Y91.845 E0.01677
G1 X80.180 Y99.705 E0.34909
G1 X80.180 Y99.171 E0.01677
G1 X72.320 Y91.311 E0.34909
G1 X72.320 Y90.776 E0.01677
G1 X80.180 Y98.637 E0.34909
G1 X80.180 Y98.103 E0.01677
G1 X72.320 Y90.242 E0.34909
G1 X72.320 Y89.708 E0.01677
G1 X80.180 Y97.568 E0.34909
G1 X80.180 Y97.034 E0.01677
G1 X72.320 Y89.174 E0.34909
G1 X72.320 Y88.640 E0.01677
G1 X80.180 Y96.500 E0.34909
G1 X80.180 Y95.966 E0.01677
G1 X72.320 Y88.106 E0.34909
G1 X72.320 Y87.572 E0.01677
G1 X80.180 Y95.432 E0.34909
G1 X80.180 Y94.898 E0.01677
G1 X72.320 Y87.038 E0.34909
G1 X72.320 Y86.503 E0.01677
G1 X80.180 Y94.364 E0.34909
G1 X80.180 Y93.830 E0.01677
G1 X72.320 Y85.969 E0.34909
G1 X72.320 Y85.435 E0.01677
G1 X80.180 Y93.295 E0.34909
G1 X80.180 Y92.761 E0.01677
G1 X72.320 Y84.901 E0.34909
G1 X72.320 Y84.367 E0.01677
G1 X80.180 Y92.227 E0.34909
G1 X80.180 Y91.693 E0.01677
G1 X72.320 Y83.833 E0.34909
G1 X72.320 Y83.299 E0.01677
G1 X80.180 Y91.159 E0.34909
G1 X80.180 Y90.625 E0.01677
G1 X72.320 Y82.765 E0.34909
G1 X72.320 Y82.231 E0.01677
G1 X80.180 Y90.091 E0.34909
G1 X80.180 Y89.557 E0.01677
G1 X72.320 Y81.696 E0.34909
G1 X72.320 Y81.162 E0.01677
G1 X80.180 Y89.023 E0.34909
G1 X80.180 Y88.488 E0.01677
G1 X72.320 Y80.628 E0.34909
G1 X72.320 Y80.094 E0.01677
G1 X80.180 Y87.954 E0.34909
G1 X80.180 Y87.420 E0.01677
G1 X72.320 Y79.560 E0.34909
M73 Q1 S124
G1 X72.320 Y79.026 E0.01677
G1 X80.180 Y86.886 E0.34909
G1 X80.180 Y86.352 E0.01677
G1 X72.320 Y78.492 E0.34909
G1 X72.320 Y77.958 E0.01677
G1 X80.180 Y85.818 E0.34909
G1 X80.180 Y85.284 E0.01677
G1 X72.320 Y77.423 E0.34909
M73 P1 R123
G1 X72.320 Y76.889 E0.01677
G1 X80.180 Y84.750 E0.34909
G1 X80.180 Y84.215 E0.01677
G1 X72.320 Y76.355 E0.34909
G1 X72.320 Y76.070 E0.00896
G1 X72.569 Y76.070 E0.00781
G1 X80.180 Y83.681 E0.33804
G1 X80.180 Y83.147 E0.01677
G1 X73.103 Y76.070 E0.31432
G1 X73.637 Y76.070 E0.01677
G1 X80.180 Y82.613 E0.29060
G1 X80.180 Y82.079 E0.01677
G1 X74.171 Y76.070 E0.26688
G1 X74.705 Y76.070 E0.01677
G1 X80.180 Y81.545 E0.24316
G1 X80.180 Y81.011 E0.01677
G1 X75.239 Y76.070 E0.21943
G1 X75.773 Y76.070 E0.01677
G1 X80.180 Y80.477 E0.19571
G1 X80.180 Y79.942 E0.01677
G1 X76.307 Y76.070 E0.17199
G1 X76.842 Y76.070 E0.01677
G1 X80.180 Y79.408 E0.14827
G1 X80.180 Y78.874 E0.01677
G1 X77.376 Y76.070 E0.12455
G1 X77.910 Y76.070 E0.01677
G1 X80.180 Y78.340 E0.10083
G1 X80.180 Y77.806 E0.01677
G1 X78.444 Y76.070 E0.07711
G1 X78.978 Y76.070 E0.01677
G1 X80.180 Y77.272 E0.05338
G1 X80.180 Y76.738 E0.01677
G1 X79.512 Y76.070 E0.02966
G1 X80.046 Y76.070 E0.01677
G1 X80.350 Y76.373 E0.01348
G1 F8640.000
G1 X80.046 Y76.070 E-0.09910
G1 X79.512 Y76.070 E-0.12333
G1 X80.180 Y76.738 E-0.21810
G1 X80.180 Y77.272 E-0.12333
G1 X79.579 Y76.671 E-0.19614
G1 E-0.04000 F2100.00000
G1 Z0.600 F10800.000
G1 X72.150 Y133.336
G1 Z0.200
G1 E0.80000 F2100.00000
G1 F1200.000
G1 X72.744 Y133.930 E0.02638
G1 X73.278 Y133.930 E0.01677
G1 X72.320 Y132.972 E0.04256
G1 X72.320 Y132.438 E0.01677
G1 X73.812 Y133.930 E0.06628
G1 X74.346 Y133.930 E0.01677
G1 X72.320 Y131.904 E0.09000
G1 X72.320 Y131.369 E0.01677
G1 X74.881 Y133.930 E0.11373
G1 X75.415 Y133.930 E0.01677
G1 X72.320 Y130.835 E0.13745
G1 X72.320 Y130.301 E0.01677
G1 X75.949 Y133.930 E0.16117
G1 X76.483 Y133.930 E0.01677
G1 X72.320 Y129.767 E0.18489
G1 X72.320 Y129.233 E0.01677
G1 X77.017 Y133.930 E0.20861
G1 X77.551 Y133.930 E0.01677
G1 X72.320 Y128.699 E0.23233
G1 X72.320 Y128.165 E0.01677
G1 X78.085 Y133.930 E0.25605
G1 X78.619 Y133.930 E0.01677
G1 X72.320 Y127.631 E0.27977
G1 X72.320 Y127.096 E0.01677
G1 X79.154 Y133.930 E0.30350
G1 X79.688 Y133.930 E0.01677
G1 X72.320 Y126.562 E0.32722
G1 X72.320 Y126.028 E0.01677
G1 X80.222 Y133.930 E0.35094
G1 X80.756 Y133.930 E0.01677
G1 X72.320 Y125.494 E0.37466
G1 X72.320 Y124.960 E0.01677
G1 X81.290 Y133.930 E0.39838
G1 X81.824 Y133.930 E0.01677
G1 X72.320 Y124.426 E0.42210
G1 X72.320 Y123.892 E0.01677
G1 X82.358 Y133.930 E0.44582
G1 X82.892 Y133.930 E0.01677
G1 X72.320 Y123.358 E0.46955
G1 X72.320 Y122.824 E0.01677
G1 X83.426 Y133.930 E0.49327
G1 X83.961 Y133.930 E0.01677
G1 X72.320 Y122.289 E0.51699
G1 X72.320 Y121.755 E0.01677
G1 X84.495 Y133.930 E0.54071
G1 X85.029 Y133.930 E0.01677
G1 X72.320 Y121.221 E0.56443
G1 X72.320 Y120.687 E0.01677
G1 X85.563 Y133.930 E0.58815
G1 X86.097 Y133.930 E0.01677
G1 X72.320 Y120.153 E0.61187
G1 X72.320 Y119.619 E0.01677
G1 X86.631 Y133.930 E0.63560
G1 X87.165 Y133.930 E0.01677
G1 X72.320 Y119.085 E0.65932
G1 X72.320 Y118.551 E0.01677
G1 X87.699 Y133.930 E0.68304
G1 X88.234 Y133.930 E0.01677
G1 X72.320 Y118.016 E0.70676
G1 X72.320 Y117.482 E0.01677
G1 X88.768 Y133.930 E0.73048
G1 X89.302 Y133.930 E0.01677
G1 X72.320 Y116.948 E0.75420
G1 X72.320 Y116.414 E0.01677
G1 X89.836 Y133.930 E0.77792
G1 X90.370 Y133.930 E0.01677
G1 X72.320 Y115.880 E0.80165
G1 X72.320 Y115.346 E0.01677
G1 X90.904 Y133.930 E0.82537
G1 X91.438 Y133.930 E0.01677
G1 X72.320 Y114.812 E0.84909
G1 X72.320 Y114.278 E0.01677
G1 X92.142 Y134.100 E0.88035
G1 F8640.000
G1 X89.815 Y131.772 E-0.76000
G1 E-0.04000 F2100.00000
G1 Z0.600 F10800.000
G1 X105.495 Y134.100
G1 Z0.200
G1 E0.80000 F2100.00000
G1 F1200.000
G1 X94.820 Y123.425 E0.47411
G1 X94.820 Y123.959 E0.01677
G1 X104.791 Y133.930 E0.44285
G1 X104.257 Y133.930 E0.01677
G1 X94.820 Y124.493 E0.41913
G1 X94.820 Y125.027 E0.01677
G1 X103.723 Y133.930 E0.39541
G1 X103.189 Y133.930 E0.01677
G1 X94.820 Y125.561 E0.37168
G1 X94.820 Y126.070 E0.01598
G1 X94.794 Y126.070 E0.00080
G1 X102.655 Y133.930 E0.34909
G1 X102.121 Y133.930 E0.01677
G1 X94.260 Y126.070 E0.34909
G1 X93.726 Y126.070 E0.01677
G1 X101.586 Y133.930 E0.34909
G1 X101.052 Y133.930 E0.01677
G1 X93.192 Y126.070 E0.34909
G1 X92.658 Y126.070 E0.01677
G1 X100.518 Y133.930 E0.34909
G1 X99.984 Y133.930 E0.01677
G1 X92.124 Y126.070 E0.34909
G1 X91.590 Y126.070 E0.01677
G1 X99.450 Y133.930 E0.34909
G1 X98.916 Y133.930 E0.01677
G1 X91.056 Y126.070 E0.34909
G1 X90.522 Y126.070 E0.01677
G1 X98.382 Y133.930 E0.34909
G1 X97.848 Y133.930 E0.01677
G1 X89.987 Y126.070 E0.34909
G1 X89.453 Y126.070 E0.01677
G1 X97.314 Y133.930 E0.34909
G1 X96.779 Y133.930 E0.01677
G1 X88.919 Y126.070 E0.34909
G1 X88.385 Y126.070 E0.01677
G1 X96.245 Y133.930 E0.34909
G1 X95.711 Y133.930 E0.01677
G1 X87.851 Y126.070 E0.34909
G1 X87.317 Y126.070 E0.01677
G1 X95.177 Y133.930 E0.34909
G1 X94.643 Y133.930 E0.01677
G1 X86.783 Y126.070 E0.34909
G1 X86.249 Y126.070 E0.01677
G1 X94.109 Y133.930 E0.34909
G1 X93.575 Y133.930 E0.01677
G1 X85.714 Y126.070 E0.34909
G1 X85.180 Y126.070 E0.01677
G1 X93.041 Y133.930 E0.34909
G1 X92.506 Y133.930 E0.01677
G1 X72.320 Y113.744 E0.89653
G1 X72.320 Y113.209 E0.01677
G1 X84.680 Y125.570 E0.54894
G1 X84.680 Y125.036 E0.01677
G1 X72.320 Y112.675 E0.54894
G1 X72.320 Y112.141 E0.01677
G1 X84.680 Y124.501 E0.54894
G1 X84.680 Y123.967 E0.01677
G1 X72.320 Y111.607 E0.54894
G1 X72.320 Y111.073 E0.01677
G1 X84.680 Y123.433 E0.54894
G1 X84.680 Y122.899 E0.01677
G1 X72.320 Y110.539 E0.54894
G1 X72.320 Y110.005 E0.01677
G1 X84.680 Y122.365 E0.54894
M73 Q2 S123
G1 X84.680 Y121.831 E0.01677
G1 X72.320 Y109.471 E0.54894
G1 X72.320 Y108.936 E0.01677
G1 X84.850 Y121.466 E0.55648
G1 F8640.000
G1 X82.522 Y119.139 E-0.76000
G1 E-0.04000 F2100.00000
G1 Z0.600 F10800.000
G1 X97.350 Y116.340
G1 Z0.200
G1 E0.80000 F2100.00000
G1 F1200.000
G1 X97.079 Y116.070 E0.01202
G1 X96.545 Y116.070 E0.01677
G1 X97.180 Y116.705 E0.02820
M73 P2 R122
G1 X97.180 Y117.239 E0.01677
G1 X96.011 Y116.070 E0.05192
G1 X95.477 Y116.070 E0.01677
G1 X97.180 Y117.773 E0.07565
G1 X97.180 Y118.307 E0.01677
G1 X94.943 Y116.070 E0.09937
G1 X94.820 Y116.070 E0.00386
G1 X94.820 Y116.481 E0.01291
G1 X97.180 Y118.841 E0.10482
G1 X97.180 Y119.375 E0.01677
G1 X94.820 Y117.015 E0.10482
G1 X94.820 Y117.549 E0.01677
G1 X97.180 Y119.910 E0.10482
G1 X97.180 Y120.444 E0.01677
