; generated by PrusaSlicer 2.2.0+win64 on 2022-12-30 at 19:56:36 UTC

; 

; external perimeters extrusion width = 0.45mm
; perimeters extrusion width = 0.45mm
; infill extrusion width = 0.45mm
; solid infill extrusion width = 0.45mm
; top infill extrusion width = 0.40mm
; support material extrusion width = 0.35mm
; first layer extrusion width = 0.42mm

M73 P0 R123
M73 Q0 S125
M201 X1000 Y1000 Z200 E5000 ; sets maximum accelerations, mm/sec^2
M203 X200 Y200 Z12 E120 ; sets maximum feedrates, mm/sec
M204 P1250 R1250 T1250 ; sets acceleration (P, T) and retract acceleration (R), mm/sec^2
M205 X8.00 Y8.00 Z0.40 E4.50 ; sets the jerk limits, mm/sec
M205 S0 T0 ; sets the minimum extruding and travel feed rate, mm/sec
M107
M862.3 P "MK3S" ; printer model check
M862.1 P0.4 ; nozzle diameter check
M115 U3.11.0 ; tell printer latest fw version
G90 ; use absolute coordinates
M83 ; extruder relative mode
M104 S220 ; set extruder temp
M140 S80 ; set bed temp
M190 S80 ; wait for bed temp
M109 S220 ; wait for extruder temp
G28 W ; home all without mesh bed level
G80 ; mesh bed leveling
G1 Y-3.0 F1000.0 ; go outside print area
G92 E0.0
G1 X60.0 E9.0 F1000.0 ; intro line
M73 Q0 S125
M73 P0 R123
G1 X100.0 E12.5 F1000.0 ; intro line
G92 E0.0
M221 S95

; Don't change E values below. Excessive value can damage the printer.
M907 E430 ; set extruder motor current
G21 ; set units to millimeters
G90 ; use absolute coordinates
M83 ; use relative distances for extrusion
M900 K0.05 ; Filament gcode LA 1.5
M900 K30 ; Filament gcode LA 1.0
;BEFORE_LAYER_CHANGE
G92 E0.0
;0.2


G1 E-0.80000 F2100.00000
G1 Z0.400 F10800.000
;AFTER_LAYER_CHANGE
;0.2
G1 X113.069 Y36.070
G1 Z0.200
G1 E0.80000 F2100.00000
M204 S1000
G1 F1200.000
G1 X113.546 Y35.419 E0.02532
G1 X114.211 Y34.968 E0.02520
G1 X114.992 Y34.763 E0.02532
G1 X137.070 Y34.754 E0.69225
G1 X137.902 Y34.905 E0.02649
G1 X138.624 Y35.336 E0.02637
G1 X139.154 Y35.994 E0.02649
G1 X139.420 Y36.796 E0.02649
G1 X148.868 Y117.291 E2.54119
G1 X148.860 Y167.785 E1.58320
G1 X148.571 Y168.666 E0.02907
G1 X147.968 Y169.370 E0.02907
G1 X133.936 Y179.600 E0.54447
G1 X133.455 Y179.869 E0.01728
G1 X132.569 Y180.051 E0.02837
G1 X119.436 Y180.034 E0.41177
G1 X118.897 Y179.904 E0.01740
G1 X118.399 Y179.650 E0.01752
G1 X102.096 Y168.418 E0.62075
G1 X101.707 Y168.060 E0.01657
G1 X101.406 Y167.625 E0.01657
G1 X101.208 Y167.131 E0.01668
G1 X101.125 Y166.610 E0.01657
G1 X101.132 Y138.287 E0.88804
G1 X112.836 Y36.843 E3.20179
G1 X113.051 Y36.128 E0.02343
; printing object knee bottom.STL id:0 copy 0
G1 F8640.000
G1 X113.546 Y35.419 E-0.19954
G1 X114.211 Y34.968 E-0.18556
G1 X114.992 Y34.763 E-0.18643
G1 X115.808 Y34.762 E-0.18847
G1 E-0.04000 F2100.00000
G1 Z0.600 F10800.000
G1 X118.268 Y42.276
G1 Z0.200
G1 E0.80000 F2100.00000
G1 F1200.000
G1 X118.268 Y47.055 E0.12202
G1 X118.616 Y47.055 E0.00888
G1 X118.616 Y45.377 E0.04285
G1 X118.662 Y45.331 E0.00167
G1 X118.662 Y44.969 E0.00922
G1 X118.695 Y44.936 E0.00119
G1 X118.662 Y44.936 E0.00084
G1 X118.662 Y44.532 E0.01031
G1 X118.786 Y44.408 E0.00448
G1 X118.786 Y42.419 E0.05079
G1 X119.304 Y42.419 E0.01322
G1 X119.304 Y44.203 E0.04554
G1 X119.822 Y44.203 E0.01322
G1 X119.822 Y42.419 E0.04554
G1 X120.340 Y42.419 E0.01322
G1 X120.340 Y44.203 E0.04554
G1 X120.858 Y44.203 E0.01322
G1 X120.858 Y42.419 E0.04554
G1 X121.375 Y42.419 E0.01322
G1 X121.375 Y44.203 E0.04554
G1 X121.893 Y44.203 E0.01322
G1 X121.893 Y42.419 E0.04554
G1 X122.411 Y42.419 E0.01322
G1 X122.411 Y44.203 E0.04554
G1 X122.929 Y44.203 E0.01322
G1 X122.929 Y42.419 E0.04554
G1 X123.447 Y42.419 E0.01322
G1 X123.447 Y44.203 E0.04554
G1 X123.964 Y44.203 E0.01322
G1 X123.964 Y42.419 E0.04554
G1 X124.482 Y42.419 E0.01322
G1 X124.482 Y44.203 E0.04554
G1 X125.000 Y44.203 E0.01322
G1 X125.000 Y42.419 E0.04554
G1 X125.518 Y42.419 E0.01322
G1 X125.518 Y44.203 E0.04554
G1 X126.036 Y44.203 E0.01322
G1 X126.036 Y42.419 E0.04554
G1 X126.553 Y42.419 E0.01322
G1 X126.553 Y44.203 E0.04554
G1 X127.071 Y44.203 E0.01322
G1 X127.071 Y42.419 E0.04554
G1 X127.589 Y42.419 E0.01322
G1 X127.589 Y44.203 E0.04554
G1 X128.107 Y44.203 E0.01322
G1 X128.107 Y42.419 E0.04554
G1 X128.625 Y42.419 E0.01322
G1 X128.625 Y44.203 E0.04554
G1 X129.142 Y44.203 E0.01322
G1 X129.142 Y42.419 E0.04554
G1 X129.660 Y42.419 E0.01322
G1 X129.660 Y44.203 E0.04554
G1 X130.178 Y44.203 E0.01322
G1 X130.178 Y42.419 E0.04554
G1 X130.696 Y42.419 E0.01322
G1 X130.696 Y44.203 E0.04554
G1 X131.214 Y44.203 E0.01322
G1 X131.214 Y42.419 E0.04554
G1 X131.732 Y42.419 E0.01322
G1 X131.732 Y44.203 E0.04554
G1 X132.249 Y44.203 E0.01322
G1 X132.249 Y42.419 E0.04554
G1 X132.767 Y42.419 E0.01322
G1 X132.767 Y44.203 E0.04554
G1 X133.285 Y44.203 E0.01322
G1 X133.285 Y42.419 E0.04554
G1 X133.803 Y42.419 E0.01322
G1 X133.803 Y44.346 E0.04919
G1 F8640.000
G1 X133.803 Y42.419 E-0.44486
G1 X133.285 Y42.419 E-0.11956
G1 X133.285 Y43.266 E-0.19557
G1 E-0.04000 F2100.00000
G1 Z0.600 F10800.000
G1 X133.296 Y46.116
G1 Z0.200
G1 E0.80000 F2100.00000
G1 F1200.000
G1 X133.296 Y44.550 E0.04910
G1 X132.542 Y44.550 E0.02365
G1 X132.542 Y45.946 E0.04378
G1 X131.787 Y45.946 E0.02365
G1 X131.787 Y44.550 E0.04378
G1 X131.033 Y44.550 E0.02365
G1 X131.033 Y45.072 E0.01635
G1 X130.279 Y45.072 E0.02365
G1 X130.279 Y44.550 E0.01635
G1 X129.525 Y44.550 E0.02365
G1 X129.525 Y45.072 E0.01635
G1 X128.771 Y45.072 E0.02365
G1 X128.771 Y44.550 E0.01635
G1 X128.017 Y44.550 E0.02365
G1 X128.017 Y45.072 E0.01635
G1 X127.262 Y45.072 E0.02365
G1 X127.262 Y44.550 E0.01635
G1 X126.508 Y44.550 E0.02365
G1 X126.508 Y45.072 E0.01635
G1 X125.754 Y45.072 E0.02365
G1 X125.754 Y44.550 E0.01635
G1 X125.000 Y44.550 E0.02365
G1 X125.000 Y45.072 E0.01635
G1 X124.246 Y45.072 E0.02365
G1 X124.246 Y44.550 E0.01635
G1 X123.492 Y44.550 E0.02365
G1 X123.492 Y45.072 E0.01635
G1 X122.738 Y45.072 E0.02365
G1 X122.738 Y44.550 E0.01635
G1 X121.983 Y44.550 E0.02365
G1 X121.983 Y45.072 E0.01635
G1 X121.586 Y45.072 E0.01245
G1 X121.586 Y45.946 E0.02743
G1 X121.229 Y45.946 E0.01120
G1 X121.229 Y44.550 E0.04378
G1 X120.475 Y44.550 E0.02365
G1 X120.475 Y45.946 E0.04378
G1 X119.721 Y45.946 E0.02365
G1 X119.721 Y44.550 E0.04378
G1 X119.136 Y44.550 E0.01834
G1 X119.097 Y44.589 E0.00171
G1 X119.414 Y44.589 E0.00994
G1 X119.413 Y44.987 E0.01249
G1 X119.136 Y44.987 E0.00869
G1 X119.010 Y45.113 E0.00559
G1 X119.010 Y45.147 E0.00106
G1 X119.337 Y45.147 E0.01027
G1 X118.967 Y45.518 E0.01643
G1 X118.967 Y46.116 E0.01877
G1 F8640.000
G1 X118.967 Y45.518 E-0.13822
G1 X119.337 Y45.147 E-0.12098
G1 X119.010 Y45.147 E-0.07561
G1 X119.010 Y45.113 E-0.00780
G1 X119.136 Y44.987 E-0.04117
G1 X119.413 Y44.987 E-0.06401
G1 X119.414 Y44.589 E-0.09197
G1 X119.097 Y44.589 E-0.07318
G1 X119.136 Y44.550 E-0.01261
G1 X119.718 Y44.550 E-0.13445
G1 E-0.04000 F2100.00000
G1 Z0.600 F10800.000
G1 X115.196 Y50.195
G1 Z0.200
G1 E0.80000 F2100.00000
G1 F1200.000
G1 X115.196 Y37.131 E0.40960
G1 X115.950 Y37.131 E0.02365
G1 X115.950 Y50.025 E0.40428
G1 X116.704 Y50.025 E0.02365
G1 X116.704 Y37.131 E0.40428
G1 X117.458 Y37.131 E0.02365
G1 X117.458 Y50.025 E0.40428
G1 X118.213 Y50.025 E0.02365
G1 X118.213 Y47.402 E0.08224
G1 X117.699 Y47.402 E0.01610
G1 X117.699 Y44.578 E0.08855
G1 X117.699 Y42.072 E0.07859
G1 X118.213 Y42.072 E0.01610
G1 X118.213 Y37.131 E0.15491
G1 X118.967 Y37.131 E0.02365
G1 X118.967 Y42.072 E0.15491
G1 X119.721 Y42.072 E0.02365
G1 X119.721 Y37.131 E0.15491
G1 X120.475 Y37.131 E0.02365
G1 X120.475 Y42.072 E0.15491
G1 X121.229 Y42.072 E0.02365
G1 X121.229 Y37.131 E0.15491
G1 X121.983 Y37.131 E0.02365
G1 X121.983 Y42.072 E0.15491
G1 X122.738 Y42.072 E0.02365
G1 X122.738 Y37.131 E0.15491
G1 X123.492 Y37.131 E0.02365
G1 X123.492 Y42.072 E0.15491
G1 X124.246 Y42.072 E0.02365
G1 X124.246 Y37.131 E0.15491
G1 X125.000 Y37.131 E0.02365
G1 X125.000 Y42.072 E0.15491
G1 X125.754 Y42.072 E0.02365
G1 X125.754 Y37.131 E0.15491
G1 X126.508 Y37.131 E0.02365
G1 X126.508 Y42.072 E0.15491
G1 X127.262 Y42.072 E0.02365
G1 X127.262 Y37.131 E0.15491
G1 X128.017 Y37.131 E0.02365
G1 X128.017 Y42.072 E0.15491
G1 X128.771 Y42.072 E0.02365
G1 X128.771 Y37.131 E0.15491
G1 X129.525 Y37.131 E0.02365
G1 X129.525 Y42.072 E0.15491
G1 X130.279 Y42.072 E0.02365
G1 X130.279 Y37.131 E0.15491
G1 X131.033 Y37.131 E0.02365
G1 X131.033 Y42.072 E0.15491
G1 X131.787 Y42.072 E0.02365
G1 X131.787 Y37.131 E0.15491
G1 X132.542 Y37.131 E0.02365
G1 X132.542 Y42.072 E0.15491
G1 X133.296 Y42.072 E0.02365
G1 X133.296 Y37.131 E0.15491
G1 X134.050 Y37.131 E0.02365
G1 X134.050 Y42.072 E0.15491
G1 X134.619 Y42.072 E0.01784
G1 X134.619 Y47.402 E0.16714
G1 X134.414 Y47.402 E0.00643
G1 X134.414 Y50.025 E0.08223
G1 X134.804 Y50.025 E0.01224
G1 X134.804 Y37.131 E0.40428
G1 X135.558 Y37.131 E0.02365
G1 X135.558 Y50.025 E0.40428
G1 X136.312 Y50.025 E0.02365
G1 X136.312 Y37.131 E0.40428
G1 X137.067 Y37.131 E0.02365
G1 X137.067 Y50.195 E0.40960
G1 F8640.000
G1 X137.067 Y46.903 E-0.76000
G1 E-0.04000 F2100.00000
G1 Z0.600 F10800.000
G1 X132.542 Y177.674
G1 Z0.200
G1 E0.80000 F2100.00000
G1 F1200.000
G1 X132.542 Y167.913 E0.30604
G1 X131.787 Y167.913 E0.02365
G1 X131.787 Y177.505 E0.30072
G1 X131.033 Y177.505 E0.02365
G1 X131.033 Y167.913 E0.30072
G1 X130.279 Y167.913 E0.02365
G1 X130.279 Y177.505 E0.30072
G1 X129.525 Y177.505 E0.02365
G1 X129.525 Y167.913 E0.30072
G1 X128.771 Y167.913 E0.02365
G1 X128.771 Y177.505 E0.30072
G1 X128.017 Y177.505 E0.02365
G1 X128.017 Y167.913 E0.30072
G1 X127.262 Y167.913 E0.02365
G1 X127.262 Y177.505 E0.30072
G1 X126.508 Y177.505 E0.02365
G1 X126.508 Y167.913 E0.30072
G1 X125.754 Y167.913 E0.02365
G1 X125.754 Y177.505 E0.30072
G1 X125.000 Y177.505 E0.02365
G1 X125.000 Y167.913 E0.30072
G1 X124.246 Y167.913 E0.02365
G1 X124.246 Y177.505 E0.30072
G1 X123.492 Y177.505 E0.02365
G1 X123.492 Y167.913 E0.30072
G1 X122.738 Y167.913 E0.02365
G1 X122.738 Y177.505 E0.30072
G1 X121.983 Y177.505 E0.02365
G1 X121.983 Y167.913 E0.30072
G1 X121.229 Y167.913 E0.02365
G1 X121.229 Y177.505 E0.30072
G1 X120.475 Y177.505 E0.02365
G1 X120.475 Y167.913 E0.30072
G1 X119.721 Y167.913 E0.02365
G1 X119.721 Y177.674 E0.30604
G1 F8640.000
G1 X119.721 Y174.383 E-0.76000
G1 E-0.04000 F2100.00000
G1 Z0.600 F10800.000
G1 X133.213 Y118.287
G1 Z0.200
G1 E0.80000 F2100.00000
G1 F1200.000
G1 X145.713 Y118.287 E0.39193
G1 X145.713 Y166.713 E1.51836
G1 X107.287 Y166.713 E1.20482
G1 X107.287 Y165.713 E0.03135
G1 X104.287 Y165.713 E0.09406
G1 X104.287 Y139.287 E0.82856
M73 Q0 S124
G1 X107.287 Y139.287 E0.09406
G1 X107.287 Y118.287 E0.65844
M73 P0 R122
G1 X119.787 Y118.287 E0.39193
G1 X119.787 Y47.147 E2.23054
G1 X133.213 Y47.147 E0.42096
G1 X133.213 Y118.227 E2.22866
G1 X133.590 Y117.910 F10800.000
G1 F1200.000
G1 X146.090 Y117.910 E0.39193
G1 X146.090 Y167.090 E1.54200
G1 X106.910 Y167.090 E1.22846
G1 X106.910 Y166.090 E0.03135
G1 X103.910 Y166.090 E0.09406
G1 X103.910 Y138.910 E0.85221
G1 X106.910 Y138.910 E0.09406
G1 X106.910 Y117.910 E0.65844
G1 X119.410 Y117.910 E0.39193
G1 X119.410 Y46.770 E2.23054
G1 X133.590 Y46.770 E0.44460
G1 X133.590 Y117.850 E2.22866
G1 X133.616 Y118.309 F10800.000
G1 X133.100 Y118.105
G1 F1200.000
G1 X120.070 Y105.075 E0.57960
G1 X120.070 Y104.540 E0.01683
G1 X132.930 Y117.400 E0.57205
G1 X132.930 Y116.865 E0.01683
G1 X120.070 Y104.005 E0.57205
G1 X120.070 Y103.470 E0.01683
G1 X132.930 Y116.330 E0.57205
G1 X132.930 Y115.795 E0.01683
G1 X120.070 Y102.935 E0.57205
G1 X120.070 Y102.400 E0.01683
G1 X132.930 Y115.260 E0.57205
G1 X132.930 Y114.726 E0.01683
G1 X120.070 Y101.865 E0.57205
G1 X120.070 Y101.330 E0.01683
G1 X132.930 Y114.191 E0.57205
G1 X132.930 Y113.656 E0.01683
G1 X120.070 Y100.795 E0.57205
G1 X120.070 Y100.260 E0.01683
G1 X132.930 Y113.121 E0.57205
G1 X132.930 Y112.586 E0.01683
G1 X120.070 Y99.725 E0.57205
G1 X120.070 Y99.190 E0.01683
G1 X132.930 Y112.051 E0.57205
G1 X132.930 Y111.516 E0.01683
G1 X120.070 Y98.656 E0.57205
G1 X120.070 Y98.121 E0.01683
G1 X132.930 Y110.981 E0.57205
G1 X132.930 Y110.446 E0.01683
G1 X120.070 Y97.586 E0.57205
G1 X120.070 Y97.051 E0.01683
G1 X132.930 Y109.911 E0.57205
G1 X132.930 Y109.376 E0.01683
G1 X120.070 Y96.516 E0.57205
G1 X120.070 Y95.981 E0.01683
G1 X132.930 Y108.841 E0.57205
G1 X132.930 Y108.306 E0.01683
G1 X120.070 Y95.446 E0.57205
G1 X120.070 Y94.911 E0.01683
G1 X132.930 Y107.771 E0.57205
G1 X132.930 Y107.236 E0.01683
G1 X120.070 Y94.376 E0.57205
G1 X120.070 Y93.841 E0.01683
G1 X132.930 Y106.701 E0.57205
G1 X132.930 Y106.166 E0.01683
G1 X120.070 Y93.306 E0.57205
G1 X120.070 Y92.771 E0.01683
G1 X132.930 Y105.631 E0.57205
G1 X132.930 Y105.096 E0.01683
G1 X120.070 Y92.236 E0.57205
G1 X120.070 Y91.701 E0.01683
G1 X132.930 Y104.561 E0.57205
G1 X132.930 Y104.026 E0.01683
G1 X120.070 Y91.166 E0.57205
G1 X120.070 Y90.631 E0.01683
G1 X132.930 Y103.491 E0.57205
G1 X132.930 Y102.956 E0.01683
G1 X120.070 Y90.096 E0.57205
G1 X120.070 Y89.561 E0.01683
G1 X132.930 Y102.421 E0.57205
G1 X132.930 Y101.886 E0.01683
G1 X120.070 Y89.026 E0.57205
G1 X120.070 Y88.491 E0.01683
G1 X132.930 Y101.351 E0.57205
G1 X132.930 Y100.817 E0.01683
G1 X120.070 Y87.956 E0.57205
G1 X120.070 Y87.421 E0.01683
G1 X132.930 Y100.282 E0.57205
G1 X132.930 Y99.747 E0.01683
G1 X120.070 Y86.886 E0.57205
G1 X120.070 Y86.351 E0.01683
G1 X132.930 Y99.212 E0.57205
M73 Q1 S123
G1 X132.930 Y98.677 E0.01683
G1 X120.070 Y85.816 E0.57205
G1 X120.070 Y85.281 E0.01683
G1 X132.930 Y98.142 E0.57205
M73 P1 R121
G1 X132.930 Y97.607 E0.01683
G1 X120.070 Y84.746 E0.57205
G1 X120.070 Y84.212 E0.01683
G1 X132.930 Y97.072 E0.57205
G1 X132.930 Y96.537 E0.01683
G1 X120.070 Y83.677 E0.57205
G1 X120.070 Y83.142 E0.01683
G1 X132.930 Y96.002 E0.57205
G1 X132.930 Y95.467 E0.01683
G1 X120.070 Y82.607 E0.57205
G1 X120.070 Y82.072 E0.01683
G1 X132.930 Y94.932 E0.57205
G1 X132.930 Y94.397 E0.01683
G1 X120.070 Y81.537 E0.57205
G1 X120.070 Y81.002 E0.01683
G1 X132.930 Y93.862 E0.57205
G1 X132.930 Y93.327 E0.01683
G1 X120.070 Y80.467 E0.57205
G1 X120.070 Y79.932 E0.01683
G1 X132.930 Y92.792 E0.57205
G1 X132.930 Y92.257 E0.01683
G1 X120.070 Y79.397 E0.57205
G1 X120.070 Y78.862 E0.01683
G1 X132.930 Y91.722 E0.57205
G1 X132.930 Y91.187 E0.01683
G1 X120.070 Y78.327 E0.57205
G1 X120.070 Y77.792 E0.01683
G1 X132.930 Y90.652 E0.57205
G1 X132.930 Y90.117 E0.01683
G1 X120.070 Y77.257 E0.57205
G1 X120.070 Y76.722 E0.01683
G1 X132.930 Y89.582 E0.57205
G1 X132.930 Y89.047 E0.01683
G1 X120.070 Y76.187 E0.57205
G1 X120.070 Y75.652 E0.01683
G1 X132.930 Y88.512 E0.57205
G1 X132.930 Y87.977 E0.01683
G1 X120.070 Y75.117 E0.57205
G1 X120.070 Y74.582 E0.01683
G1 X132.930 Y87.442 E0.57205
G1 X132.930 Y86.908 E0.01683
G1 X120.070 Y74.047 E0.57205
G1 X120.070 Y73.512 E0.01683
G1 X132.930 Y86.373 E0.57205
G1 X132.930 Y85.838 E0.01683
G1 X120.070 Y72.977 E0.57205
G1 X120.070 Y72.442 E0.01683
G1 X132.930 Y85.303 E0.57205
G1 X132.930 Y84.768 E0.01683
G1 X120.070 Y71.907 E0.57205
G1 X120.070 Y71.372 E0.01683
G1 X132.930 Y84.233 E0.57205
G1 X132.930 Y83.698 E0.01683
G1 X120.070 Y70.837 E0.57205
G1 X120.070 Y70.303 E0.01683
G1 X132.930 Y83.163 E0.57205
G1 X132.930 Y82.628 E0.01683
G1 X120.070 Y69.768 E0.57205
G1 X120.070 Y69.233 E0.01683
G1 X132.930 Y82.093 E0.57205
G1 X132.930 Y81.558 E0.01683
G1 X120.070 Y68.698 E0.57205
G1 X120.070 Y68.163 E0.01683
G1 X132.930 Y81.023 E0.57205
G1 X132.930 Y80.488 E0.01683
G1 X120.070 Y67.628 E0.57205
G1 X120.070 Y67.093 E0.01683
G1 X132.930 Y79.953 E0.57205
G1 X132.930 Y79.418 E0.01683
G1 X120.070 Y66.558 E0.57205
G1 X120.070 Y66.023 E0.01683
G1 X132.930 Y78.883 E0.57205
G1 X132.930 Y78.348 E0.01683
G1 X120.070 Y65.488 E0.57205
G1 X120.070 Y64.953 E0.01683
G1 X132.930 Y77.813 E0.57205
G1 X132.930 Y77.278 E0.01683
G1 X120.070 Y64.418 E0.57205
G1 X120.070 Y63.883 E0.01683
G1 X132.930 Y76.743 E0.57205
G1 X132.930 Y76.208 E0.01683
G1 X120.070 Y63.348 E0.57205
G1 X120.070 Y62.813 E0.01683
G1 X132.930 Y75.673 E0.57205
G1 X132.930 Y75.138 E0.01683
G1 X120.070 Y62.278 E0.57205
G1 X120.070 Y61.743 E0.01683
G1 X132.930 Y74.603 E0.57205
G1 X132.930 Y74.068 E0.01683
G1 X120.070 Y61.208 E0.57205
G1 X120.070 Y60.673 E0.01683
G1 X132.930 Y73.533 E0.57205
G1 X132.930 Y72.999 E0.01683
G1 X120.070 Y60.138 E0.57205
