; generated by PrusaSlicer 2.2.0+win64 on 2022-12-30 at 19:57:48 UTC

; 

; external perimeters extrusion width = 0.45mm
; perimeters extrusion width = 0.45mm
; infill extrusion width = 0.45mm
; solid infill extrusion width = 0.45mm
; top infill extrusion width = 0.40mm
; support material extrusion width = 0.35mm
; first layer extrusion width = 0.42mm

M73 P0 R91
M73 Q0 S92
M201 X1000 Y1000 Z200 E5000 ; sets maximum accelerations, mm/sec^2
M203 X200 Y200 Z12 E120 ; sets maximum feedrates, mm/sec
M204 P1250 R1250 T1250 ; sets acceleration (P, T) and retract acceleration (R), mm/sec^2
M205 X8.00 Y8.00 Z0.40 E4.50 ; sets the jerk limits, mm/sec
M205 S0 T0 ; sets the minimum extruding and travel feed rate, mm/sec
M107
M862.3 P "MK3S" ; printer model check
M862.1 P0.4 ; nozzle diameter check
M115 U3.11.0 ; tell printer latest fw version
G90 ; use absolute coordinates
M83 ; extruder relative mode
M104 S220 ; set extruder temp
M140 S80 ; set bed temp
M190 S80 ; wait for bed temp
M109 S220 ; wait for extruder temp
G28 W ; home all without mesh bed level
G80 ; mesh bed leveling
G1 Y-3.0 F1000.0 ; go outside print area
G92 E0.0
G1 X60.0 E9.0 F1000.0 ; intro line
M73 Q0 S92
M73 P0 R91
G1 X100.0 E12.5 F1000.0 ; intro line
G92 E0.0
M221 S95

; Don't change E values below. Excessive value can damage the printer.
M907 E430 ; set extruder motor current
G21 ; set units to millimeters
G90 ; use absolute coordinates
M83 ; use relative distances for extrusion
M900 K0.05 ; Filament gcode LA 1.5
M900 K30 ; Filament gcode LA 1.0
;BEFORE_LAYER_CHANGE
G92 E0.0
;0.2


G1 E-0.80000 F2100.00000
G1 Z0.400 F10800.000
;AFTER_LAYER_CHANGE
;0.2
G1 X111.335 Y65.503
G1 Z0.200
G1 E0.80000 F2100.00000
M204 S1000
G1 F1200.000
G1 X111.857 Y65.143 E0.01989
G1 X112.366 Y64.954 E0.01704
G1 X112.906 Y64.886 E0.01704
G1 X134.804 Y64.885 E0.68661
G1 X135.325 Y64.943 E0.01645
G1 X135.825 Y65.116 E0.01657
G1 X136.274 Y65.394 E0.01657
G1 X136.650 Y65.765 E0.01657
G1 X141.328 Y72.929 E0.26826
G1 X145.630 Y81.445 E0.29914
G1 X145.827 Y82.016 E0.01894
G1 X148.873 Y103.357 E0.67593
G1 X148.877 Y131.504 E0.88252
G1 X148.821 Y132.014 E0.01609
G1 X148.494 Y132.793 E0.02649
G1 X147.916 Y133.409 E0.02649
G1 X131.640 Y144.856 E0.62389
G1 X131.190 Y145.103 E0.01609
G1 X130.300 Y145.284 E0.02849
G1 X117.447 Y145.284 E0.40300
G1 X116.944 Y145.228 E0.01585
G1 X116.483 Y145.075 E0.01526
G1 X116.058 Y144.828 E0.01538
G1 X102.049 Y134.383 E0.54792
G1 X101.511 Y133.801 E0.02484
G1 X101.194 Y133.075 E0.02484
G1 X101.123 Y132.500 E0.01816
G1 X101.123 Y82.496 E1.56783
G1 X101.179 Y81.986 E0.01609
G1 X101.471 Y81.262 E0.02449
G1 X110.927 Y65.989 E0.56321
G1 X111.296 Y65.549 E0.01800
; printing object shoulder bottom.STL id:0 copy 0
G1 F8640.000
G1 X111.857 Y65.143 E-0.15984
G1 X112.366 Y64.954 E-0.12549
G1 X112.906 Y64.886 E-0.12550
G1 X114.418 Y64.886 E-0.34917
G1 E-0.04000 F2100.00000
G1 Z0.600 F10800.000
G1 X112.933 Y82.256
G1 Z0.200
G1 E0.80000 F2100.00000
G1 F1200.000
G1 X112.933 Y67.263 E0.47011
G1 X113.688 Y67.263 E0.02365
G1 X113.688 Y82.086 E0.46479
G1 X114.442 Y82.086 E0.02365
G1 X114.442 Y67.263 E0.46479
G1 X115.196 Y67.263 E0.02365
G1 X115.196 Y82.086 E0.46479
G1 X115.950 Y82.086 E0.02365
G1 X115.950 Y67.263 E0.46479
G1 X116.704 Y67.263 E0.02365
G1 X116.704 Y82.086 E0.46479
G1 X117.458 Y82.086 E0.02365
G1 X117.458 Y67.263 E0.46479
G1 X118.213 Y67.263 E0.02365
G1 X118.213 Y82.086 E0.46479
G1 X118.967 Y82.086 E0.02365
G1 X118.967 Y67.263 E0.46479
G1 X119.721 Y67.263 E0.02365
G1 X119.721 Y82.086 E0.46479
G1 X120.475 Y82.086 E0.02365
G1 X120.475 Y67.263 E0.46479
G1 X121.229 Y67.263 E0.02365
G1 X121.229 Y82.086 E0.46479
G1 X121.983 Y82.086 E0.02365
G1 X121.983 Y67.263 E0.46479
G1 X122.738 Y67.263 E0.02365
G1 X122.738 Y82.086 E0.46479
G1 X123.335 Y82.086 E0.01872
G1 X123.335 Y77.839 E0.13318
G1 X123.492 Y77.839 E0.00492
G1 X123.492 Y67.263 E0.33161
G1 X124.246 Y67.263 E0.02365
G1 X124.246 Y77.839 E0.33161
G1 X124.348 Y77.839 E0.00319
G1 X124.348 Y82.086 E0.13318
G1 X125.000 Y82.086 E0.02046
G1 X125.000 Y67.263 E0.46479
G1 X125.754 Y67.263 E0.02365
G1 X125.754 Y82.086 E0.46479
G1 X126.508 Y82.086 E0.02365
G1 X126.508 Y67.263 E0.46479
G1 X127.262 Y67.263 E0.02365
G1 X127.262 Y82.086 E0.46479
G1 X128.017 Y82.086 E0.02365
G1 X128.017 Y67.263 E0.46479
G1 X128.771 Y67.263 E0.02365
G1 X128.771 Y82.086 E0.46479
G1 X129.525 Y82.086 E0.02365
G1 X129.525 Y67.263 E0.46479
G1 X130.279 Y67.263 E0.02365
G1 X130.279 Y82.086 E0.46479
G1 X131.033 Y82.086 E0.02365
G1 X131.033 Y67.263 E0.46479
G1 X131.787 Y67.263 E0.02365
G1 X131.787 Y82.086 E0.46479
G1 X132.542 Y82.086 E0.02365
G1 X132.542 Y67.263 E0.46479
G1 X133.296 Y67.263 E0.02365
G1 X133.296 Y82.086 E0.46479
G1 X134.050 Y82.086 E0.02365
G1 X134.050 Y67.263 E0.46479
G1 X134.804 Y67.263 E0.02365
G1 X134.804 Y82.086 E0.46479
G1 X135.558 Y82.086 E0.02365
G1 X135.558 Y74.216 E0.24677
G1 X136.312 Y74.216 E0.02365
G1 X136.312 Y82.086 E0.24677
G1 X137.067 Y82.086 E0.02365
G1 X137.067 Y74.216 E0.24677
G1 X137.821 Y74.216 E0.02365
G1 X137.821 Y82.086 E0.24677
G1 X138.575 Y82.086 E0.02365
G1 X138.575 Y74.216 E0.24677
G1 X139.329 Y74.216 E0.02365
G1 X139.329 Y82.256 E0.25209
G1 F8640.000
G1 X139.329 Y78.965 E-0.76000
G1 E-0.04000 F2100.00000
G1 Z0.600 F10800.000
G1 X130.279 Y142.907
G1 Z0.200
G1 E0.80000 F2100.00000
G1 F1200.000
G1 X130.279 Y132.914 E0.31334
G1 X129.525 Y132.914 E0.02365
G1 X129.525 Y142.737 E0.30802
G1 X128.771 Y142.737 E0.02365
G1 X128.771 Y132.914 E0.30802
G1 X128.017 Y132.914 E0.02365
G1 X128.017 Y142.737 E0.30802
G1 X127.262 Y142.737 E0.02365
G1 X127.262 Y132.914 E0.30802
G1 X126.508 Y132.914 E0.02365
G1 X126.508 Y142.737 E0.30802
G1 X125.754 Y142.737 E0.02365
G1 X125.754 Y132.914 E0.30802
G1 X125.000 Y132.914 E0.02365
G1 X125.000 Y142.737 E0.30802
G1 X124.246 Y142.737 E0.02365
G1 X124.246 Y132.914 E0.30802
G1 X123.492 Y132.914 E0.02365
G1 X123.492 Y142.737 E0.30802
G1 X122.738 Y142.737 E0.02365
G1 X122.738 Y132.914 E0.30802
G1 X121.983 Y132.914 E0.02365
G1 X121.983 Y142.737 E0.30802
G1 X121.229 Y142.737 E0.02365
G1 X121.229 Y132.914 E0.30802
G1 X120.475 Y132.914 E0.02365
G1 X120.475 Y142.737 E0.30802
G1 X119.721 Y142.737 E0.02365
G1 X119.721 Y132.914 E0.30802
G1 X118.967 Y132.914 E0.02365
G1 X118.967 Y142.737 E0.30802
G1 X118.213 Y142.737 E0.02365
G1 X118.213 Y132.914 E0.30802
G1 X117.458 Y132.914 E0.02365
G1 X117.458 Y142.907 E0.31334
G1 F8640.000
G1 X117.458 Y139.616 E-0.76000
G1 E-0.04000 F2100.00000
G1 Z0.600 F10800.000
G1 X127.837 Y104.285
G1 Z0.200
G1 E0.80000 F2100.00000
G1 F1200.000
G1 X127.552 Y104.157 E0.00978
G1 X127.294 Y103.982 E0.00978
G1 X127.069 Y103.766 E0.00978
G1 X126.883 Y103.515 E0.00978
G1 X126.743 Y103.236 E0.00978
G1 X126.651 Y102.938 E0.00978
G1 X126.611 Y102.628 E0.00978
G1 X126.625 Y102.317 E0.00978
G1 X126.690 Y102.011 E0.00978
G1 X126.796 Y101.749 E0.00887
G1 X126.967 Y101.460 E0.01053
G1 X127.177 Y101.222 E0.00995
G1 X127.419 Y101.026 E0.00979
G1 X127.692 Y100.874 E0.00978
G1 X127.998 Y100.766 E0.01016
G1 X128.435 Y100.709 E0.01383
G1 X128.899 Y100.765 E0.01467
G1 X129.208 Y100.874 E0.01025
G1 X129.480 Y101.026 E0.00978
G1 X129.723 Y101.222 E0.00978
G1 X129.929 Y101.456 E0.00978
G1 X130.093 Y101.722 E0.00978
G1 X130.209 Y102.011 E0.00978
G1 X130.275 Y102.317 E0.00978
G1 X130.288 Y102.628 E0.00978
G1 X130.248 Y102.938 E0.00978
G1 X130.157 Y103.236 E0.00978
G1 X130.016 Y103.515 E0.00978
G1 X129.831 Y103.766 E0.00978
G1 X129.627 Y103.962 E0.00887
G1 X129.352 Y104.154 E0.01053
G1 X129.063 Y104.285 E0.00995
G1 X128.761 Y104.364 E0.00978
G1 X128.450 Y104.390 E0.00978
G1 X128.139 Y104.364 E0.00978
G1 X127.895 Y104.300 E0.00790
G1 X127.990 Y103.935 F10800.000
G1 F1200.000
G1 X127.737 Y103.826 E0.00864
G1 X127.532 Y103.687 E0.00777
G1 X127.353 Y103.516 E0.00777
G1 X127.205 Y103.317 E0.00777
G1 X127.094 Y103.095 E0.00777
G1 X127.021 Y102.858 E0.00777
G1 X126.990 Y102.612 E0.00777
G1 X127.000 Y102.365 E0.00777
G1 X127.052 Y102.122 E0.00777
G1 X127.135 Y101.916 E0.00696
G1 X127.274 Y101.683 E0.00852
G1 X127.438 Y101.495 E0.00783
G1 X127.631 Y101.339 E0.00777
G1 X127.848 Y101.219 E0.00777
G1 X128.086 Y101.134 E0.00791
G1 X128.437 Y101.089 E0.01110
G1 X128.813 Y101.134 E0.01188
G1 X129.052 Y101.219 E0.00794
G1 X129.268 Y101.339 E0.00777
G1 X129.461 Y101.495 E0.00777
G1 X129.625 Y101.681 E0.00777
G1 X129.755 Y101.892 E0.00777
G1 X129.847 Y102.122 E0.00777
G1 X129.899 Y102.365 E0.00777
G1 X129.910 Y102.612 E0.00777
G1 X129.878 Y102.858 E0.00777
G1 X129.806 Y103.095 E0.00777
G1 X129.694 Y103.317 E0.00777
G1 X129.547 Y103.516 E0.00777
G1 X129.387 Y103.669 E0.00696
G1 X129.164 Y103.825 E0.00852
G1 X128.937 Y103.928 E0.00783
G1 X128.697 Y103.991 E0.00777
G1 X128.450 Y104.012 E0.00777
G1 X128.203 Y103.991 E0.00777
G1 X128.048 Y103.950 E0.00502
G1 X127.783 Y104.117 F10800.000
G1 F8640.000
G1 X127.737 Y103.826 E-0.07732
G1 X127.532 Y103.687 E-0.05724
G1 X127.353 Y103.516 E-0.05724
G1 X127.205 Y103.317 E-0.05724
G1 X127.094 Y103.095 E-0.05724
G1 X127.021 Y102.858 E-0.05724
G1 X126.990 Y102.612 E-0.05724
G1 X127.000 Y102.365 E-0.05724
G1 X127.052 Y102.122 E-0.05724
G1 X127.135 Y101.916 E-0.05124
G1 X127.274 Y101.683 E-0.06274
G1 X127.438 Y101.495 E-0.05766
G1 X127.618 Y101.351 E-0.05314
G1 E-0.04000 F2100.00000
G1 Z0.600 F10800.000
G1 X120.349 Y102.938
G1 Z0.200
G1 E0.80000 F2100.00000
G1 F1200.000
G1 X120.257 Y103.236 E0.00978
G1 X120.117 Y103.515 E0.00979
G1 X119.931 Y103.766 E0.00978
G1 X119.727 Y103.962 E0.00887
G1 X119.452 Y104.154 E0.01053
G1 X119.163 Y104.285 E0.00995
G1 X118.861 Y104.364 E0.00978
G1 X118.550 Y104.390 E0.00978
G1 X118.239 Y104.364 E0.00978
G1 X117.937 Y104.285 E0.00978
G1 X117.653 Y104.157 E0.00978
G1 X117.394 Y103.982 E0.00978
G1 X117.169 Y103.766 E0.00978
G1 X116.984 Y103.515 E0.00978
G1 X116.843 Y103.236 E0.00978
G1 X116.760 Y102.966 E0.00887
G1 X116.712 Y102.633 E0.01053
G1 X116.725 Y102.317 E0.00995
G1 X116.791 Y102.011 E0.00978
G1 X116.896 Y101.749 E0.00887
G1 X117.068 Y101.460 E0.01053
G1 X117.277 Y101.222 E0.00995
G1 X117.520 Y101.026 E0.00978
G1 X117.792 Y100.874 E0.00978
G1 X118.087 Y100.770 E0.00978
G1 X118.395 Y100.717 E0.00981
G1 X118.705 Y100.717 E0.00973
G1 X119.014 Y100.770 E0.00981
G1 X119.308 Y100.874 E0.00978
G1 X119.581 Y101.026 E0.00978
G1 X119.823 Y101.222 E0.00978
G1 X120.030 Y101.456 E0.00978
G1 X120.193 Y101.722 E0.00978
G1 X120.310 Y102.011 E0.00979
G1 X120.375 Y102.317 E0.00978
G1 X120.389 Y102.628 E0.00978
G1 X120.357 Y102.878 E0.00790
G1 X119.982 Y102.830 F10800.000
G1 F1200.000
G1 X119.906 Y103.095 E0.00864
G1 X119.795 Y103.317 E0.00777
G1 X119.647 Y103.516 E0.00777
G1 X119.487 Y103.669 E0.00696
G1 X119.265 Y103.825 E0.00852
G1 X119.037 Y103.928 E0.00783
G1 X118.797 Y103.991 E0.00777
G1 X118.550 Y104.012 E0.00777
G1 X118.303 Y103.991 E0.00777
G1 X118.063 Y103.928 E0.00777
G1 X117.837 Y103.826 E0.00777
G1 X117.632 Y103.687 E0.00777
G1 X117.453 Y103.516 E0.00777
G1 X117.306 Y103.317 E0.00777
G1 X117.194 Y103.095 E0.00777
G1 X117.129 Y102.883 E0.00696
G1 X117.090 Y102.614 E0.00852
G1 X117.101 Y102.365 E0.00783
G1 X117.153 Y102.122 E0.00777
G1 X117.236 Y101.916 E0.00696
G1 X117.374 Y101.683 E0.00852
G1 X117.539 Y101.495 E0.00783
G1 X117.732 Y101.339 E0.00777
G1 X117.948 Y101.219 E0.00777
G1 X118.182 Y101.136 E0.00777
G1 X118.427 Y101.094 E0.00780
G1 X118.673 Y101.094 E0.00772
G1 X118.919 Y101.136 E0.00780
G1 X119.152 Y101.219 E0.00777
G1 X119.369 Y101.339 E0.00777
G1 X119.562 Y101.495 E0.00777
G1 X119.725 Y101.681 E0.00777
G1 X119.855 Y101.892 E0.00777
G1 X119.948 Y102.122 E0.00777
G1 X120.000 Y102.365 E0.00777
G1 X120.010 Y102.612 E0.00777
G1 X119.990 Y102.771 E0.00502
G1 X120.189 Y103.013 F10800.000
G1 F8640.000
G1 X119.906 Y103.095 E-0.07732
G1 X119.795 Y103.317 E-0.05724
G1 X119.647 Y103.516 E-0.05724
G1 X119.487 Y103.669 E-0.05124
G1 X119.265 Y103.825 E-0.06274
G1 X119.037 Y103.928 E-0.05766
G1 X118.797 Y103.991 E-0.05724
G1 X118.550 Y104.012 E-0.05724
G1 X118.303 Y103.991 E-0.05724
G1 X118.063 Y103.928 E-0.05724
G1 X117.837 Y103.826 E-0.05724
G1 X117.632 Y103.687 E-0.05724
G1 X117.466 Y103.528 E-0.05314
G1 E-0.04000 F2100.00000
G1 Z0.600 F10800.000
G1 X119.000 Y110.664
G1 Z0.200
G1 E0.80000 F2100.00000
G1 F1200.000
G1 X119.308 Y110.773 E0.01025
G1 X119.581 Y110.925 E0.00978
G1 X119.823 Y111.121 E0.00978
G1 X120.030 Y111.356 E0.00978
G1 X120.193 Y111.621 E0.00979
G1 X120.310 Y111.911 E0.00979
G1 X120.375 Y112.216 E0.00978
G1 X120.389 Y112.528 E0.00978
G1 X120.349 Y112.837 E0.00978
G1 X120.257 Y113.136 E0.00978
G1 X120.117 Y113.414 E0.00978
G1 X119.931 Y113.665 E0.00978
G1 X119.706 Y113.881 E0.00978
G1 X119.448 Y114.056 E0.00978
G1 X119.163 Y114.185 E0.00978
G1 X118.861 Y114.263 E0.00978
G1 X118.550 Y114.290 E0.00978
G1 X118.239 Y114.263 E0.00978
G1 X117.937 Y114.185 E0.00978
G1 X117.653 Y114.056 E0.00978
G1 X117.394 Y113.881 E0.00978
G1 X117.169 Y113.665 E0.00978
G1 X116.984 Y113.414 E0.00978
G1 X116.843 Y113.136 E0.00978
G1 X116.752 Y112.837 E0.00978
G1 X116.712 Y112.528 E0.00978
G1 X116.725 Y112.216 E0.00978
G1 X116.791 Y111.911 E0.00978
G1 X116.896 Y111.649 E0.00887
G1 X117.068 Y111.360 E0.01053
G1 X117.277 Y111.121 E0.00995
G1 X117.520 Y110.925 E0.00978
G1 X117.792 Y110.773 E0.00978
G1 X118.098 Y110.665 E0.01016
G1 X118.535 Y110.608 E0.01383
G1 X118.940 Y110.657 E0.01278
G1 X118.537 Y110.988 F10800.000
G1 F1200.000
G1 X118.913 Y111.034 E0.01188
G1 X119.152 Y111.118 E0.00794
G1 X119.369 Y111.239 E0.00777
G1 X119.562 Y111.395 E0.00777
G1 X119.725 Y111.581 E0.00777
G1 X119.855 Y111.792 E0.00777
G1 X119.948 Y112.022 E0.00777
G1 X120.000 Y112.264 E0.00777
G1 X120.010 Y112.512 E0.00777
G1 X119.979 Y112.758 E0.00777
G1 X119.906 Y112.995 E0.00777
G1 X119.795 Y113.216 E0.00777
G1 X119.647 Y113.415 E0.00777
G1 X119.468 Y113.587 E0.00777
G1 X119.263 Y113.726 E0.00777
G1 X119.037 Y113.828 E0.00777
G1 X118.797 Y113.890 E0.00777
G1 X118.550 Y113.911 E0.00777
G1 X118.303 Y113.890 E0.00777
G1 X118.063 Y113.828 E0.00777
G1 X117.837 Y113.726 E0.00777
G1 X117.632 Y113.587 E0.00777
G1 X117.453 Y113.415 E0.00777
G1 X117.306 Y113.216 E0.00777
G1 X117.194 Y112.995 E0.00777
G1 X117.122 Y112.758 E0.00777
G1 X117.090 Y112.512 E0.00777
G1 X117.101 Y112.264 E0.00777
G1 X117.153 Y112.022 E0.00777
G1 X117.236 Y111.816 E0.00696
G1 X117.374 Y111.582 E0.00852
G1 X117.539 Y111.395 E0.00783
G1 X117.732 Y111.239 E0.00777
G1 X117.948 Y111.118 E0.00777
G1 X118.186 Y111.034 E0.00791
G1 X118.478 Y110.996 E0.00922
G1 X118.729 Y110.662 F10800.000
G1 F8640.000
G1 X118.913 Y111.034 E-0.10099
G1 X119.152 Y111.118 E-0.05847
G1 X119.369 Y111.239 E-0.05724
G1 X119.562 Y111.395 E-0.05724
G1 X119.725 Y111.581 E-0.05724
G1 X119.855 Y111.792 E-0.05724
G1 X119.948 Y112.022 E-0.05724
G1 X120.000 Y112.264 E-0.05724
G1 X120.010 Y112.512 E-0.05724
G1 X119.979 Y112.758 E-0.05724
G1 X119.906 Y112.995 E-0.05724
G1 X119.795 Y113.216 E-0.05724
G1 X119.722 Y113.314 E-0.02817
G1 E-0.04000 F2100.00000
G1 Z0.600 F10800.000
G1 X126.625 Y112.216
G1 Z0.200
G1 E0.80000 F2100.00000
G1 F1200.000
G1 X126.690 Y111.911 E0.00978
G1 X126.796 Y111.649 E0.00887
G1 X126.967 Y111.360 E0.01053
G1 X127.177 Y111.121 E0.00995
G1 X127.419 Y110.925 E0.00978
G1 X127.692 Y110.773 E0.00978
G1 X127.986 Y110.669 E0.00978
G1 X128.295 Y110.616 E0.00981
G1 X128.605 Y110.616 E0.00973
G1 X128.913 Y110.669 E0.00981
G1 X129.208 Y110.773 E0.00978
G1 X129.480 Y110.925 E0.00978
G1 X129.723 Y111.121 E0.00978
G1 X129.929 Y111.356 E0.00978
G1 X130.093 Y111.621 E0.00978
G1 X130.209 Y111.911 E0.00978
G1 X130.275 Y112.216 E0.00978
G1 X130.288 Y112.528 E0.00978
G1 X130.248 Y112.837 E0.00978
G1 X130.157 Y113.136 E0.00978
G1 X130.016 Y113.414 E0.00978
G1 X129.831 Y113.665 E0.00978
G1 X129.606 Y113.881 E0.00978
G1 X129.347 Y114.056 E0.00978
G1 X129.063 Y114.185 E0.00978
G1 X128.761 Y114.263 E0.00978
G1 X128.450 Y114.290 E0.00978
G1 X128.139 Y114.263 E0.00978
G1 X127.837 Y114.185 E0.00978
G1 X127.552 Y114.056 E0.00978
G1 X127.294 Y113.881 E0.00978
G1 X127.069 Y113.665 E0.00978
G1 X126.883 Y113.414 E0.00978
G1 X126.743 Y113.136 E0.00978
G1 X126.651 Y112.837 E0.00978
G1 X126.611 Y112.528 E0.00978
G1 X126.622 Y112.276 E0.00790
