; generated by PrusaSlicer 2.2.0+win64 on 2023-01-05 at 14:01:21 UTC

; 

; external perimeters extrusion width = 0.45mm
; perimeters extrusion width = 0.45mm
; infill extrusion width = 0.45mm
; solid infill extrusion width = 0.45mm
; top infill extrusion width = 0.40mm
; support material extrusion width = 0.35mm
; first layer extrusion width = 0.42mm

M73 P0 R69
M73 Q0 S70
M201 X1000 Y1000 Z200 E5000 ; sets maximum accelerations, mm/sec^2
M203 X200 Y200 Z12 E120 ; sets maximum feedrates, mm/sec
M204 P1250 R1250 T1250 ; sets acceleration (P, T) and retract acceleration (R), mm/sec^2
M205 X8.00 Y8.00 Z0.40 E4.50 ; sets the jerk limits, mm/sec
M205 S0 T0 ; sets the minimum extruding and travel feed rate, mm/sec
M107
M862.3 P "MK3S" ; printer model check
M862.1 P0.4 ; nozzle diameter check
M115 U3.11.0 ; tell printer latest fw version
G90 ; use absolute coordinates
M83 ; extruder relative mode
M104 S220 ; set extruder temp
M140 S80 ; set bed temp
M190 S80 ; wait for bed temp
M109 S220 ; wait for extruder temp
G28 W ; home all without mesh bed level
G80 ; mesh bed leveling
G1 Y-3.0 F1000.0 ; go outside print area
G92 E0.0
G1 X60.0 E9.0 F1000.0 ; intro line
M73 Q0 S69
M73 P0 R69
G1 X100.0 E12.5 F1000.0 ; intro line
G92 E0.0
M221 S95

; Don't change E values below. Excessive value can damage the printer.
M907 E430 ; set extruder motor current
G21 ; set units to millimeters
G90 ; use absolute coordinates
M83 ; use relative distances for extrusion
M900 K0.05 ; Filament gcode LA 1.5
M900 K30 ; Filament gcode LA 1.0
;BEFORE_LAYER_CHANGE
G92 E0.0
;0.2


G1 E-0.80000 F2100.00000
G1 Z0.400 F10800.000
;AFTER_LAYER_CHANGE
;0.2
G1 X104.336 Y76.515
G1 Z0.200
G1 E0.80000 F2100.00000
M204 S1000
G1 F1200.000
G1 X104.676 Y75.975 E0.02000
G1 X105.043 Y75.622 E0.01597
G1 X105.473 Y75.356 E0.01585
G1 X105.950 Y75.187 E0.01585
G1 X106.452 Y75.123 E0.01585
G1 X146.504 Y75.123 E1.25581
G1 X147.392 Y75.297 E0.02837
G1 X148.153 Y75.792 E0.02849
G1 X148.672 Y76.534 E0.02837
G1 X148.876 Y77.419 E0.02849
G1 X148.877 Y127.527 E1.57109
G1 X148.730 Y128.324 E0.02543
G1 X148.323 Y129.026 E0.02543
G1 X147.739 Y129.528 E0.02414
G1 X133.766 Y137.991 E0.51219
G1 X133.275 Y138.215 E0.01692
G1 X132.560 Y138.331 E0.02272
G1 X119.687 Y138.331 E0.40364
G1 X119.100 Y138.248 E0.01858
G1 X118.551 Y138.023 E0.01858
G1 X101.973 Y128.322 E0.60226
G1 X101.625 Y127.961 E0.01574
G1 X101.361 Y127.538 E0.01562
G1 X101.191 Y127.066 E0.01574
G1 X101.124 Y126.568 E0.01574
G1 X101.126 Y98.378 E0.88389
G1 X104.153 Y77.126 E0.67306
G1 X104.319 Y76.573 E0.01812
; printing object L knee top.STL id:0 copy 0
G1 F8640.000
G1 X104.676 Y75.975 E-0.16071
G1 X105.043 Y75.622 E-0.11763
G1 X105.473 Y75.356 E-0.11675
G1 X105.950 Y75.187 E-0.11675
G1 X106.452 Y75.123 E-0.11675
G1 X107.021 Y75.123 E-0.13140
G1 E-0.04000 F2100.00000
G1 Z0.600 F10800.000
G1 X132.542 Y135.954
G1 Z0.200
G1 E0.80000 F2100.00000
G1 F1200.000
G1 X132.542 Y127.914 E0.25209
G1 X131.787 Y127.914 E0.02365
G1 X131.787 Y135.784 E0.24677
G1 X131.033 Y135.784 E0.02365
G1 X131.033 Y127.914 E0.24677
G1 X130.279 Y127.914 E0.02365
G1 X130.279 Y135.784 E0.24677
G1 X129.525 Y135.784 E0.02365
G1 X129.525 Y127.914 E0.24677
G1 X128.771 Y127.914 E0.02365
G1 X128.771 Y135.784 E0.24677
G1 X128.017 Y135.784 E0.02365
G1 X128.017 Y127.914 E0.24677
G1 X127.262 Y127.914 E0.02365
G1 X127.262 Y135.784 E0.24677
G1 X126.508 Y135.784 E0.02365
G1 X126.508 Y127.914 E0.24677
G1 X125.754 Y127.914 E0.02365
G1 X125.754 Y135.784 E0.24677
G1 X125.000 Y135.784 E0.02365
G1 X125.000 Y127.914 E0.24677
G1 X124.246 Y127.914 E0.02365
G1 X124.246 Y135.784 E0.24677
G1 X123.492 Y135.784 E0.02365
G1 X123.492 Y127.914 E0.24677
G1 X122.738 Y127.914 E0.02365
G1 X122.738 Y135.784 E0.24677
G1 X121.983 Y135.784 E0.02365
G1 X121.983 Y127.914 E0.24677
G1 X121.229 Y127.914 E0.02365
G1 X121.229 Y135.784 E0.24677
G1 X120.475 Y135.784 E0.02365
G1 X120.475 Y127.914 E0.24677
G1 X119.721 Y127.914 E0.02365
G1 X119.721 Y135.954 E0.25209
G1 F8640.000
G1 X119.721 Y132.662 E-0.76000
G1 E-0.04000 F2100.00000
G1 Z0.600 F10800.000
G1 X107.287 Y125.713
G1 Z0.200
G1 E0.80000 F2100.00000
G1 F1200.000
G1 X104.287 Y125.713 E0.09406
G1 X104.287 Y99.287 E0.82856
G1 X107.287 Y99.287 E0.09406
G1 X107.287 Y78.287 E0.65844
G1 X145.713 Y78.287 E1.20482
G1 X145.713 Y126.713 E1.51836
G1 X107.287 Y126.713 E1.20482
G1 X107.287 Y125.773 E0.02947
G1 X106.910 Y126.090 F10800.000
G1 F1200.000
G1 X103.910 Y126.090 E0.09406
G1 X103.910 Y98.910 E0.85221
G1 X106.910 Y98.910 E0.09406
G1 X106.910 Y77.910 E0.65844
G1 X146.090 Y77.910 E1.22846
G1 X146.090 Y127.090 E1.54200
G1 X106.910 Y127.090 E1.22846
G1 X106.910 Y126.150 E0.02947
G1 X106.713 Y125.742 F10800.000
G1 X107.312 Y125.600
G1 F1200.000
G1 X104.570 Y122.858 E0.12225
G1 X104.570 Y123.394 E0.01691
G1 X106.606 Y125.430 E0.09078
G1 X106.070 Y125.430 E0.01691
G1 X104.570 Y123.930 E0.06687
G1 X104.570 Y124.467 E0.01691
G1 X105.533 Y125.430 E0.04296
G1 X104.997 Y125.430 E0.01691
G1 X104.400 Y124.833 E0.02662
G1 F8640.000
G1 X104.997 Y125.430 E-0.19495
G1 X105.533 Y125.430 E-0.12381
G1 X104.570 Y124.467 E-0.31464
G1 X104.570 Y123.930 E-0.12381
G1 X104.578 Y123.939 E-0.00278
G1 E-0.04000 F2100.00000
G1 Z0.600 F10800.000
G1 X107.776 Y126.600
G1 Z0.200
G1 E0.80000 F2100.00000
G1 F1200.000
G1 X107.570 Y126.394 E0.00917
G1 X107.570 Y125.858 E0.01691
G1 X108.142 Y126.430 E0.02551
G1 X108.678 Y126.430 E0.01691
G1 X104.570 Y122.322 E0.18318
G1 X104.570 Y121.786 E0.01691
G1 X109.214 Y126.430 E0.20708
G1 X109.751 Y126.430 E0.01691
G1 X104.570 Y121.249 E0.23099
G1 X104.570 Y120.713 E0.01691
G1 X110.287 Y126.430 E0.25490
G1 X110.823 Y126.430 E0.01691
G1 X104.570 Y120.177 E0.27881
G1 X104.570 Y119.641 E0.01691
G1 X111.359 Y126.430 E0.30271
G1 X111.896 Y126.430 E0.01691
G1 X104.570 Y119.104 E0.32662
G1 X104.570 Y118.568 E0.01691
G1 X112.432 Y126.430 E0.35053
G1 X112.968 Y126.430 E0.01691
G1 X104.570 Y118.032 E0.37443
G1 X104.570 Y117.496 E0.01691
G1 X113.504 Y126.430 E0.39834
G1 X114.040 Y126.430 E0.01691
G1 X104.570 Y116.960 E0.42225
G1 X104.570 Y116.423 E0.01691
G1 X114.577 Y126.430 E0.44616
G1 X115.113 Y126.430 E0.01691
G1 X104.570 Y115.887 E0.47006
G1 X104.570 Y115.351 E0.01691
G1 X115.649 Y126.430 E0.49397
G1 X116.185 Y126.430 E0.01691
G1 X104.570 Y114.815 E0.51788
G1 X104.570 Y114.279 E0.01691
G1 X116.721 Y126.430 E0.54179
G1 X117.258 Y126.430 E0.01691
G1 X104.570 Y113.742 E0.56569
G1 X104.570 Y113.206 E0.01691
G1 X117.794 Y126.430 E0.58960
G1 X118.330 Y126.430 E0.01691
G1 X104.570 Y112.670 E0.61351
G1 X104.570 Y112.134 E0.01691
G1 X118.866 Y126.430 E0.63742
G1 X119.402 Y126.430 E0.01691
G1 X104.570 Y111.598 E0.66132
G1 X104.570 Y111.061 E0.01691
G1 X119.939 Y126.430 E0.68523
G1 X120.475 Y126.430 E0.01691
G1 X104.570 Y110.525 E0.70914
G1 X104.570 Y109.989 E0.01691
G1 X121.011 Y126.430 E0.73305
M73 Q1 S68
M73 P1 R68
G1 X121.547 Y126.430 E0.01691
G1 X104.570 Y109.453 E0.75695
G1 X104.570 Y108.917 E0.01691
G1 X122.083 Y126.430 E0.78086
G1 X122.620 Y126.430 E0.01691
G1 X104.570 Y108.380 E0.80477
G1 X104.570 Y107.844 E0.01691
G1 X123.156 Y126.430 E0.82868
G1 X123.692 Y126.430 E0.01691
G1 X104.570 Y107.308 E0.85258
G1 X104.570 Y106.772 E0.01691
G1 X124.228 Y126.430 E0.87649
G1 X124.765 Y126.430 E0.01691
G1 X104.570 Y106.235 E0.90040
G1 X104.570 Y105.699 E0.01691
G1 X125.301 Y126.430 E0.92431
G1 X125.837 Y126.430 E0.01691
G1 X104.570 Y105.163 E0.94821
G1 X104.570 Y104.627 E0.01691
G1 X126.373 Y126.430 E0.97212
G1 X126.909 Y126.430 E0.01691
G1 X104.570 Y104.091 E0.99603
G1 X104.570 Y103.554 E0.01691
G1 X127.446 Y126.430 E1.01993
G1 X127.982 Y126.430 E0.01691
G1 X104.570 Y103.018 E1.04384
G1 X104.570 Y102.482 E0.01691
G1 X128.518 Y126.430 E1.06775
G1 X129.054 Y126.430 E0.01691
G1 X104.570 Y101.946 E1.09166
G1 X104.570 Y101.410 E0.01691
G1 X129.590 Y126.430 E1.11556
G1 X130.127 Y126.430 E0.01691
G1 X104.570 Y100.873 E1.13947
G1 X104.570 Y100.337 E0.01691
G1 X130.663 Y126.430 E1.16338
G1 X131.199 Y126.430 E0.01691
G1 X104.570 Y99.801 E1.18729
G1 X104.570 Y99.570 E0.00729
G1 X104.875 Y99.570 E0.00962
G1 X131.735 Y126.430 E1.19759
G1 X132.271 Y126.430 E0.01691
G1 X105.411 Y99.570 E1.19759
G1 X105.947 Y99.570 E0.01691
G1 X132.808 Y126.430 E1.19759
G1 X133.344 Y126.430 E0.01691
G1 X106.484 Y99.570 E1.19759
G1 X107.020 Y99.570 E0.01691
G1 X133.880 Y126.430 E1.19759
G1 X134.416 Y126.430 E0.01691
G1 X107.556 Y99.570 E1.19759
G1 X107.570 Y99.570 E0.00044
G1 X107.570 Y99.048 E0.01647
G1 X134.952 Y126.430 E1.22088
G1 X135.489 Y126.430 E0.01691
G1 X107.570 Y98.511 E1.24479
G1 X107.570 Y97.975 E0.01691
G1 X136.025 Y126.430 E1.26869
G1 X136.561 Y126.430 E0.01691
G1 X107.570 Y97.439 E1.29260
G1 X107.570 Y96.903 E0.01691
G1 X137.097 Y126.430 E1.31651
G1 X137.634 Y126.430 E0.01691
G1 X107.570 Y96.366 E1.34042
G1 X107.570 Y95.830 E0.01691
G1 X138.170 Y126.430 E1.36432
G1 X138.706 Y126.430 E0.01691
G1 X107.570 Y95.294 E1.38823
G1 X107.570 Y94.758 E0.01691
G1 X139.242 Y126.430 E1.41214
M73 Q3 S67
M73 P3 R67
G1 X139.778 Y126.430 E0.01691
G1 X107.570 Y94.222 E1.43605
G1 X107.570 Y93.685 E0.01691
G1 X140.315 Y126.430 E1.45995
G1 X140.851 Y126.430 E0.01691
G1 X107.570 Y93.149 E1.48386
G1 X107.570 Y92.613 E0.01691
G1 X141.387 Y126.430 E1.50777
G1 X141.923 Y126.430 E0.01691
G1 X107.570 Y92.077 E1.53168
G1 X107.570 Y91.541 E0.01691
G1 X142.459 Y126.430 E1.55558
G1 X142.996 Y126.430 E0.01691
G1 X107.570 Y91.004 E1.57949
G1 X107.570 Y90.468 E0.01691
G1 X143.532 Y126.430 E1.60340
G1 X144.068 Y126.430 E0.01691
G1 X107.570 Y89.932 E1.62731
G1 X107.570 Y89.396 E0.01691
G1 X144.604 Y126.430 E1.65121
G1 X145.140 Y126.430 E0.01691
G1 X107.570 Y88.860 E1.67512
G1 X107.570 Y88.323 E0.01691
G1 X145.430 Y126.184 E1.68804
G1 X145.430 Y125.647 E0.01691
G1 X107.570 Y87.787 E1.68804
G1 X107.570 Y87.251 E0.01691
G1 X145.430 Y125.111 E1.68804
G1 X145.430 Y124.575 E0.01691
G1 X107.570 Y86.715 E1.68804
G1 X107.570 Y86.178 E0.01691
G1 X145.430 Y124.039 E1.68804
G1 X145.430 Y123.503 E0.01691
G1 X107.570 Y85.642 E1.68804
G1 X107.570 Y85.106 E0.01691
G1 X145.430 Y122.966 E1.68804
G1 X145.430 Y122.430 E0.01691
G1 X107.570 Y84.570 E1.68804
G1 X107.570 Y84.034 E0.01691
G1 X145.430 Y121.894 E1.68804
G1 X145.430 Y121.358 E0.01691
G1 X107.570 Y83.497 E1.68804
G1 X107.570 Y82.961 E0.01691
G1 X145.430 Y120.821 E1.68804
G1 X145.430 Y120.285 E0.01691
G1 X107.570 Y82.425 E1.68804
M73 Q4 S66
M73 P4 R66
G1 X107.570 Y81.889 E0.01691
G1 X145.430 Y119.749 E1.68804
G1 X145.430 Y119.213 E0.01691
G1 X107.570 Y81.353 E1.68804
G1 X107.570 Y80.816 E0.01691
G1 X145.430 Y118.677 E1.68804
G1 X145.430 Y118.140 E0.01691
G1 X107.570 Y80.280 E1.68804
G1 X107.570 Y79.744 E0.01691
G1 X145.430 Y117.604 E1.68804
G1 X145.430 Y117.068 E0.01691
G1 X107.570 Y79.208 E1.68804
G1 X107.570 Y78.672 E0.01691
G1 X145.430 Y116.532 E1.68804
G1 X145.430 Y115.996 E0.01691
G1 X108.004 Y78.570 E1.66866
G1 X108.541 Y78.570 E0.01691
G1 X145.430 Y115.459 E1.64475
G1 X145.430 Y114.923 E0.01691
G1 X109.077 Y78.570 E1.62085
G1 X109.613 Y78.570 E0.01691
G1 X145.430 Y114.387 E1.59694
G1 X145.430 Y113.851 E0.01691
G1 X110.149 Y78.570 E1.57303
G1 X110.685 Y78.570 E0.01691
G1 X145.430 Y113.315 E1.54913
G1 X145.430 Y112.778 E0.01691
G1 X111.222 Y78.570 E1.52522
G1 X111.758 Y78.570 E0.01691
G1 X145.430 Y112.242 E1.50131
G1 X145.430 Y111.706 E0.01691
G1 X112.294 Y78.570 E1.47740
G1 X112.830 Y78.570 E0.01691
G1 X145.430 Y111.170 E1.45350
G1 X145.430 Y110.634 E0.01691
G1 X113.366 Y78.570 E1.42959
G1 X113.903 Y78.570 E0.01691
G1 X145.430 Y110.097 E1.40568
G1 X145.430 Y109.561 E0.01691
G1 X114.439 Y78.570 E1.38177
G1 X114.975 Y78.570 E0.01691
G1 X145.430 Y109.025 E1.35787
G1 X145.430 Y108.489 E0.01691
G1 X115.511 Y78.570 E1.33396
G1 X116.048 Y78.570 E0.01691
G1 X145.430 Y107.952 E1.31005
G1 X145.430 Y107.416 E0.01691
G1 X116.584 Y78.570 E1.28614
G1 X117.120 Y78.570 E0.01691
G1 X145.430 Y106.880 E1.26224
M73 Q5 S65
M73 P5 R65
G1 X145.430 Y106.344 E0.01691
G1 X117.656 Y78.570 E1.23833
G1 X118.192 Y78.570 E0.01691
G1 X145.430 Y105.808 E1.21442
G1 X145.430 Y105.271 E0.01691
G1 X118.729 Y78.570 E1.19051
G1 X119.265 Y78.570 E0.01691
G1 X145.430 Y104.735 E1.16661
G1 X145.430 Y104.199 E0.01691
G1 X119.801 Y78.570 E1.14270
G1 X120.337 Y78.570 E0.01691
G1 X145.430 Y103.663 E1.11879
G1 X145.430 Y103.127 E0.01691
G1 X120.873 Y78.570 E1.09488
G1 X121.410 Y78.570 E0.01691
G1 X145.430 Y102.590 E1.07098
G1 X145.430 Y102.054 E0.01691
G1 X121.946 Y78.570 E1.04707
G1 X122.482 Y78.570 E0.01691
G1 X145.430 Y101.518 E1.02316
G1 X145.430 Y100.982 E0.01691
G1 X123.018 Y78.570 E0.99925
G1 X123.554 Y78.570 E0.01691
G1 X145.430 Y100.446 E0.97535
G1 X145.430 Y99.909 E0.01691
G1 X124.091 Y78.570 E0.95144
G1 X124.627 Y78.570 E0.01691
G1 X145.430 Y99.373 E0.92753
G1 X145.430 Y98.837 E0.01691
G1 X125.163 Y78.570 E0.90363
G1 X125.699 Y78.570 E0.01691
G1 X145.430 Y98.301 E0.87972
G1 X145.430 Y97.764 E0.01691
G1 X126.236 Y78.570 E0.85581
G1 X126.772 Y78.570 E0.01691
G1 X145.430 Y97.228 E0.83190
G1 X145.430 Y96.692 E0.01691
G1 X127.308 Y78.570 E0.80800
G1 X127.844 Y78.570 E0.01691
G1 X145.430 Y96.156 E0.78409
G1 X145.430 Y95.620 E0.01691
G1 X128.380 Y78.570 E0.76018
G1 X128.917 Y78.570 E0.01691
G1 X145.430 Y95.083 E0.73627
G1 X145.430 Y94.547 E0.01691
G1 X129.453 Y78.570 E0.71237
G1 X129.989 Y78.570 E0.01691
G1 X145.430 Y94.011 E0.68846
G1 X145.430 Y93.475 E0.01691
G1 X130.525 Y78.570 E0.66455
G1 X131.061 Y78.570 E0.01691
G1 X145.430 Y92.939 E0.64064
G1 X145.430 Y92.402 E0.01691
G1 X131.598 Y78.570 E0.61674
G1 X132.134 Y78.570 E0.01691
G1 X145.430 Y91.866 E0.59283
G1 X145.430 Y91.330 E0.01691
G1 X132.670 Y78.570 E0.56892
G1 X133.206 Y78.570 E0.01691
G1 X145.430 Y90.794 E0.54501
G1 X145.430 Y90.258 E0.01691
G1 X133.742 Y78.570 E0.52111
G1 X134.279 Y78.570 E0.01691
G1 X145.430 Y89.721 E0.49720
G1 X145.430 Y89.185 E0.01691
G1 X134.815 Y78.570 E0.47329
G1 X135.351 Y78.570 E0.01691
G1 X145.430 Y88.649 E0.44938
G1 X145.430 Y88.113 E0.01691
G1 X135.887 Y78.570 E0.42548
G1 X136.423 Y78.570 E0.01691
G1 X145.430 Y87.577 E0.40157
G1 X145.430 Y87.040 E0.01691
G1 X136.960 Y78.570 E0.37766
G1 X137.496 Y78.570 E0.01691
G1 X145.430 Y86.504 E0.35376
G1 X145.430 Y85.968 E0.01691
G1 X138.032 Y78.570 E0.32985
G1 X138.568 Y78.570 E0.01691
G1 X145.430 Y85.432 E0.30594
G1 X145.430 Y84.895 E0.01691
G1 X139.105 Y78.570 E0.28203
G1 X139.641 Y78.570 E0.01691
G1 X145.430 Y84.359 E0.25813
G1 X145.430 Y83.823 E0.01691
G1 X140.177 Y78.570 E0.23422
G1 X140.713 Y78.570 E0.01691
G1 X145.430 Y83.287 E0.21031
G1 X145.430 Y82.751 E0.01691
G1 X141.249 Y78.570 E0.18640
G1 X141.786 Y78.570 E0.01691
G1 X145.430 Y82.214 E0.16250
G1 X145.430 Y81.678 E0.01691
G1 X142.322 Y78.570 E0.13859
G1 X142.858 Y78.570 E0.01691
G1 X145.430 Y81.142 E0.11468
G1 X145.430 Y80.606 E0.01691
G1 X143.394 Y78.570 E0.09077
G1 X143.930 Y78.570 E0.01691
G1 X145.430 Y80.070 E0.06687
G1 X145.430 Y79.533 E0.01691
G1 X144.467 Y78.570 E0.04296
G1 X145.003 Y78.570 E0.01691
G1 X145.600 Y79.167 E0.02662
; stop printing object L knee top.STL id:0 copy 0
M106 S255
;BEFORE_LAYER_CHANGE
G92 E0.0
;0.35


G1 F8640.000
G1 X145.003 Y78.570 E-0.19495
G1 X144.467 Y78.570 E-0.12381
G1 X145.430 Y79.533 E-0.31463
G1 X145.430 Y80.070 E-0.12381
G1 X145.422 Y80.061 E-0.00280
G1 E-0.04000 F2100.00000
G1 Z0.600 F10800.000
;AFTER_LAYER_CHANGE
;0.35
M104 S215 ; set temperature
M140 S60 ; set bed temperature
G1 X148.672 Y76.534
G1 Z0.350
G1 E0.80000 F2100.00000
G1 F3000.000
G1 X148.876 Y77.419 E0.02197
G1 X148.877 Y127.527 E1.21185
G1 X148.730 Y128.324 E0.01962
G1 X148.323 Y129.026 E0.01962
G1 X147.739 Y129.528 E0.01862
G1 X133.766 Y137.991 E0.39508
G1 X133.275 Y138.215 E0.01305
G1 X132.560 Y138.331 E0.01753
G1 X119.687 Y138.331 E0.31134
G1 X119.100 Y138.248 E0.01433
G1 X118.551 Y138.023 E0.01433
G1 X101.973 Y128.322 E0.46455
G1 X101.625 Y127.961 E0.01214
G1 X101.361 Y127.538 E0.01205
G1 X101.191 Y127.066 E0.01214
G1 X101.124 Y126.568 E0.01214
G1 X101.126 Y98.378 E0.68178
G1 X104.153 Y77.126 E0.51916
G1 X104.336 Y76.515 E0.01543
G1 X104.676 Y75.975 E0.01543
G1 X105.043 Y75.622 E0.01232
G1 X105.473 Y75.356 E0.01223
G1 X105.950 Y75.187 E0.01223
G1 X106.452 Y75.123 E0.01223
G1 X146.504 Y75.123 E0.96866
