; generated by PrusaSlicer 2.2.0+win64 on 2023-01-05 at 14:02:05 UTC

; 

; external perimeters extrusion width = 0.45mm
; perimeters extrusion width = 0.45mm
; infill extrusion width = 0.45mm
; solid infill extrusion width = 0.45mm
; top infill extrusion width = 0.40mm
; support material extrusion width = 0.35mm
; first layer extrusion width = 0.42mm

M73 P0 R84
M73 Q0 S85
M201 X1000 Y1000 Z200 E5000 ; sets maximum accelerations, mm/sec^2
M203 X200 Y200 Z12 E120 ; sets maximum feedrates, mm/sec
M204 P1250 R1250 T1250 ; sets acceleration (P, T) and retract acceleration (R), mm/sec^2
M205 X8.00 Y8.00 Z0.40 E4.50 ; sets the jerk limits, mm/sec
M205 S0 T0 ; sets the minimum extruding and travel feed rate, mm/sec
M107
M862.3 P "MK3S" ; printer model check
M862.1 P0.4 ; nozzle diameter check
M115 U3.11.0 ; tell printer latest fw version
G90 ; use absolute coordinates
M83 ; extruder relative mode
M104 S220 ; set extruder temp
M140 S80 ; set bed temp
M190 S80 ; wait for bed temp
M109 S220 ; wait for extruder temp
G28 W ; home all without mesh bed level
G80 ; mesh bed leveling
G1 Y-3.0 F1000.0 ; go outside print area
G92 E0.0
G1 X60.0 E9.0 F1000.0 ; intro line
M73 Q0 S85
M73 P0 R84
G1 X100.0 E12.5 F1000.0 ; intro line
G92 E0.0
M221 S95

; Don't change E values below. Excessive value can damage the printer.
M907 E430 ; set extruder motor current
G21 ; set units to millimeters
G90 ; use absolute coordinates
M83 ; use relative distances for extrusion
M900 K0.05 ; Filament gcode LA 1.5
M900 K30 ; Filament gcode LA 1.0
;BEFORE_LAYER_CHANGE
G92 E0.0
;0.2


G1 E-0.80000 F2100.00000
G1 Z0.400 F10800.000
;AFTER_LAYER_CHANGE
;0.2
G1 X111.335 Y65.503
G1 Z0.200
G1 E0.80000 F2100.00000
M204 S1000
G1 F1200.000
G1 X111.857 Y65.143 E0.01989
G1 X112.366 Y64.954 E0.01704
G1 X112.906 Y64.886 E0.01704
G1 X134.804 Y64.885 E0.68661
G1 X135.325 Y64.943 E0.01645
G1 X135.825 Y65.116 E0.01657
G1 X136.274 Y65.394 E0.01657
G1 X136.650 Y65.765 E0.01657
G1 X141.328 Y72.929 E0.26826
G1 X145.630 Y81.445 E0.29914
G1 X145.827 Y82.016 E0.01894
G1 X148.873 Y103.357 E0.67593
G1 X148.877 Y131.504 E0.88252
G1 X148.821 Y132.014 E0.01609
G1 X148.494 Y132.793 E0.02649
G1 X147.916 Y133.409 E0.02649
G1 X131.640 Y144.856 E0.62389
G1 X131.190 Y145.103 E0.01609
G1 X130.300 Y145.284 E0.02849
G1 X117.447 Y145.284 E0.40300
G1 X116.944 Y145.228 E0.01585
G1 X116.483 Y145.075 E0.01526
G1 X116.058 Y144.828 E0.01538
G1 X102.049 Y134.383 E0.54792
G1 X101.511 Y133.801 E0.02484
G1 X101.194 Y133.075 E0.02484
G1 X101.123 Y132.500 E0.01816
G1 X101.123 Y82.496 E1.56783
G1 X101.179 Y81.986 E0.01609
G1 X101.471 Y81.262 E0.02449
G1 X110.927 Y65.989 E0.56321
G1 X111.296 Y65.549 E0.01800
; printing object L shoulder top.STL id:0 copy 0
G1 F8640.000
G1 X111.857 Y65.143 E-0.15984
G1 X112.366 Y64.954 E-0.12549
G1 X112.906 Y64.886 E-0.12550
G1 X114.418 Y64.886 E-0.34917
G1 E-0.04000 F2100.00000
G1 Z0.600 F10800.000
G1 X112.933 Y82.256
G1 Z0.200
G1 E0.80000 F2100.00000
G1 F1200.000
G1 X112.933 Y67.263 E0.47011
G1 X113.688 Y67.263 E0.02365
G1 X113.688 Y82.086 E0.46479
G1 X114.442 Y82.086 E0.02365
G1 X114.442 Y67.263 E0.46479
G1 X115.196 Y67.263 E0.02365
G1 X115.196 Y82.086 E0.46479
G1 X115.950 Y82.086 E0.02365
G1 X115.950 Y67.263 E0.46479
G1 X116.704 Y67.263 E0.02365
G1 X116.704 Y82.086 E0.46479
G1 X117.458 Y82.086 E0.02365
G1 X117.458 Y67.263 E0.46479
G1 X118.213 Y67.263 E0.02365
G1 X118.213 Y82.086 E0.46479
G1 X118.967 Y82.086 E0.02365
G1 X118.967 Y67.263 E0.46479
G1 X119.721 Y67.263 E0.02365
G1 X119.721 Y82.086 E0.46479
G1 X120.475 Y82.086 E0.02365
G1 X120.475 Y67.263 E0.46479
G1 X121.229 Y67.263 E0.02365
G1 X121.229 Y82.086 E0.46479
G1 X121.983 Y82.086 E0.02365
G1 X121.983 Y67.263 E0.46479
G1 X122.738 Y67.263 E0.02365
G1 X122.738 Y82.086 E0.46479
G1 X123.335 Y82.086 E0.01872
G1 X123.335 Y77.839 E0.13318
G1 X123.492 Y77.839 E0.00492
G1 X123.492 Y67.263 E0.33161
G1 X124.246 Y67.263 E0.02365
G1 X124.246 Y77.839 E0.33161
G1 X124.348 Y77.839 E0.00319
G1 X124.348 Y82.086 E0.13318
G1 X125.000 Y82.086 E0.02046
G1 X125.000 Y67.263 E0.46479
G1 X125.754 Y67.263 E0.02365
G1 X125.754 Y82.086 E0.46479
G1 X126.508 Y82.086 E0.02365
G1 X126.508 Y67.263 E0.46479
G1 X127.262 Y67.263 E0.02365
G1 X127.262 Y82.086 E0.46479
G1 X128.017 Y82.086 E0.02365
G1 X128.017 Y67.263 E0.46479
G1 X128.771 Y67.263 E0.02365
G1 X128.771 Y82.086 E0.46479
G1 X129.525 Y82.086 E0.02365
G1 X129.525 Y67.263 E0.46479
G1 X130.279 Y67.263 E0.02365
G1 X130.279 Y82.086 E0.46479
G1 X131.033 Y82.086 E0.02365
G1 X131.033 Y67.263 E0.46479
G1 X131.787 Y67.263 E0.02365
G1 X131.787 Y82.086 E0.46479
G1 X132.542 Y82.086 E0.02365
G1 X132.542 Y67.263 E0.46479
G1 X133.296 Y67.263 E0.02365
G1 X133.296 Y82.086 E0.46479
G1 X134.050 Y82.086 E0.02365
G1 X134.050 Y67.263 E0.46479
G1 X134.804 Y67.263 E0.02365
G1 X134.804 Y82.086 E0.46479
G1 X135.558 Y82.086 E0.02365
G1 X135.558 Y74.216 E0.24677
G1 X136.312 Y74.216 E0.02365
G1 X136.312 Y82.086 E0.24677
G1 X137.067 Y82.086 E0.02365
G1 X137.067 Y74.216 E0.24677
G1 X137.821 Y74.216 E0.02365
G1 X137.821 Y82.086 E0.24677
G1 X138.575 Y82.086 E0.02365
G1 X138.575 Y74.216 E0.24677
G1 X139.329 Y74.216 E0.02365
G1 X139.329 Y82.256 E0.25209
G1 F8640.000
G1 X139.329 Y78.965 E-0.76000
G1 E-0.04000 F2100.00000
G1 Z0.600 F10800.000
G1 X130.279 Y142.907
G1 Z0.200
G1 E0.80000 F2100.00000
G1 F1200.000
G1 X130.279 Y132.914 E0.31334
G1 X129.525 Y132.914 E0.02365
G1 X129.525 Y142.737 E0.30802
G1 X128.771 Y142.737 E0.02365
G1 X128.771 Y132.914 E0.30802
G1 X128.017 Y132.914 E0.02365
G1 X128.017 Y142.737 E0.30802
G1 X127.262 Y142.737 E0.02365
G1 X127.262 Y132.914 E0.30802
G1 X126.508 Y132.914 E0.02365
G1 X126.508 Y142.737 E0.30802
G1 X125.754 Y142.737 E0.02365
G1 X125.754 Y132.914 E0.30802
G1 X125.000 Y132.914 E0.02365
G1 X125.000 Y142.737 E0.30802
G1 X124.246 Y142.737 E0.02365
G1 X124.246 Y132.914 E0.30802
G1 X123.492 Y132.914 E0.02365
G1 X123.492 Y142.737 E0.30802
G1 X122.738 Y142.737 E0.02365
G1 X122.738 Y132.914 E0.30802
G1 X121.983 Y132.914 E0.02365
G1 X121.983 Y142.737 E0.30802
G1 X121.229 Y142.737 E0.02365
G1 X121.229 Y132.914 E0.30802
G1 X120.475 Y132.914 E0.02365
G1 X120.475 Y142.737 E0.30802
G1 X119.721 Y142.737 E0.02365
G1 X119.721 Y132.914 E0.30802
G1 X118.967 Y132.914 E0.02365
G1 X118.967 Y142.737 E0.30802
G1 X118.213 Y142.737 E0.02365
G1 X118.213 Y132.914 E0.30802
G1 X117.458 Y132.914 E0.02365
G1 X117.458 Y142.907 E0.31334
G1 F8640.000
G1 X117.458 Y139.616 E-0.76000
G1 E-0.04000 F2100.00000
G1 Z0.600 F10800.000
G1 X142.713 Y104.287
G1 Z0.200
G1 E0.80000 F2100.00000
G1 F1200.000
G1 X145.713 Y104.287 E0.09406
G1 X145.713 Y130.713 E0.82856
G1 X142.713 Y130.713 E0.09406
G1 X142.713 Y131.713 E0.03135
G1 X104.287 Y131.713 E1.20482
G1 X104.287 Y83.287 E1.51836
G1 X142.713 Y83.287 E1.20482
M73 Q1 S84
M73 P1 R83
G1 X142.713 Y104.227 E0.65656
G1 X143.090 Y103.910 F10800.000
G1 F1200.000
G1 X146.090 Y103.910 E0.09406
G1 X146.090 Y131.090 E0.85221
G1 X143.090 Y131.090 E0.09406
G1 X143.090 Y132.090 E0.03135
G1 X103.910 Y132.090 E1.22846
G1 X103.910 Y82.910 E1.54200
G1 X143.090 Y82.910 E1.22846
G1 X143.090 Y103.850 E0.65656
G1 X143.231 Y104.284 F10800.000
G1 X142.600 Y103.914
G1 F1200.000
G1 X122.256 Y83.570 E0.90296
G1 X122.790 Y83.570 E0.01675
G1 X142.430 Y103.210 E0.87173
G1 X142.430 Y102.676 E0.01675
G1 X123.324 Y83.570 E0.84804
G1 X123.857 Y83.570 E0.01675
G1 X142.430 Y102.143 E0.82435
G1 X142.430 Y101.609 E0.01675
G1 X124.391 Y83.570 E0.80066
G1 X124.925 Y83.570 E0.01675
G1 X142.430 Y101.075 E0.77696
G1 X142.430 Y100.541 E0.01675
G1 X125.459 Y83.570 E0.75327
G1 X125.993 Y83.570 E0.01675
G1 X142.430 Y100.007 E0.72958
G1 X142.430 Y99.474 E0.01675
G1 X126.526 Y83.570 E0.70589
G1 X127.060 Y83.570 E0.01675
G1 X142.430 Y98.940 E0.68219
G1 X142.430 Y98.406 E0.01675
G1 X127.594 Y83.570 E0.65850
G1 X128.128 Y83.570 E0.01675
G1 X142.430 Y97.872 E0.63481
G1 X142.430 Y97.338 E0.01675
G1 X128.662 Y83.570 E0.61112
G1 X129.195 Y83.570 E0.01675
G1 X142.430 Y96.805 E0.58742
G1 X142.430 Y96.271 E0.01675
G1 X129.729 Y83.570 E0.56373
G1 X130.263 Y83.570 E0.01675
G1 X142.430 Y95.737 E0.54004
G1 X142.430 Y95.203 E0.01675
G1 X130.797 Y83.570 E0.51635
G1 X131.331 Y83.570 E0.01675
G1 X142.430 Y94.669 E0.49265
G1 X142.430 Y94.136 E0.01675
G1 X131.864 Y83.570 E0.46896
G1 X132.398 Y83.570 E0.01675
G1 X142.430 Y93.602 E0.44527
G1 X142.430 Y93.068 E0.01675
G1 X132.932 Y83.570 E0.42158
G1 X133.466 Y83.570 E0.01675
G1 X142.430 Y92.534 E0.39789
G1 X142.430 Y92.000 E0.01675
G1 X134.000 Y83.570 E0.37419
G1 X134.533 Y83.570 E0.01675
G1 X142.430 Y91.467 E0.35050
G1 X142.430 Y90.933 E0.01675
G1 X135.067 Y83.570 E0.32681
G1 X135.601 Y83.570 E0.01675
G1 X142.430 Y90.399 E0.30312
G1 X142.430 Y89.865 E0.01675
G1 X136.135 Y83.570 E0.27942
G1 X136.669 Y83.570 E0.01675
G1 X142.430 Y89.331 E0.25573
G1 X142.430 Y88.798 E0.01675
G1 X137.202 Y83.570 E0.23204
G1 X137.736 Y83.570 E0.01675
G1 X142.430 Y88.264 E0.20835
G1 X142.430 Y87.730 E0.01675
G1 X138.270 Y83.570 E0.18465
G1 X138.804 Y83.570 E0.01675
G1 X142.430 Y87.196 E0.16096
G1 X142.430 Y86.663 E0.01675
G1 X139.337 Y83.570 E0.13727
G1 X139.871 Y83.570 E0.01675
G1 X142.430 Y86.129 E0.11358
G1 X142.430 Y85.595 E0.01675
G1 X140.405 Y83.570 E0.08988
G1 X140.939 Y83.570 E0.01675
G1 X142.430 Y85.061 E0.06619
G1 X142.430 Y84.527 E0.01675
G1 X141.473 Y83.570 E0.04250
G1 X142.006 Y83.570 E0.01675
G1 X142.600 Y84.163 E0.02634
G1 F8640.000
G1 X142.006 Y83.570 E-0.19376
G1 X141.473 Y83.570 E-0.12325
G1 X142.430 Y84.527 E-0.31266
G1 X142.430 Y85.061 E-0.12325
G1 X142.408 Y85.040 E-0.00707
G1 E-0.04000 F2100.00000
G1 Z0.600 F10800.000
G1 X143.086 Y104.400
G1 Z0.200
G1 E0.80000 F2100.00000
G1 F1200.000
G1 X145.430 Y106.744 E0.10403
G1 X145.430 Y106.210 E0.01675
G1 X143.790 Y104.570 E0.07280
G1 X144.324 Y104.570 E0.01675
G1 X145.430 Y105.676 E0.04911
G1 X145.430 Y105.143 E0.01675
G1 X144.857 Y104.570 E0.02542
G1 X145.391 Y104.570 E0.01675
G1 X145.600 Y104.778 E0.00926
G1 F8640.000
G1 X145.391 Y104.570 E-0.06810
G1 X144.857 Y104.570 E-0.12325
G1 X145.430 Y105.143 E-0.18700
G1 X145.430 Y105.676 E-0.12325
G1 X144.639 Y104.885 E-0.25839
G1 E-0.04000 F2100.00000
G1 Z0.600 F10800.000
G1 X145.600 Y107.447
G1 Z0.200
G1 E0.80000 F2100.00000
G1 F1200.000
G1 X121.722 Y83.570 E1.05981
G1 X121.188 Y83.570 E0.01675
G1 X145.430 Y107.812 E1.07597
G1 X145.430 Y108.345 E0.01675
G1 X120.655 Y83.570 E1.09966
G1 X120.121 Y83.570 E0.01675
G1 X145.430 Y108.879 E1.12335
G1 X145.430 Y109.413 E0.01675
G1 X119.587 Y83.570 E1.14704
G1 X119.053 Y83.570 E0.01675
G1 X145.430 Y109.947 E1.17074
G1 X145.430 Y110.480 E0.01675
G1 X118.520 Y83.570 E1.19443
G1 X117.986 Y83.570 E0.01675
G1 X145.430 Y111.014 E1.21812
G1 X145.430 Y111.548 E0.01675
G1 X117.452 Y83.570 E1.24181
G1 X116.918 Y83.570 E0.01675
G1 X145.430 Y112.082 E1.26551
G1 X145.430 Y112.616 E0.01675
G1 X116.384 Y83.570 E1.28920
M73 Q2 S83
M73 P2 R82
G1 X115.851 Y83.570 E0.01675
G1 X145.430 Y113.149 E1.31289
G1 X145.430 Y113.683 E0.01675
G1 X115.317 Y83.570 E1.33658
G1 X114.783 Y83.570 E0.01675
G1 X145.430 Y114.217 E1.36028
G1 X145.430 Y114.751 E0.01675
G1 X114.249 Y83.570 E1.38397
G1 X113.715 Y83.570 E0.01675
G1 X145.430 Y115.285 E1.40766
G1 X145.430 Y115.818 E0.01675
G1 X113.182 Y83.570 E1.43135
G1 X112.648 Y83.570 E0.01675
G1 X145.430 Y116.352 E1.45505
G1 X145.430 Y116.886 E0.01675
G1 X112.114 Y83.570 E1.47874
G1 X111.580 Y83.570 E0.01675
G1 X145.430 Y117.420 E1.50243
G1 X145.430 Y117.954 E0.01675
G1 X111.046 Y83.570 E1.52612
G1 X110.513 Y83.570 E0.01675
G1 X145.430 Y118.487 E1.54982
G1 X145.430 Y119.021 E0.01675
G1 X109.979 Y83.570 E1.57351
G1 X109.445 Y83.570 E0.01675
G1 X145.430 Y119.555 E1.59720
G1 X145.430 Y120.089 E0.01675
G1 X108.911 Y83.570 E1.62089
G1 X108.377 Y83.570 E0.01675
G1 X145.430 Y120.623 E1.64459
G1 X145.430 Y121.156 E0.01675
G1 X107.844 Y83.570 E1.66828
G1 X107.310 Y83.570 E0.01675
G1 X145.430 Y121.690 E1.69197
G1 X145.430 Y122.224 E0.01675
G1 X106.776 Y83.570 E1.71566
G1 X106.242 Y83.570 E0.01675
G1 X145.430 Y122.758 E1.73936
G1 X145.430 Y123.292 E0.01675
G1 X105.708 Y83.570 E1.76305
G1 X105.175 Y83.570 E0.01675
G1 X145.430 Y123.825 E1.78674
G1 X145.430 Y124.359 E0.01675
G1 X104.641 Y83.570 E1.81043
G1 X104.570 Y83.570 E0.00223
G1 X104.570 Y84.033 E0.01452
G1 X145.430 Y124.893 E1.81359
G1 X145.430 Y125.427 E0.01675
G1 X104.570 Y84.566 E1.81359
M73 Q3 S82
M73 P3 R81
G1 X104.570 Y85.100 E0.01675
G1 X145.430 Y125.960 E1.81359
G1 X145.430 Y126.494 E0.01675
G1 X104.570 Y85.634 E1.81359
G1 X104.570 Y86.168 E0.01675
G1 X145.430 Y127.028 E1.81359
G1 X145.430 Y127.562 E0.01675
G1 X104.570 Y86.702 E1.81359
G1 X104.570 Y87.235 E0.01675
G1 X145.430 Y128.096 E1.81359
G1 X145.430 Y128.629 E0.01675
G1 X104.570 Y87.769 E1.81359
G1 X104.570 Y88.303 E0.01675
G1 X145.430 Y129.163 E1.81359
G1 X145.430 Y129.697 E0.01675
G1 X104.570 Y88.837 E1.81359
G1 X104.570 Y89.371 E0.01675
G1 X145.430 Y130.231 E1.81359
G1 X145.430 Y130.430 E0.00625
G1 X145.096 Y130.430 E0.01050
G1 X104.570 Y89.904 E1.79874
G1 X104.570 Y90.438 E0.01675
G1 X144.562 Y130.430 E1.77505
G1 X144.028 Y130.430 E0.01675
G1 X104.570 Y90.972 E1.75135
G1 X104.570 Y91.506 E0.01675
G1 X143.494 Y130.430 E1.72766
G1 X142.960 Y130.430 E0.01675
G1 X104.570 Y92.040 E1.70397
G1 X104.570 Y92.573 E0.01675
G1 X142.430 Y130.434 E1.68043
G1 X142.430 Y130.967 E0.01675
G1 X104.570 Y93.107 E1.68043
G1 X104.570 Y93.641 E0.01675
G1 X142.359 Y131.430 E1.67728
G1 X141.825 Y131.430 E0.01675
G1 X104.570 Y94.175 E1.65358
G1 X104.570 Y94.709 E0.01675
G1 X141.291 Y131.430 E1.62989
G1 X140.758 Y131.430 E0.01675
G1 X104.570 Y95.242 E1.60620
G1 X104.570 Y95.776 E0.01675
G1 X140.224 Y131.430 E1.58251
G1 X139.690 Y131.430 E0.01675
G1 X104.570 Y96.310 E1.55881
M73 Q4 S81
M73 P4 R80
G1 X104.570 Y96.844 E0.01675
G1 X139.156 Y131.430 E1.53512
G1 X138.623 Y131.430 E0.01675
G1 X104.570 Y97.377 E1.51143
G1 X104.570 Y97.911 E0.01675
G1 X138.089 Y131.430 E1.48774
G1 X137.555 Y131.430 E0.01675
G1 X104.570 Y98.445 E1.46404
G1 X104.570 Y98.979 E0.01675
G1 X137.021 Y131.430 E1.44035
G1 X136.487 Y131.430 E0.01675
G1 X104.570 Y99.513 E1.41666
G1 X104.570 Y100.046 E0.01675
G1 X135.954 Y131.430 E1.39297
G1 X135.420 Y131.430 E0.01675
G1 X104.570 Y100.580 E1.36927
G1 X104.570 Y101.114 E0.01675
G1 X134.886 Y131.430 E1.34558
G1 X134.352 Y131.430 E0.01675
G1 X104.570 Y101.648 E1.32189
G1 X104.570 Y102.182 E0.01675
G1 X133.818 Y131.430 E1.29820
G1 X133.285 Y131.430 E0.01675
G1 X104.570 Y102.715 E1.27450
G1 X104.570 Y103.249 E0.01675
G1 X132.751 Y131.430 E1.25081
G1 X132.217 Y131.430 E0.01675
G1 X104.570 Y103.783 E1.22712
G1 X104.570 Y104.317 E0.01675
G1 X131.683 Y131.430 E1.20343
G1 X131.149 Y131.430 E0.01675
G1 X104.570 Y104.851 E1.17974
G1 X104.570 Y105.384 E0.01675
G1 X130.616 Y131.430 E1.15604
G1 X130.082 Y131.430 E0.01675
G1 X104.570 Y105.918 E1.13235
G1 X104.570 Y106.452 E0.01675
G1 X129.548 Y131.430 E1.10866
G1 X129.014 Y131.430 E0.01675
G1 X104.570 Y106.986 E1.08497
G1 X104.570 Y107.520 E0.01675
G1 X128.480 Y131.430 E1.06127
G1 X127.947 Y131.430 E0.01675
G1 X104.570 Y108.053 E1.03758
G1 X104.570 Y108.587 E0.01675
G1 X127.413 Y131.430 E1.01389
G1 X126.879 Y131.430 E0.01675
G1 X104.570 Y109.121 E0.99020
G1 X104.570 Y109.655 E0.01675
G1 X126.345 Y131.430 E0.96650
G1 X125.811 Y131.430 E0.01675
G1 X104.570 Y110.189 E0.94281
G1 X104.570 Y110.722 E0.01675
G1 X125.278 Y131.430 E0.91912
G1 X124.744 Y131.430 E0.01675
G1 X104.570 Y111.256 E0.89543
G1 X104.570 Y111.790 E0.01675
G1 X124.210 Y131.430 E0.87173
G1 X123.676 Y131.430 E0.01675
G1 X104.570 Y112.324 E0.84804
G1 X104.570 Y112.858 E0.01675
G1 X123.142 Y131.430 E0.82435
G1 X122.609 Y131.430 E0.01675
G1 X104.570 Y113.391 E0.80066
M73 Q6 S80
M73 P6 R79
G1 X104.570 Y113.925 E0.01675
G1 X122.075 Y131.430 E0.77696
G1 X121.541 Y131.430 E0.01675
G1 X104.570 Y114.459 E0.75327
G1 X104.570 Y114.993 E0.01675
G1 X121.007 Y131.430 E0.72958
G1 X120.474 Y131.430 E0.01675
G1 X104.570 Y115.526 E0.70589
G1 X104.570 Y116.060 E0.01675
G1 X119.940 Y131.430 E0.68219
G1 X119.406 Y131.430 E0.01675
G1 X104.570 Y116.594 E0.65850
G1 X104.570 Y117.128 E0.01675
G1 X118.872 Y131.430 E0.63481
G1 X118.338 Y131.430 E0.01675
G1 X104.570 Y117.662 E0.61112
