; generated by PrusaSlicer 2.2.0+win64 on 2022-12-30 at 19:57:36 UTC

; 

; external perimeters extrusion width = 0.45mm
; perimeters extrusion width = 0.45mm
; infill extrusion width = 0.45mm
; solid infill extrusion width = 0.45mm
; top infill extrusion width = 0.40mm
; support material extrusion width = 0.35mm
; first layer extrusion width = 0.42mm

M73 P0 R69
M73 Q0 S70
M201 X1000 Y1000 Z200 E5000 ; sets maximum accelerations, mm/sec^2
M203 X200 Y200 Z12 E120 ; sets maximum feedrates, mm/sec
M204 P1250 R1250 T1250 ; sets acceleration (P, T) and retract acceleration (R), mm/sec^2
M205 X8.00 Y8.00 Z0.40 E4.50 ; sets the jerk limits, mm/sec
M205 S0 T0 ; sets the minimum extruding and travel feed rate, mm/sec
M107
M862.3 P "MK3S" ; printer model check
M862.1 P0.4 ; nozzle diameter check
M115 U3.11.0 ; tell printer latest fw version
G90 ; use absolute coordinates
M83 ; extruder relative mode
M104 S220 ; set extruder temp
M140 S80 ; set bed temp
M190 S80 ; wait for bed temp
M109 S220 ; wait for extruder temp
G28 W ; home all without mesh bed level
G80 ; mesh bed leveling
G1 Y-3.0 F1000.0 ; go outside print area
G92 E0.0
G1 X60.0 E9.0 F1000.0 ; intro line
M73 Q0 S69
M73 P0 R69
G1 X100.0 E12.5 F1000.0 ; intro line
G92 E0.0
M221 S95

; Don't change E values below. Excessive value can damage the printer.
M907 E430 ; set extruder motor current
G21 ; set units to millimeters
G90 ; use absolute coordinates
M83 ; use relative distances for extrusion
M900 K0.05 ; Filament gcode LA 1.5
M900 K30 ; Filament gcode LA 1.0
;BEFORE_LAYER_CHANGE
G92 E0.0
;0.2


G1 E-0.80000 F2100.00000
G1 Z0.400 F10800.000
;AFTER_LAYER_CHANGE
;0.2
G1 X101.316 Y76.563
G1 Z0.200
G1 E0.80000 F2100.00000
M204 S1000
G1 F1200.000
G1 X101.663 Y75.992 E0.02095
G1 X102.158 Y75.538 E0.02107
G1 X102.757 Y75.242 E0.02095
G1 X103.419 Y75.124 E0.02107
G1 X143.504 Y75.123 E1.25683
G1 X144.285 Y75.256 E0.02484
G1 X144.979 Y75.639 E0.02484
G1 X145.508 Y76.228 E0.02484
G1 X145.816 Y76.963 E0.02496
G1 X148.866 Y98.266 E0.67476
G1 X148.877 Y126.515 E0.88574
G1 X148.684 Y127.437 E0.02954
G1 X148.298 Y128.055 E0.02284
G1 X147.739 Y128.528 E0.02296
G1 X131.029 Y138.209 E0.60552
G1 X130.299 Y138.331 E0.02319
G1 X117.447 Y138.331 E0.40298
G1 X116.521 Y138.138 E0.02966
G1 X102.195 Y129.487 E0.52475
G1 X101.560 Y128.873 E0.02767
G1 X101.193 Y128.071 E0.02767
G1 X101.123 Y127.506 E0.01787
G1 X101.123 Y77.492 E1.56813
G1 X101.303 Y76.621 E0.02789
; printing object knee top.STL id:0 copy 0
G1 F8640.000
G1 X101.663 Y75.992 E-0.16740
G1 X102.158 Y75.538 E-0.15515
G1 X102.757 Y75.242 E-0.15428
G1 X103.419 Y75.124 E-0.15515
G1 X103.973 Y75.124 E-0.12802
G1 E-0.04000 F2100.00000
G1 Z0.600 F10800.000
G1 X130.279 Y135.954
G1 Z0.200
G1 E0.80000 F2100.00000
G1 F1200.000
G1 X130.279 Y127.914 E0.25209
G1 X129.525 Y127.914 E0.02365
G1 X129.525 Y135.784 E0.24677
G1 X128.771 Y135.784 E0.02365
G1 X128.771 Y127.914 E0.24677
G1 X128.017 Y127.914 E0.02365
G1 X128.017 Y135.784 E0.24677
G1 X127.262 Y135.784 E0.02365
G1 X127.262 Y127.914 E0.24677
G1 X126.508 Y127.914 E0.02365
G1 X126.508 Y135.784 E0.24677
G1 X125.754 Y135.784 E0.02365
G1 X125.754 Y127.914 E0.24677
G1 X125.000 Y127.914 E0.02365
G1 X125.000 Y135.784 E0.24677
G1 X124.246 Y135.784 E0.02365
G1 X124.246 Y127.914 E0.24677
G1 X123.492 Y127.914 E0.02365
G1 X123.492 Y135.784 E0.24677
G1 X122.738 Y135.784 E0.02365
G1 X122.738 Y127.914 E0.24677
G1 X121.983 Y127.914 E0.02365
G1 X121.983 Y135.784 E0.24677
G1 X121.229 Y135.784 E0.02365
G1 X121.229 Y127.914 E0.24677
G1 X120.475 Y127.914 E0.02365
G1 X120.475 Y135.784 E0.24677
G1 X119.721 Y135.784 E0.02365
G1 X119.721 Y127.914 E0.24677
G1 X118.967 Y127.914 E0.02365
G1 X118.967 Y135.784 E0.24677
G1 X118.213 Y135.784 E0.02365
G1 X118.213 Y127.914 E0.24677
G1 X117.458 Y127.914 E0.02365
G1 X117.458 Y135.954 E0.25209
G1 F8640.000
G1 X117.458 Y132.662 E-0.76000
G1 E-0.04000 F2100.00000
G1 Z0.600 F10800.000
G1 X142.713 Y99.287
G1 Z0.200
G1 E0.80000 F2100.00000
G1 F1200.000
G1 X145.713 Y99.287 E0.09406
G1 X145.713 Y125.713 E0.82856
G1 X142.713 Y125.713 E0.09406
G1 X142.713 Y126.713 E0.03135
G1 X104.287 Y126.713 E1.20482
G1 X104.287 Y78.287 E1.51836
G1 X142.713 Y78.287 E1.20482
G1 X142.713 Y99.227 E0.65656
G1 X143.090 Y98.910 F10800.000
G1 F1200.000
G1 X146.090 Y98.910 E0.09406
G1 X146.090 Y126.090 E0.85221
G1 X143.090 Y126.090 E0.09406
G1 X143.090 Y127.090 E0.03135
G1 X103.910 Y127.090 E1.22846
G1 X103.910 Y77.910 E1.54200
G1 X143.090 Y77.910 E1.22846
G1 X143.090 Y98.850 E0.65656
G1 X143.231 Y99.284 F10800.000
G1 X142.600 Y98.914
G1 F1200.000
G1 X122.256 Y78.570 E0.90296
G1 X122.790 Y78.570 E0.01675
G1 X142.430 Y98.210 E0.87173
G1 X142.430 Y97.676 E0.01675
G1 X123.324 Y78.570 E0.84804
G1 X123.857 Y78.570 E0.01675
G1 X142.430 Y97.143 E0.82435
G1 X142.430 Y96.609 E0.01675
G1 X124.391 Y78.570 E0.80066
G1 X124.925 Y78.570 E0.01675
G1 X142.430 Y96.075 E0.77696
G1 X142.430 Y95.541 E0.01675
G1 X125.459 Y78.570 E0.75327
G1 X125.993 Y78.570 E0.01675
G1 X142.430 Y95.007 E0.72958
G1 X142.430 Y94.474 E0.01675
G1 X126.526 Y78.570 E0.70589
G1 X127.060 Y78.570 E0.01675
G1 X142.430 Y93.940 E0.68219
G1 X142.430 Y93.406 E0.01675
G1 X127.594 Y78.570 E0.65850
G1 X128.128 Y78.570 E0.01675
G1 X142.430 Y92.872 E0.63481
G1 X142.430 Y92.338 E0.01675
G1 X128.662 Y78.570 E0.61112
G1 X129.195 Y78.570 E0.01675
G1 X142.430 Y91.805 E0.58742
G1 X142.430 Y91.271 E0.01675
G1 X129.729 Y78.570 E0.56373
G1 X130.263 Y78.570 E0.01675
G1 X142.430 Y90.737 E0.54004
M73 Q1 S68
M73 P1 R68
G1 X142.430 Y90.203 E0.01675
G1 X130.797 Y78.570 E0.51635
G1 X131.331 Y78.570 E0.01675
G1 X142.430 Y89.669 E0.49265
G1 X142.430 Y89.136 E0.01675
G1 X131.864 Y78.570 E0.46896
G1 X132.398 Y78.570 E0.01675
G1 X142.430 Y88.602 E0.44527
G1 X142.430 Y88.068 E0.01675
G1 X132.932 Y78.570 E0.42158
G1 X133.466 Y78.570 E0.01675
G1 X142.430 Y87.534 E0.39789
G1 X142.430 Y87.000 E0.01675
G1 X134.000 Y78.570 E0.37419
G1 X134.533 Y78.570 E0.01675
G1 X142.430 Y86.467 E0.35050
G1 X142.430 Y85.933 E0.01675
G1 X135.067 Y78.570 E0.32681
G1 X135.601 Y78.570 E0.01675
G1 X142.430 Y85.399 E0.30312
G1 X142.430 Y84.865 E0.01675
G1 X136.135 Y78.570 E0.27942
G1 X136.669 Y78.570 E0.01675
G1 X142.430 Y84.331 E0.25573
G1 X142.430 Y83.798 E0.01675
G1 X137.202 Y78.570 E0.23204
G1 X137.736 Y78.570 E0.01675
G1 X142.430 Y83.264 E0.20835
G1 X142.430 Y82.730 E0.01675
G1 X138.270 Y78.570 E0.18465
G1 X138.804 Y78.570 E0.01675
G1 X142.430 Y82.196 E0.16096
G1 X142.430 Y81.663 E0.01675
G1 X139.337 Y78.570 E0.13727
G1 X139.871 Y78.570 E0.01675
G1 X142.430 Y81.129 E0.11358
G1 X142.430 Y80.595 E0.01675
G1 X140.405 Y78.570 E0.08988
G1 X140.939 Y78.570 E0.01675
G1 X142.430 Y80.061 E0.06619
G1 X142.430 Y79.527 E0.01675
G1 X141.473 Y78.570 E0.04250
G1 X142.006 Y78.570 E0.01675
G1 X142.600 Y79.163 E0.02634
G1 F8640.000
G1 X142.006 Y78.570 E-0.19376
G1 X141.473 Y78.570 E-0.12325
G1 X142.430 Y79.527 E-0.31266
G1 X142.430 Y80.061 E-0.12325
G1 X142.408 Y80.040 E-0.00707
G1 E-0.04000 F2100.00000
G1 Z0.600 F10800.000
G1 X143.086 Y99.400
G1 Z0.200
G1 E0.80000 F2100.00000
G1 F1200.000
G1 X145.430 Y101.744 E0.10403
G1 X145.430 Y101.210 E0.01675
G1 X143.790 Y99.570 E0.07280
G1 X144.324 Y99.570 E0.01675
G1 X145.430 Y100.676 E0.04911
G1 X145.430 Y100.143 E0.01675
G1 X144.857 Y99.570 E0.02542
G1 X145.391 Y99.570 E0.01675
G1 X145.600 Y99.778 E0.00926
G1 F8640.000
G1 X145.391 Y99.570 E-0.06810
G1 X144.857 Y99.570 E-0.12325
G1 X145.430 Y100.143 E-0.18700
G1 X145.430 Y100.676 E-0.12325
G1 X144.639 Y99.885 E-0.25839
G1 E-0.04000 F2100.00000
G1 Z0.600 F10800.000
G1 X145.600 Y102.447
G1 Z0.200
G1 E0.80000 F2100.00000
G1 F1200.000
G1 X121.722 Y78.570 E1.05981
G1 X121.188 Y78.570 E0.01675
G1 X145.430 Y102.812 E1.07597
G1 X145.430 Y103.345 E0.01675
G1 X120.655 Y78.570 E1.09966
G1 X120.121 Y78.570 E0.01675
G1 X145.430 Y103.879 E1.12335
G1 X145.430 Y104.413 E0.01675
G1 X119.587 Y78.570 E1.14704
G1 X119.053 Y78.570 E0.01675
G1 X145.430 Y104.947 E1.17074
G1 X145.430 Y105.480 E0.01675
G1 X118.520 Y78.570 E1.19443
G1 X117.986 Y78.570 E0.01675
G1 X145.430 Y106.014 E1.21812
G1 X145.430 Y106.548 E0.01675
G1 X117.452 Y78.570 E1.24181
G1 X116.918 Y78.570 E0.01675
G1 X145.430 Y107.082 E1.26551
G1 X145.430 Y107.616 E0.01675
G1 X116.384 Y78.570 E1.28920
G1 X115.851 Y78.570 E0.01675
G1 X145.430 Y108.149 E1.31289
G1 X145.430 Y108.683 E0.01675
G1 X115.317 Y78.570 E1.33658
G1 X114.783 Y78.570 E0.01675
G1 X145.430 Y109.217 E1.36028
G1 X145.430 Y109.751 E0.01675
G1 X114.249 Y78.570 E1.38397
G1 X113.715 Y78.570 E0.01675
G1 X145.430 Y110.285 E1.40766
G1 X145.430 Y110.818 E0.01675
G1 X113.182 Y78.570 E1.43135
G1 X112.648 Y78.570 E0.01675
G1 X145.430 Y111.352 E1.45505
G1 X145.430 Y111.886 E0.01675
G1 X112.114 Y78.570 E1.47874
G1 X111.580 Y78.570 E0.01675
G1 X145.430 Y112.420 E1.50243
G1 X145.430 Y112.954 E0.01675
G1 X111.046 Y78.570 E1.52612
G1 X110.513 Y78.570 E0.01675
G1 X145.430 Y113.487 E1.54982
G1 X145.430 Y114.021 E0.01675
G1 X109.979 Y78.570 E1.57351
M73 Q3 S67
M73 P3 R67
G1 X109.445 Y78.570 E0.01675
G1 X145.430 Y114.555 E1.59720
G1 X145.430 Y115.089 E0.01675
G1 X108.911 Y78.570 E1.62089
G1 X108.377 Y78.570 E0.01675
G1 X145.430 Y115.623 E1.64459
G1 X145.430 Y116.156 E0.01675
G1 X107.844 Y78.570 E1.66828
G1 X107.310 Y78.570 E0.01675
G1 X145.430 Y116.690 E1.69197
G1 X145.430 Y117.224 E0.01675
G1 X106.776 Y78.570 E1.71566
G1 X106.242 Y78.570 E0.01675
G1 X145.430 Y117.758 E1.73936
G1 X145.430 Y118.292 E0.01675
G1 X105.708 Y78.570 E1.76305
G1 X105.175 Y78.570 E0.01675
G1 X145.430 Y118.825 E1.78674
G1 X145.430 Y119.359 E0.01675
G1 X104.641 Y78.570 E1.81043
G1 X104.570 Y78.570 E0.00223
G1 X104.570 Y79.033 E0.01452
G1 X145.430 Y119.893 E1.81359
G1 X145.430 Y120.427 E0.01675
G1 X104.570 Y79.566 E1.81359
G1 X104.570 Y80.100 E0.01675
G1 X145.430 Y120.960 E1.81359
G1 X145.430 Y121.494 E0.01675
G1 X104.570 Y80.634 E1.81359
G1 X104.570 Y81.168 E0.01675
G1 X145.430 Y122.028 E1.81359
G1 X145.430 Y122.562 E0.01675
G1 X104.570 Y81.702 E1.81359
G1 X104.570 Y82.235 E0.01675
G1 X145.430 Y123.096 E1.81359
G1 X145.430 Y123.629 E0.01675
G1 X104.570 Y82.769 E1.81359
G1 X104.570 Y83.303 E0.01675
G1 X145.430 Y124.163 E1.81359
G1 X145.430 Y124.697 E0.01675
G1 X104.570 Y83.837 E1.81359
G1 X104.570 Y84.371 E0.01675
G1 X145.430 Y125.231 E1.81359
G1 X145.430 Y125.430 E0.00625
G1 X145.096 Y125.430 E0.01050
G1 X104.570 Y84.904 E1.79874
M73 Q4 S66
M73 P4 R66
G1 X104.570 Y85.438 E0.01675
G1 X144.562 Y125.430 E1.77505
G1 X144.028 Y125.430 E0.01675
G1 X104.570 Y85.972 E1.75135
G1 X104.570 Y86.506 E0.01675
G1 X143.494 Y125.430 E1.72766
G1 X142.960 Y125.430 E0.01675
G1 X104.570 Y87.040 E1.70397
G1 X104.570 Y87.573 E0.01675
G1 X142.430 Y125.434 E1.68043
G1 X142.430 Y125.967 E0.01675
G1 X104.570 Y88.107 E1.68043
G1 X104.570 Y88.641 E0.01675
G1 X142.359 Y126.430 E1.67728
G1 X141.825 Y126.430 E0.01675
G1 X104.570 Y89.175 E1.65358
G1 X104.570 Y89.709 E0.01675
G1 X141.291 Y126.430 E1.62989
G1 X140.758 Y126.430 E0.01675
G1 X104.570 Y90.242 E1.60620
G1 X104.570 Y90.776 E0.01675
G1 X140.224 Y126.430 E1.58251
G1 X139.690 Y126.430 E0.01675
G1 X104.570 Y91.310 E1.55881
G1 X104.570 Y91.844 E0.01675
G1 X139.156 Y126.430 E1.53512
G1 X138.623 Y126.430 E0.01675
G1 X104.570 Y92.377 E1.51143
G1 X104.570 Y92.911 E0.01675
G1 X138.089 Y126.430 E1.48774
G1 X137.555 Y126.430 E0.01675
G1 X104.570 Y93.445 E1.46404
G1 X104.570 Y93.979 E0.01675
G1 X137.021 Y126.430 E1.44035
G1 X136.487 Y126.430 E0.01675
G1 X104.570 Y94.513 E1.41666
G1 X104.570 Y95.046 E0.01675
G1 X135.954 Y126.430 E1.39297
G1 X135.420 Y126.430 E0.01675
G1 X104.570 Y95.580 E1.36927
G1 X104.570 Y96.114 E0.01675
G1 X134.886 Y126.430 E1.34558
G1 X134.352 Y126.430 E0.01675
G1 X104.570 Y96.648 E1.32189
G1 X104.570 Y97.182 E0.01675
G1 X133.818 Y126.430 E1.29820
G1 X133.285 Y126.430 E0.01675
G1 X104.570 Y97.715 E1.27451
G1 X104.570 Y98.249 E0.01675
G1 X132.751 Y126.430 E1.25081
M73 Q5 S65
M73 P6 R65
G1 X132.217 Y126.430 E0.01675
G1 X104.570 Y98.783 E1.22712
G1 X104.570 Y99.317 E0.01675
G1 X131.683 Y126.430 E1.20343
G1 X131.149 Y126.430 E0.01675
G1 X104.570 Y99.851 E1.17974
G1 X104.570 Y100.384 E0.01675
G1 X130.616 Y126.430 E1.15604
G1 X130.082 Y126.430 E0.01675
G1 X104.570 Y100.918 E1.13235
G1 X104.570 Y101.452 E0.01675
G1 X129.548 Y126.430 E1.10866
G1 X129.014 Y126.430 E0.01675
G1 X104.570 Y101.986 E1.08497
G1 X104.570 Y102.520 E0.01675
G1 X128.480 Y126.430 E1.06127
G1 X127.947 Y126.430 E0.01675
G1 X104.570 Y103.053 E1.03758
G1 X104.570 Y103.587 E0.01675
G1 X127.413 Y126.430 E1.01389
G1 X126.879 Y126.430 E0.01675
G1 X104.570 Y104.121 E0.99020
G1 X104.570 Y104.655 E0.01675
G1 X126.345 Y126.430 E0.96650
G1 X125.811 Y126.430 E0.01675
G1 X104.570 Y105.189 E0.94281
G1 X104.570 Y105.722 E0.01675
G1 X125.278 Y126.430 E0.91912
G1 X124.744 Y126.430 E0.01675
G1 X104.570 Y106.256 E0.89543
G1 X104.570 Y106.790 E0.01675
G1 X124.210 Y126.430 E0.87173
G1 X123.676 Y126.430 E0.01675
G1 X104.570 Y107.324 E0.84804
G1 X104.570 Y107.858 E0.01675
G1 X123.142 Y126.430 E0.82435
G1 X122.609 Y126.430 E0.01675
G1 X104.570 Y108.391 E0.80066
G1 X104.570 Y108.925 E0.01675
G1 X122.075 Y126.430 E0.77696
G1 X121.541 Y126.430 E0.01675
G1 X104.570 Y109.459 E0.75327
G1 X104.570 Y109.993 E0.01675
G1 X121.007 Y126.430 E0.72958
G1 X120.474 Y126.430 E0.01675
G1 X104.570 Y110.526 E0.70589
G1 X104.570 Y111.060 E0.01675
G1 X119.940 Y126.430 E0.68219
G1 X119.406 Y126.430 E0.01675
G1 X104.570 Y111.594 E0.65850
G1 X104.570 Y112.128 E0.01675
G1 X118.872 Y126.430 E0.63481
G1 X118.338 Y126.430 E0.01675
G1 X104.570 Y112.662 E0.61112
G1 X104.570 Y113.195 E0.01675
G1 X117.805 Y126.430 E0.58742
G1 X117.271 Y126.430 E0.01675
G1 X104.570 Y113.729 E0.56373
G1 X104.570 Y114.263 E0.01675
G1 X116.737 Y126.430 E0.54004
G1 X116.203 Y126.430 E0.01675
G1 X104.570 Y114.797 E0.51635
G1 X104.570 Y115.331 E0.01675
G1 X115.669 Y126.430 E0.49265
G1 X115.136 Y126.430 E0.01675
G1 X104.570 Y115.864 E0.46896
G1 X104.570 Y116.398 E0.01675
G1 X114.602 Y126.430 E0.44527
G1 X114.068 Y126.430 E0.01675
G1 X104.570 Y116.932 E0.42158
G1 X104.570 Y117.466 E0.01675
G1 X113.534 Y126.430 E0.39788
G1 X113.000 Y126.430 E0.01675
G1 X104.570 Y118.000 E0.37419
G1 X104.570 Y118.533 E0.01675
G1 X112.467 Y126.430 E0.35050
G1 X111.933 Y126.430 E0.01675
G1 X104.570 Y119.067 E0.32681
G1 X104.570 Y119.601 E0.01675
G1 X111.399 Y126.430 E0.30311
G1 X110.865 Y126.430 E0.01675
G1 X104.570 Y120.135 E0.27942
G1 X104.570 Y120.669 E0.01675
G1 X110.331 Y126.430 E0.25573
G1 X109.798 Y126.430 E0.01675
G1 X104.570 Y121.202 E0.23204
G1 X104.570 Y121.736 E0.01675
G1 X109.264 Y126.430 E0.20834
G1 X108.730 Y126.430 E0.01675
G1 X104.570 Y122.270 E0.18465
G1 X104.570 Y122.804 E0.01675
G1 X108.196 Y126.430 E0.16096
G1 X107.662 Y126.430 E0.01675
G1 X104.570 Y123.338 E0.13727
G1 X104.570 Y123.871 E0.01675
G1 X107.129 Y126.430 E0.11357
G1 X106.595 Y126.430 E0.01675
G1 X104.570 Y124.405 E0.08988
G1 X104.570 Y124.939 E0.01675
G1 X106.061 Y126.430 E0.06619
G1 X105.527 Y126.430 E0.01675
G1 X104.570 Y125.473 E0.04250
G1 X104.570 Y126.006 E0.01675
G1 X105.163 Y126.600 E0.02633
; stop printing object knee top.STL id:0 copy 0
M106 S255
;BEFORE_LAYER_CHANGE
G92 E0.0
;0.35


G1 F8640.000
G1 X104.570 Y126.006 E-0.19375
G1 X104.570 Y125.473 E-0.12325
G1 X105.527 Y126.430 E-0.31265
G1 X106.061 Y126.430 E-0.12325
G1 X106.039 Y126.408 E-0.00710
G1 E-0.04000 F2100.00000
G1 Z0.600 F10800.000
;AFTER_LAYER_CHANGE
;0.35
M104 S215 ; set temperature
M140 S60 ; set bed temperature
G1 X101.560 Y128.873
G1 Z0.350
G1 E0.80000 F2100.00000
G1 F3000.000
G1 X101.193 Y128.071 E0.02134
G1 X101.123 Y127.506 E0.01378
G1 X101.123 Y77.492 E1.20956
G1 X101.316 Y76.563 E0.02297
G1 X101.663 Y75.992 E0.01616
G1 X102.158 Y75.538 E0.01625
G1 X102.757 Y75.242 E0.01616
G1 X103.419 Y75.124 E0.01625
G1 X143.504 Y75.123 E0.96945
G1 X144.285 Y75.256 E0.01916
G1 X144.979 Y75.639 E0.01916
G1 X145.508 Y76.228 E0.01916
G1 X145.816 Y76.963 E0.01925
G1 X148.866 Y98.266 E0.52047
G1 X148.877 Y126.515 E0.68321
G1 X148.684 Y127.437 E0.02279
G1 X148.298 Y128.055 E0.01762
G1 X147.739 Y128.528 E0.01771
G1 X131.029 Y138.209 E0.46706
G1 X130.299 Y138.331 E0.01789
G1 X117.447 Y138.331 E0.31083
